P3
160 102
255
255 255 255 238 238 238 0 0 0 0 0 0 0 0 0 0 0 0 0 0 0 17 17 17 0 0 0 0 0 0 0 0 0 0 0 0 0 0 0 0 0 0 0 0 0 0 0 0 0 0 0 0 0 0 0 0 0 0 0 0 34 34 34 0 0 0 0 0 0 0 0 0 0 0 0 0 0 0 0 0 0 0 0 0 0 0 0 0 0 0 17 17 17 153 153 153 0 0 0 0 0 0 0 0 0 0 0 0 255 255 255 238 238 238 0 0 0 0 0 0 0 0 0 0 0 0 0 0 0 34 34 34 0 0 0 0 0 0 0 0 0 0 0 0 0 0 0 0 0 0 17 17 17 170 170 170 0 0 0 0 0 0 17 17 17 170 170 170 0 0 0 0 0 0 0 0 0 0 0 0 0 0 0 0 0 0 0 0 0 0 0 0 0 0 0 0 0 0 0 0 0 0 0 0 0 0 0 0 0 0 0 0 0 0 0 0 0 0 0 0 0 0 0 0 0 0 0 0 0 0 0 0 0 0 0 0 0 0 0 0 0 0 0 0 0 0 0 0 0 0 0 0 0 0 0 0 0 0 0 0 0 0 0 0 0 0 0 0 0 0 0 0 0 0 0 0 0 0 0 0 0 0 0 0 0 0 0 0 0 0 0 0 0 0 0 0 0 0 0 0 34 34 34 170 170 170 0 0 0 0 0 0 0 0 0 0 0 0 0 0 0 0 0 0 0 0 0 0 0 0 0 0 0 0 0 0 0 0 0 0 0 0 0 0 0 0 0 0 0 0 0 0 0 0 0 0 0 0 0 0 0 0 0 0 0 0 0 0 0 0 0 0 0 0 0 0 0 0 0 0 0 0 0 0 0 0 0 0 0 0 0 0 0 0 0 0 0 0 0 0 0 0 0 0 0 0 0 0 0 0 0 0 0 0 0 0 0 0 0 0 0 0 0 0 0 0 0 0 0 0 0 0 0 0 0 0 0 0 0 0 0 0 0 0 0 0 0 0 0 0 0 0 0 0 0 0 0 0 0 0 0 0 0 0 0 0 0 0 0 0 0 0 0 0 0 0 0 0 0 0 
0 0 0 0 0 0 0 0 0 0 0 0 0 0 0 0 0 0 0 0 0 0 0 0 0 0 0 0 0 0 0 0 0 0 0 0 0 0 0 0 0 0 0 0 0 0 0 0 0 0 0 0 0 0 0 0 0 0 0 0 0 0 0 0 0 0 0 0 0 0 0 0 0 0 0 0 0 0 0 0 0 0 0 0 0 0 0 0 0 0 0 0 0 0 0 0 0 0 0 0 0 0 0 0 0 0 0 0 0 0 0 0 0 0 0 0 0 0 0 0 0 0 0 0 0 0 0 0 0 0 0 0 0 0 0 0 0 0 0 0 0 0 0 0 0 0 0 0 0 0 0 0 0 0 0 0 0 0 0 0 0 0 0 0 0 0 0 0 0 0 0 0 0 0 0 0 0 0 0 0 0 0 0 0 0 0 0 0 0 0 0 0 0 0 0 0 0 0 0 0 0 0 0 0 0 0 0 0 0 0 0 0 0 0 0 0 0 0 0 0 0 0 0 0 0 0 0 0 0 0 0 0 0 0 153 153 153 68 68 68 0 0 0 0 0 0 0 0 0 0 0 0 0 0 0 0 0 0 0 0 0 0 0 0 0 0 0 0 0 0 0 0 0 0 0 0 0 0 0 0 0 0 0 0 0 0 0 0 102 102 102 34 34 34 0 0 0 0 0 0 204 204 204 68 68 68 0 0 0 0 0 0 0 0 0 0 0 0 153 153 153 68 68 68 0 0 0 0 0 0 0 0 0 0 0 0 0 0 0 0 0 0 0 0 0 0 0 0 0 0 0 0 0 0 0 0 0 0 0 0 0 0 0 0 0 0 0 0 0 0 0 0 0 0 0 0 0 0 170 170 170 0 0 0 0 0 0 0 0 0 0 0 0 0 0 0 136 136 136 0 0 0 0 0 0 0 0 0 34 34 34 68 68 68 0 0 0 0 0 0 0 0 0 0 0 0 0 0 0 0 0 0 0 0 0 0 0 0 0 0 0 0 0 0 0 0 0 0 0 0 0 0 0 0 0 0 0 0 0 0 0 0 0 0 0 0 0 0 0 0 0 0 0 0 0 0 0 0 0 0 
0 0 0 0 0 0 0 0 0 0 0 0 34 34 34 136 136 136 0 0 0 0 0 0 0 0 0 0 0 0 0 0 0 0 0 0 0 0 0 0 0 0 0 0 0 0 0 0 0 0 0 0 0 0 0 0 0 0 0 0 0 0 0 0 0 0 0 0 0 0 0 0 34 34 34 0 0 0 0 0 0 0 0 0 0 0 0 0 0 0 0 0 0 0 0 0 0 0 0 0 0 0 0 0 0 0 0 0 0 0 0 0 0 0 0 0 0 0 0 0 0 0 0 0 0 0 0 0 0 0 0 0 0 0 0 0 0 0 0 0 0 0 0 0 0 0 0 0 0 0 0 0 0 0 0 0 0 0 0 0 0 0 0 0 0 0 0 0 0 0 0 0 0 0 0 0 0 0 0 0 0 0 0 0 0 0 0 0 0 0 0 0 0 0 0 0 0 0 0 0 0 0 0 0 0 0 0 0 0 0 0 0 0 0 0 0 0 0 0 0 0 0 0 0 0 0 0 0 0 0 0 0 0 0 0 0 0 0 0 0 0 0 0 0 0 0 0 0 0 0 0 0 0 0 0 0 0 0 0 0 0 0 0 0 0 0 0 0 0 0 0 0 0 0 0 0 0 0 0 0 0 0 0 0 0 0 0 0 0 0 0 0 0 0 0 0 0 0 0 0 0 0 0 0 0 0 0 0 0 0 0 0 0 0 0 0 0 0 0 0 0 0 0 0 0 0 0 0 0 0 0 0 0 0 0 0 0 0 0 0 0 0 0 0 0 0 0 0 0 0 0 0 0 0 0 0 0 0 0 0 0 0 0 0 0 0 0 0 0 0 0 0 0 0 0 0 0 0 0 0 0 0 0 0 0 0 0 0 0 0 0 0 0 0 0 0 0 0 0 0 0 0 0 0 0 0 0 0 0 0 0 0 0 0 0 0 0 0 0 0 0 0 0 0 0 0 0 0 0 0 0 0 0 0 0 0 0 0 0 0 0 0 0 0 0 0 0 51 51 51 0 0 0 0 0 0 0 0 0 0 0 0 0 0 0 0 0 0 0 0 0 0 0 0 0 0 0 0 0 0 
0 0 0 0 0 0 0 0 0 0 0 0 0 0 0 0 0 0 0 0 0 0 0 0 0 0 0 0 0 0 0 0 0 0 0 0 0 0 0 0 0 0 0 0 0 0 0 0 0 0 0 0 0 0 0 0 0 0 0 0 0 0 0 0 0 0 0 0 0 0 0 0 0 0 0 0 0 0 0 0 0 0 0 0 0 0 0 0 0 0 0 0 0 0 0 0 0 0 0 187 187 187 51 51 51 68 68 68 85 85 85 17 17 17 0 0 0 187 187 187 51 51 51 68 68 68 85 85 85 17 17 17 0 0 0 187 187 187 51 51 51 68 68 68 85 85 85 17 17 17 0 0 0 187 187 187 51 51 51 68 68 68 85 85 85 17 17 17 0 0 0 187 187 187 51 51 51 68 68 68 85 85 85 17 17 17 0 0 0 187 187 187 51 51 51 68 68 68 85 85 85 17 17 17 0 0 0 187 187 187 51 51 51 68 68 68 85 85 85 17 17 17 0 0 0 187 187 187 51 51 51 68 68 68 85 85 85 17 17 17 0 0 0 187 187 187 51 51 51 68 68 68 85 85 85 17 17 17 0 0 0 187 187 187 51 51 51 68 68 68 85 85 85 17 17 17 0 0 0 187 187 187 51 51 51 68 68 68 85 85 85 17 17 17 0 0 0 187 187 187 51 51 51 68 68 68 85 85 85 17 17 17 0 0 0 187 187 187 51 51 51 68 68 68 85 85 85 17 17 17 0 0 0 187 187 187 51 51 51 68 68 68 85 85 85 17 17 17 0 0 0 187 187 187 51 51 51 68 68 68 85 85 85 17 17 17 0 0 0 187 187 187 51 51 51 68 68 68 85 85 85 17 17 17 0 0 0 187 187 187 51 51 51 68 68 68 85 85 85 17 17 17 0 0 0 187 187 187 51 51 51 68 68 68 85 85 85 17 17 17 0 0 0 187 187 187 51 51 51 68 68 68 85 85 85 17 17 17 0 0 0 187 187 187 51 51 51 68 68 68 85 85 85 17 17 17 0 0 0 187 187 187 51 51 51 68 68 68 85 85 85 17 17 17 0 0 0 187 187 187 
51 51 51 68 68 68 85 85 85 17 17 17 0 0 0 187 187 187 51 51 51 68 68 68 85 85 85 17 17 17 0 0 0 187 187 187 51 51 51 68 68 68 85 85 85 17 17 17 0 0 0 187 187 187 51 51 51 68 68 68 85 85 85 17 17 17 0 0 0 187 187 187 51 51 51 68 68 68 85 85 85 17 17 17 0 0 0 187 187 187 51 51 51 68 68 68 85 85 85 17 17 17 0 0 0 187 187 187 51 51 51 68 68 68 85 85 85 17 17 17 0 0 0 187 187 187 51 51 51 68 68 68 85 85 85 17 17 17 0 0 0 187 187 187 51 51 51 68 68 68 85 85 85 17 17 17 0 0 0 187 187 187 51 51 51 68 68 68 85 85 85 17 17 17 0 0 0 187 187 187 51 51 51 68 68 68 85 85 85 17 17 17 0 0 0 187 187 187 51 51 51 68 68 68 85 85 85 17 17 17 0 0 0 187 187 187 51 51 51 68 68 68 85 85 85 17 17 17 0 0 0 187 187 187 51 51 51 68 68 68 85 85 85 17 17 17 0 0 0 187 187 187 51 51 51 68 68 68 85 85 85 17 17 17 0 0 0 187 187 187 51 51 51 68 68 68 85 85 85 17 17 17 0 0 0 187 187 187 51 51 51 68 68 68 51 51 51 68 68 68 85 85 85 17 17 17 0 0 0 187 187 187 51 51 51 68 68 68 85 85 85 17 17 17 0 0 0 187 187 187 51 51 51 68 68 68 85 85 85 17 17 17 0 0 0 187 187 187 51 51 51 68 68 68 85 85 85 17 17 17 0 0 0 187 187 187 51 51 51 68 68 68 85 85 85 17 17 17 0 0 0 187 187 187 51 51 51 68 68 68 85 85 85 17 17 17 0 0 0 187 187 187 51 51 51 68 68 68 85 85 85 17 17 17 0 0 0 187 187 187 51 51 51 68 68 68 85 85 85 17 17 17 0 0 0 187 187 187 51 51 51 68 68 68 85 85 85 17 17 17 0 0 0 187 187 187 51 51 51 68 68 68 85 85 85 17 17 17 0 0 0 187 187 187 51 51 51 68 68 68 
85 85 85 17 17 17 0 0 0 187 187 187 51 51 51 68 68 68 85 85 85 17 17 17 0 0 0 187 187 187 51 51 51 68 68 68 85 85 85 17 17 17 0 0 0 187 187 187 51 51 51 68 68 68 85 85 85 17 17 17 0 0 0 187 187 187 51 51 51 68 68 68 85 85 85 17 17 17 0 0 0 187 187 187 51 51 51 68 68 68 85 85 85 17 17 17 0 0 0 187 187 187 51 51 51 68 68 68 85 85 85 17 17 17 0 0 0 187 187 187 51 51 51 68 68 68 85 85 85 17 17 17 0 0 0 187 187 187 51 51 51 68 68 68 85 85 85 17 17 17 0 0 0 187 187 187 51 51 51 68 68 68 85 85 85 17 17 17 0 0 0 187 187 187 51 51 51 68 68 68 85 85 85 17 17 17 0 0 0 187 187 187 51 51 51 68 68 68 85 85 85 17 17 17 0 0 0 187 187 187 51 51 51 68 68 68 85 85 85 17 17 17 0 0 0 187 187 187 51 51 51 68 68 68 85 85 85 17 17 17 0 0 0 187 187 187 51 51 51 68 68 68 85 85 85 17 17 17 0 0 0 187 187 187 51 51 51 68 68 68 85 85 85 17 17 17 0 0 0 187 187 187 51 51 51 68 68 68 85 85 85 17 17 17 0 0 0 187 187 187 51 51 51 68 68 68 85 85 85 17 17 17 0 0 0 187 187 187 51 51 51 68 68 68 85 85 85 17 17 17 0 0 0 187 187 187 51 51 51 68 68 68 85 85 85 17 17 17 0 0 0 187 187 187 51 51 51 68 68 68 85 85 85 17 17 17 0 0 0 187 187 187 51 51 51 68 68 68 85 85 85 17 17 17 0 0 0 187 187 187 51 51 51 68 68 68 85 85 85 17 17 17 0 0 0 187 187 187 51 51 51 68 68 68 85 85 85 17 17 17 0 0 0 187 187 187 51 51 51 68 68 68 85 85 85 17 17 17 0 0 0 187 187 187 51 51 51 68 68 68 85 85 85 17 17 17 0 0 0 187 187 187 51 51 51 68 68 68 85 85 85 17 17 17 0 0 0 187 187 187 
51 51 51 68 68 68 85 85 85 17 17 17 0 0 0 187 187 187 51 51 51 68 68 68 85 85 85 17 17 17 0 0 0 187 187 187 51 51 51 68 68 68 85 85 85 17 17 17 0 0 0 187 187 187 51 51 51 68 68 68 85 85 85 17 17 17 0 0 0 187 187 187 51 51 51 68 68 68 85 85 85 17 17 17 0 0 0 187 187 187 51 51 51 68 68 68 85 85 85 17 17 17 0 0 0 187 187 187 51 51 51 68 68 68 85 85 85 17 17 17 0 0 0 187 187 187 51 51 51 68 68 68 85 85 85 17 17 17 0 0 0 187 187 187 51 51 51 68 68 68 85 85 85 17 17 17 0 0 0 187 187 187 51 51 51 68 68 68 85 85 85 17 17 17 0 0 0 187 187 187 51 51 51 68 68 68 85 85 85 17 17 17 255 255 255 187 187 187 204 204 204 85 85 85 187 187 187 255 255 255 170 170 170 51 51 51 153 153 153 170 170 170 255 255 255 119 119 119 17 17 17 85 85 85 136 136 136 0 0 0 119 119 119 34 34 34 102 102 102 136 136 136 187 187 187 221 221 221 51 51 51 17 17 17 187 187 187 153 153 153 102 102 102 238 238 238 34 34 34 0 0 0 0 0 0 68 68 68 204 204 204 170 170 170 85 85 85 238 238 238 68 68 68 34 34 34 85 85 85 85 85 85 238 238 238 68 68 68 102 102 102 34 34 34 221 221 221 51 51 51 34 34 34 136 136 136 204 204 204 68 68 68 221 221 221 204 204 204 238 238 238 238 238 238 85 85 85 119 119 119 153 153 153 170 170 170 153 153 153 119 119 119 85 85 85 0 0 0 51 51 51 204 204 204 221 221 221 187 187 187 187 187 187 0 0 0 187 187 187 34 34 34 34 34 34 238 238 238 136 136 136 221 221 221 238 238 238 102 102 102 119 119 119 204 204 204 187 187 187 34 34 34 0 0 0 238 238 238 238 238 238 153 153 153 238 238 238 51 51 51 187 187 187 34 34 34 0 0 0 136 136 136 238 238 238 221 221 221 204 204 204 136 136 136 0 0 0 102 102 102 
102 102 102 0 0 0 153 153 153 170 170 170 102 102 102 17 17 17 34 34 34 68 68 68 119 119 119 17 17 17 85 85 85 153 153 153 34 34 34 0 0 0 170 170 170 255 255 255 238 238 238 238 238 238 102 102 102 187 187 187 102 102 102 68 68 68 221 221 221 153 153 153 68 68 68 187 187 187 153 153 153 221 221 221 221 221 221 204 204 204 0 0 0 136 136 136 153 153 153 0 0 0 255 255 255 85 85 85 34 34 34 17 17 17 221 221 221 51 51 51 119 119 119 102 102 102 85 85 85 0 0 0 51 51 51 85 85 85 204 204 204 34 34 34 221 221 221 221 221 221 136 136 136 136 136 136 119 119 119 255 255 255 136 136 136 204 204 204 153 153 153 136 136 136 170 170 170 170 170 170 34 34 34 136 136 136 85 85 85 68 68 68 17 17 17 170 170 170 34 34 34 51 51 51 85 85 85 136 136 136 119 119 119 34 34 34 102 102 102 85 85 85 170 170 170 204 204 204 170 170 170 102 102 102 170 170 170 85 85 85 119 119 119 51 51 51 0 0 0 238 238 238 204 204 204 85 85 85 85 85 85 34 34 34 204 204 204 238 238 238 153 153 153 187 187 187 170 170 170 153 153 153 221 221 221 68 68 68 136 136 136 85 85 85 119 119 119 17 17 17 255 255 255 170 170 170 17 17 17 255 255 255 136 136 136 102 102 102 0 0 0 34 34 34 34 34 34 136 136 136 119 119 119 153 153 153 102 102 102 238 238 238 238 238 238 102 102 102 187 187 187 204 204 204 204 204 204 17 17 17 187 187 187 85 85 85 153 153 153 221 221 221 0 0 0 68 68 68 238 238 238 255 255 255 85 85 85 221 221 221 68 68 68 238 238 238 238 238 238 102 102 102 136 136 136 136 136 136 68 68 68 136 136 136 153 153 153 34 34 34 102 102 102 204 204 204 204 204 204 102 102 102 17 17 17 85 85 85 238 238 238 68 68 68 255 255 255 136 136 136 85 85 85 187 187 187 204 204 204 51 51 51 136 136 136 85 85 85 221 221 221 0 0 0 170 170 170 170 170 170 
221 221 221 34 34 34 170 170 170 34 34 34 187 187 187 153 153 153 51 51 51 85 85 85 153 153 153 153 153 153 51 51 51 204 204 204 204 204 204 68 68 68 255 255 255 238 238 238 68 68 68 255 255 255 68 68 68 204 204 204 17 17 17 221 221 221 221 221 221 85 85 85 102 102 102 170 170 170 136 136 136 221 221 221 85 85 85 85 85 85 68 68 68 238 238 238 17 17 17 204 204 204 221 221 221 85 85 85 153 153 153 187 187 187 17 17 17 238 238 238 51 51 51 153 153 153 85 85 85 85 85 85 17 17 17 204 204 204 187 187 187 170 170 170 68 68 68 119 119 119 17 17 17 102 102 102 255 255 255 153 153 153 17 17 17 0 0 0 153 153 153 119 119 119 238 238 238 17 17 17 255 255 255 68 68 68 187 187 187 51 51 51 17 17 17 170 170 170 102 102 102 187 187 187 187 187 187 68 68 68 85 85 85 85 85 85 255 255 255 0 0 0 255 255 255 51 51 51 102 102 102 85 85 85 255 255 255 238 238 238 17 17 17 102 102 102 34 34 34 136 136 136 102 102 102 170 170 170 170 170 170 153 153 153 51 51 51 34 34 34 0 0 0 153 153 153 187 187 187 136 136 136 34 34 34 255 255 255 255 255 255 119 119 119 170 170 170 102 102 102 68 68 68 51 51 51 170 170 170 170 170 170 119 119 119 136 136 136 255 255 255 187 187 187 51 51 51 51 51 51 153 153 153 187 187 187 119 119 119 51 51 51 153 153 153 136 136 136 102 102 102 170 170 170 85 85 85 153 153 153 238 238 238 68 68 68 68 68 68 102 102 102 68 68 68 204 204 204 187 187 187 187 187 187 85 85 85 204 204 204 34 34 34 187 187 187 51 51 51 221 221 221 0 0 0 0 0 0 221 221 221 153 153 153 85 85 85 153 153 153 51 51 51 17 17 17 170 170 170 170 170 170 221 221 221 153 153 153 136 136 136 221 221 221 17 17 17 119 119 119 255 255 255 221 221 221 17 17 17 187 187 187 34 34 34 136 136 136 238 238 238 102 102 102 153 153 153 238 238 238 
68 68 68 136 136 136 187 187 187 170 170 170 221 221 221 187 187 187 153 153 153 170 170 170 187 187 187 136 136 136 51 51 51 221 221 221 204 204 204 238 238 238 221 221 221 0 0 0 119 119 119 68 68 68 0 0 0 221 221 221 221 221 221 170 170 170 119 119 119 221 221 221 68 68 68 136 136 136 221 221 221 17 17 17 102 102 102 85 85 85 221 221 221 102 102 102 187 187 187 51 51 51 68 68 68 51 51 51 51 51 51 204 204 204 170 170 170 102 102 102 102 102 102 119 119 119 119 119 119 136 136 136 34 34 34 51 51 51 102 102 102 17 17 17 153 153 153 221 221 221 136 136 136 85 85 85 85 85 85 51 51 51 238 238 238 170 170 170 187 187 187 68 68 68 238 238 238 119 119 119 170 170 170 136 136 136 119 119 119 255 255 255 238 238 238 34 34 34 170 170 170 119 119 119 85 85 85 68 68 68 102 102 102 102 102 102 119 119 119 0 0 0 85 85 85 153 153 153 153 153 153 119 119 119 119 119 119 102 102 102 34 34 34 17 17 17 221 221 221 238 238 238 238 238 238 221 221 221 170 170 170 119 119 119 221 221 221 17 17 17 136 136 136 51 51 51 238 238 238 51 51 51 17 17 17 153 153 153 255 255 255 204 204 204 204 204 204 17 17 17 221 221 221 204 204 204 85 85 85 0 0 0 187 187 187 204 204 204 34 34 34 170 170 170 17 17 17 119 119 119 119 119 119 102 102 102 136 136 136 0 0 0 204 204 204 119 119 119 255 255 255 187 187 187 136 136 136 170 170 170 17 17 17 204 204 204 187 187 187 170 170 170 221 221 221 34 34 34 17 17 17 136 136 136 85 85 85 119 119 119 34 34 34 187 187 187 119 119 119 136 136 136 136 136 136 221 221 221 238 238 238 102 102 102 221 221 221 68 68 68 51 51 51 34 34 34 170 170 170 170 170 170 136 136 136 0 0 0 153 153 153 238 238 238 0 0 0 170 170 170 153 153 153 34 34 34 204 204 204 255 255 255 68 68 68 17 17 17 255 255 255 204 204 204 85 85 85 17 17 17 
0 0 0 136 136 136 0 0 0 0 0 0 204 204 204 204 204 204 0 0 0 34 34 34 102 102 102 187 187 187 119 119 119 68 68 68 102 102 102 102 102 102 17 17 17 34 34 34 238 238 238 221 221 221 136 136 136 102 102 102 51 51 51 136 136 136 221 221 221 119 119 119 102 102 102 119 119 119 0 0 0 204 204 204 187 187 187 170 170 170 238 238 238 51 51 51 136 136 136 85 85 85 119 119 119 187 187 187 0 0 0 68 68 68 0 0 0 119 119 119 187 187 187 34 34 34 255 255 255 119 119 119 68 68 68 34 34 34 85 85 85 34 34 34 0 0 0 170 170 170 34 34 34 255 255 255 85 85 85 204 204 204 51 51 51 187 187 187 136 136 136 34 34 34 102 102 102 17 17 17 238 238 238 221 221 221 221 221 221 68 68 68 136 136 136 170 170 170 0 0 0 102 102 102 170 170 170 136 136 136 153 153 153 34 34 34 0 0 0 187 187 187 119 119 119 153 153 153 85 85 85 255 255 255 170 170 170 170 170 170 119 119 119 255 255 255 17 17 17 0 0 0 102 102 102 238 238 238 17 17 17 102 102 102 238 238 238 238 238 238 68 68 68 187 187 187 68 68 68 0 0 0 68 68 68 221 221 221 68 68 68 85 85 85 85 85 85 221 221 221 51 51 51 102 102 102 238 238 238 68 68 68 0 0 0 51 51 51 0 0 0 17 17 17 34 34 34 68 68 68 136 136 136 238 238 238 255 255 255 221 221 221 170 170 170 17 17 17 187 187 187 119 119 119 0 0 0 51 51 51 119 119 119 170 170 170 119 119 119 51 51 51 51 51 51 0 0 0 34 34 34 204 204 204 153 153 153 238 238 238 34 34 34 170 170 170 170 170 170 153 153 153 0 0 0 170 170 170 238 238 238 102 102 102 102 102 102 0 0 0 34 34 34 221 221 221 204 204 204 187 187 187 17 17 17 51 51 51 238 238 238 51 51 51 238 238 238 102 102 102 153 153 153 204 204 204 136 136 136 68 68 68 238 238 238 51 51 51 153 153 153 102 102 102 102 102 102 170 170 170 
0 0 0 221 221 221 0 0 0 136 136 136 85 85 85 119 119 119 255 255 255 187 187 187 170 170 170 221 221 221 119 119 119 0 0 0 0 0 0 255 255 255 34 34 34 0 0 0 17 17 17 119 119 119 187 187 187 34 34 34 17 17 17 17 17 17 238 238 238 68 68 68 255 255 255 119 119 119 119 119 119 85 85 85 153 153 153 221 221 221 204 204 204 34 34 34 68 68 68 0 0 0 221 221 221 255 255 255 51 51 51 0 0 0 238 238 238 187 187 187 51 51 51 17 17 17 221 221 221 204 204 204 0 0 0 221 221 221 204 204 204 221 221 221 17 17 17 119 119 119 85 85 85 170 170 170 255 255 255 153 153 153 51 51 51 0 0 0 255 255 255 238 238 238 34 34 34 221 221 221 0 0 0 204 204 204 17 17 17 0 0 0 119 119 119 187 187 187 51 51 51 136 136 136 136 136 136 102 102 102 119 119 119 255 255 255 119 119 119 51 51 51 68 68 68 136 136 136 221 221 221 68 68 68 34 34 34 0 0 0 0 0 0 221 221 221 17 17 17 102 102 102 170 170 170 238 238 238 51 51 51 238 238 238 17 17 17 68 68 68 17 17 17 102 102 102 204 204 204 255 255 255 51 51 51 170 170 170 0 0 0 170 170 170 17 17 17 153 153 153 0 0 0 34 34 34 102 102 102 85 85 85 187 187 187 102 102 102 204 204 204 153 153 153 136 136 136 170 170 170 204 204 204 238 238 238 153 153 153 85 85 85 204 204 204 85 85 85 119 119 119 221 221 221 17 17 17 68 68 68 34 34 34 51 51 51 85 85 85 102 102 102 0 0 0 238 238 238 51 51 51 153 153 153 0 0 0 68 68 68 119 119 119 187 187 187 187 187 187 187 187 187 17 17 17 204 204 204 17 17 17 68 68 68 136 136 136 85 85 85 153 153 153 221 221 221 85 85 85 85 85 85 238 238 238 34 34 34 136 136 136 187 187 187 221 221 221 204 204 204 238 238 238 119 119 119 0 0 0 170 170 170 153 153 153 187 187 187 187 187 187 119 119 119 221 221 221 0 0 0 
34 34 34 102 102 102 85 85 85 204 204 204 17 17 17 34 34 34 119 119 119 34 34 34 34 34 34 153 153 153 153 153 153 102 102 102 170 170 170 238 238 238 0 0 0 68 68 68 119 119 119 136 136 136 51 51 51 119 119 119 187 187 187 136 136 136 187 187 187 170 170 170 17 17 17 153 153 153 85 85 85 170 170 170 51 51 51 204 204 204 187 187 187 255 255 255 255 255 255 187 187 187 0 0 0 221 221 221 204 204 204 51 51 51 51 51 51 153 153 153 187 187 187 0 0 0 238 238 238 187 187 187 255 255 255 187 187 187 34 34 34 153 153 153 17 17 17 119 119 119 204 204 204 51 51 51 204 204 204 102 102 102 0 0 0 102 102 102 85 85 85 119 119 119 102 102 102 51 51 51 238 238 238 255 255 255 51 51 51 34 34 34 204 204 204 0 0 0 102 102 102 85 85 85 119 119 119 68 68 68 153 153 153 238 238 238 68 68 68 170 170 170 85 85 85 17 17 17 153 153 153 51 51 51 102 102 102 221 221 221 255 255 255 68 68 68 85 85 85 119 119 119 17 17 17 136 136 136 34 34 34 136 136 136 119 119 119 170 170 170 34 34 34 136 136 136 136 136 136 136 136 136 17 17 17 119 119 119 0 0 0 153 153 153 119 119 119 170 170 170 153 153 153 187 187 187 51 51 51 153 153 153 221 221 221 17 17 17 238 238 238 85 85 85 102 102 102 255 255 255 102 102 102 136 136 136 51 51 51 17 17 17 17 17 17 68 68 68 102 102 102 119 119 119 34 34 34 17 17 17 85 85 85 204 204 204 0 0 0 153 153 153 204 204 204 238 238 238 0 0 0 153 153 153 0 0 0 17 17 17 51 51 51 136 136 136 0 0 0 0 0 0 0 0 0 0 0 0 0 0 0 0 0 0 238 238 238 68 68 68 204 204 204 170 170 170 0 0 0 187 187 187 0 0 0 119 119 119 0 0 0 34 34 34 0 0 0 0 0 0 0 0 0 0 0 0 221 221 221 221 221 221 68 68 68 204 204 204 187 187 187 170 170 170 34 34 34 34 34 34 
17 17 17 136 136 136 187 187 187 204 204 204 0 0 0 0 0 0 0 0 0 0 0 0 153 153 153 119 119 119 102 102 102 255 255 255 85 85 85 102 102 102 51 51 51 17 17 17 51 51 51 17 17 17 17 17 17 34 34 34 0 0 0 0 0 0 136 136 136 0 0 0 153 153 153 119 119 119 102 102 102 255 255 255 170 170 170 0 0 0 85 85 85 0 0 0 85 85 85 153 153 153 187 187 187 34 34 34 0 0 0 0 0 0 136 136 136 0 0 0 153 153 153 119 119 119 102 102 102 255 255 255 221 221 221 238 238 238 102 102 102 102 102 102 136 136 136 204 204 204 153 153 153 0 0 0 0 0 0 17 17 17 0 0 0 0 0 0 153 153 153 119 119 119 102 102 102 255 255 255 17 17 17 221 221 221 102 102 102 119 119 119 204 204 204 0 0 0 170 170 170 221 221 221 0 0 0 0 0 0 136 136 136 0 0 0 153 153 153 119 119 119 102 102 102 255 255 255 136 136 136 238 238 238 102 102 102 255 255 255 0 0 0 0 0 0 0 0 0 238 238 238 0 0 0 204 204 204 0 0 0 136 136 136 0 0 0 85 85 85 0 0 0 204 204 204 0 0 0 153 153 153 0 0 0 85 85 85 0 0 0 34 34 34 0 0 0 238 238 238 0 0 0 170 170 170 0 0 0 136 136 136 0 0 0 102 102 102 0 0 0 136 136 136 0 0 0 102 102 102 0 0 0 68 68 68 0 0 0 0 0 0 238 238 238 238 238 238 204 204 204 204 204 204 136 136 136 136 136 136 85 85 85 85 85 85 255 255 255 119 119 119 255 255 255 0 0 0 153 153 153 0 0 0 34 34 34 238 238 238 102 102 102 238 238 238 34 34 34 0 0 0 34 34 34 0 0 0 34 34 34 0 0 0 85 85 85 170 170 170 68 68 68 136 136 136 51 51 51 102 102 102 0 0 0 17 17 17 51 51 51 0 0 0 0 0 0 0 0 0 51 51 51 68 68 68 238 238 238 68 68 68 136 136 136 119 119 119 238 238 238 68 68 68 0 0 0 0 0 0 
0 0 0 0 0 0 0 0 0 0 0 0 0 0 0 0 0 0 0 0 0 0 0 0 170 170 170 0 0 0 0 0 0 0 0 0 102 102 102 102 102 102 0 0 0 0 0 0 0 0 0 0 0 0 0 0 0 0 0 0 0 0 0 0 0 0 0 0 0 0 0 0 204 204 204 85 85 85 51 51 51 0 0 0 0 0 0 0 0 0 68 68 68 255 255 255 238 238 238 68 68 68 136 136 136 170 170 170 238 238 238 68 68 68 0 0 0 187 187 187 0 0 0 0 0 0 17 17 17 238 238 238 0 0 0 0 0 0 0 0 0 0 0 0 0 0 0 17 17 17 0 0 0 0 0 0 0 0 0 17 17 17 0 0 0 0 0 0 0 0 0 0 0 0 0 0 0 0 0 0 0 0 0 0 0 0 0 0 0 17 17 17 34 34 34 51 51 51 68 68 68 85 85 85 119 119 119 136 136 136 153 153 153 238 238 238 0 0 0 0 0 0 0 0 0 0 0 0 0 0 0 0 0 0 0 0 0 85 85 85 0 0 0 0 0 0 0 0 0 0 0 0 85 85 85 187 187 187 238 238 238 68 68 68 17 17 17 153 153 153 238 238 238 221 221 221 136 136 136 85 85 85 0 0 0 0 0 0 34 34 34 221 221 221 0 0 0 0 0 0 0 0 0 119 119 119 136 136 136 85 85 85 51 51 51 0 0 0 0 0 0 0 0 0 119 119 119 34 34 34 238 238 238 68 68 68 51 51 51 34 34 34 238 238 238 221 221 221 0 0 0 136 136 136 0 0 0 0 0 0 0 0 0 153 153 153 0 0 0 0 0 0 0 0 0 0 0 0 0 0 0 17 17 17 0 0 0 0 0 0 0 0 0 17 17 17 0 0 0 0 0 0 0 0 0 0 0 0 0 0 0 0 0 0 0 0 0 0 0 0 0 0 0 51 51 51 68 68 68 85 85 85 102 102 102 119 119 119 136 136 136 153 153 153 68 68 68 85 85 85 51 51 51 0 0 0 0 0 0 0 0 0 0 0 0 0 0 0 0 0 0 0 0 0 238 238 238 136 136 136 
238 238 238 238 238 238 34 34 34 238 238 238 0 0 0 0 0 0 85 85 85 204 204 204 0 0 0 0 0 0 0 0 0 0 0 0 0 0 0 17 17 17 0 0 0 0 0 0 0 0 0 17 17 17 0 0 0 0 0 0 0 0 0 0 0 0 0 0 0 0 0 0 0 0 0 0 0 0 0 0 0 85 85 85 102 102 102 0 0 0 0 0 0 34 34 34 136 136 136 0 0 0 0 0 0 0 0 0 0 0 0 255 255 255 170 170 170 0 0 0 34 34 34 0 0 0 153 153 153 17 17 17 187 187 187 204 204 204 221 221 221 238 238 238 102 102 102 255 255 255 51 51 51 119 119 119 153 153 153 187 187 187 204 204 204 221 221 221 238 238 238 102 102 102 255 255 255 51 51 51 119 119 119 153 153 153 136 136 136 68 68 68 136 136 136 0 0 0 17 17 17 0 0 0 153 153 153 34 34 34 17 17 17 17 17 17 187 187 187 221 221 221 17 17 17 238 238 238 136 136 136 255 255 255 68 68 68 119 119 119 170 170 170 51 51 51 221 221 221 17 17 17 238 238 238 136 136 136 255 255 255 68 68 68 119 119 119 170 170 170 85 85 85 17 17 17 17 17 17 0 0 0 204 204 204 136 136 136 136 136 136 0 0 0 17 17 17 34 34 34 136 136 136 136 136 136 153 153 153 136 136 136 153 153 153 17 17 17 238 238 238 34 34 34 255 255 255 17 17 17 119 119 119 136 136 136 170 170 170 0 0 0 85 85 85 119 119 119 0 0 0 255 255 255 17 17 17 119 119 119 136 136 136 187 187 187 204 204 204 85 85 85 34 34 34 51 51 51 68 68 68 51 51 51 68 68 68 34 34 34 34 34 34 68 68 68 0 0 0 0 0 0 17 17 17 51 51 51 153 153 153 153 153 153 34 34 34 34 34 34 0 0 0 187 187 187 204 204 204 136 136 136 238 238 238 68 68 68 17 17 17 68 68 68 119 119 119 153 153 153 51 51 51 68 68 68 153 153 153 255 255 255 0 0 0 255 255 255 34 34 34 102 102 102 153 153 153 0 0 0 
85 85 85 17 17 17 238 238 238 68 68 68 136 136 136 34 34 34 0 0 0 153 153 153 136 136 136 68 68 68 136 136 136 0 0 0 17 17 17 119 119 119 153 153 153 17 17 17 170 170 170 0 0 0 187 187 187 204 204 204 136 136 136 238 238 238 85 85 85 51 51 51 68 68 68 17 17 17 68 68 68 68 68 68 119 119 119 153 153 153 34 34 34 204 204 204 153 153 153 255 255 255 0 0 0 17 17 17 136 136 136 119 119 119 153 153 153 34 34 34 204 204 204 170 170 170 102 102 102 136 136 136 34 34 34 136 136 136 136 136 136 255 255 255 34 34 34 51 51 51 153 153 153 68 68 68 204 204 204 221 221 221 0 0 0 68 68 68 136 136 136 0 0 0 34 34 34 170 170 170 153 153 153 17 17 17 170 170 170 0 0 0 187 187 187 204 204 204 136 136 136 238 238 238 85 85 85 85 85 85 68 68 68 68 68 68 51 51 51 68 68 68 34 34 34 34 34 34 17 17 17 187 187 187 153 153 153 0 0 0 136 136 136 34 34 34 238 238 238 34 34 34 34 34 34 0 0 0 187 187 187 136 136 136 204 204 204 136 136 136 34 34 34 238 238 238 17 17 17 34 34 34 34 34 34 51 51 51 136 136 136 238 238 238 0 0 0 136 136 136 238 238 238 68 68 68 136 136 136 34 34 34 187 187 187 136 136 136 136 136 136 136 136 136 34 34 34 238 238 238 17 17 17 34 34 34 0 0 0 187 187 187 136 136 136 68 68 68 136 136 136 34 34 34 238 238 238 51 51 51 34 34 34 0 0 0 187 187 187 136 136 136 204 204 204 170 170 170 102 102 102 136 136 136 136 136 136 102 102 102 136 136 136 255 255 255 34 34 34 51 51 51 153 153 153 68 68 68 204 204 204 221 221 221 0 0 0 68 68 68 136 136 136 0 0 0 51 51 51 0 0 0 153 153 153 17 17 17 170 170 170 0 0 0 187 187 187 204 204 204 153 153 153 0 0 0 68 68 68 17 17 17 68 68 68 0 0 0 153 153 153 0 0 0 85 85 85 204 204 204 
34 34 34 68 68 68 17 17 17 119 119 119 17 17 17 17 17 17 85 85 85 221 221 221 204 204 204 136 136 136 153 153 153 204 204 204 136 136 136 153 153 153 221 221 221 204 204 204 102 102 102 68 68 68 17 17 17 119 119 119 0 0 0 153 153 153 0 0 0 85 85 85 204 204 204 187 187 187 0 0 0 17 17 17 119 119 119 17 17 17 68 68 68 0 0 0 85 85 85 204 204 204 119 119 119 0 0 0 17 17 17 119 119 119 17 17 17 17 17 17 119 119 119 85 85 85 221 221 221 204 204 204 136 136 136 153 153 153 221 221 221 204 204 204 136 136 136 153 153 153 221 221 221 204 204 204 136 136 136 153 153 153 221 221 221 204 204 204 68 68 68 85 85 85 51 51 51 119 119 119 34 34 34 34 34 34 119 119 119 17 17 17 153 153 153 0 0 0 85 85 85 17 17 17 238 238 238 68 68 68 136 136 136 34 34 34 153 153 153 153 153 153 170 170 170 0 0 0 153 153 153 0 0 0 51 51 51 0 0 0 170 170 170 17 17 17 170 170 170 0 0 0 153 153 153 17 17 17 51 51 51 221 221 221 0 0 0 170 170 170 136 136 136 51 51 51 34 34 34 0 0 0 187 187 187 136 136 136 204 204 204 187 187 187 102 102 102 238 238 238 238 238 238 68 68 68 238 238 238 238 238 238 68 68 68 68 68 68 238 238 238 238 238 238 68 68 68 238 238 238 238 238 238 51 51 51 34 34 34 0 0 0 187 187 187 136 136 136 68 68 68 136 136 136 34 34 34 238 238 238 68 68 68 136 136 136 0 0 0 187 187 187 153 153 153 34 34 34 0 0 0 34 34 34 238 238 238 34 34 34 136 136 136 0 0 0 187 187 187 136 136 136 136 136 136 136 136 136 34 34 34 238 238 238 17 17 17 34 34 34 17 17 17 51 51 51 255 255 255 136 136 136 153 153 153 221 221 221 204 204 204 136 136 136 153 153 153 221 221 221 204 204 204 136 136 136 153 153 153 221 221 221 204 204 204 136 136 136 153 153 153 221 221 221 204 204 204 170 170 170 
68 68 68 255 255 255 68 68 68 34 34 34 170 170 170 85 85 85 68 68 68 136 136 136 136 136 136 221 221 221 0 0 0 68 68 68 136 136 136 0 0 0 51 51 51 17 17 17 170 170 170 153 153 153 170 170 170 0 0 0 153 153 153 17 17 17 34 34 34 51 51 51 204 204 204 136 136 136 102 102 102 85 85 85 0 0 0 51 51 51 17 17 17 17 17 17 0 0 0 85 85 85 204 204 204 238 238 238 85 85 85 136 136 136 119 119 119 119 119 119 34 34 34 34 34 34 119 119 119 119 119 119 34 34 34 119 119 119 119 119 119 17 17 17 153 153 153 68 68 68 153 153 153 221 221 221 204 204 204 136 136 136 136 136 136 238 238 238 17 17 17 136 136 136 0 0 0 187 187 187 153 153 153 170 170 170 0 0 0 34 34 34 238 238 238 17 17 17 136 136 136 0 0 0 187 187 187 136 136 136 136 136 136 136 136 136 34 34 34 238 238 238 17 17 17 34 34 34 17 17 17 51 51 51 255 255 255 136 136 136 153 153 153 221 221 221 204 204 204 136 136 136 153 153 153 221 221 221 204 204 204 136 136 136 153 153 153 221 221 221 204 204 204 136 136 136 153 153 153 221 221 221 204 204 204 170 170 170 85 85 85 0 0 0 68 68 68 119 119 119 153 153 153 0 0 0 204 204 204 170 170 170 204 204 204 102 102 102 68 68 68 68 68 68 102 102 102 136 136 136 34 34 34 68 68 68 34 34 34 238 238 238 170 170 170 153 153 153 170 170 170 0 0 0 153 153 153 17 17 17 34 34 34 51 51 51 204 204 204 136 136 136 102 102 102 85 85 85 0 0 0 51 51 51 17 17 17 17 17 17 0 0 0 85 85 85 204 204 204 238 238 238 85 85 85 136 136 136 119 119 119 119 119 119 34 34 34 34 34 34 119 119 119 119 119 119 34 34 34 119 119 119 119 119 119 17 17 17 153 153 153 0 0 0 85 85 85 204 204 204 34 34 34 68 68 68 17 17 17 119 119 119 17 17 17 204 204 204 0 0 0 85 85 85 204 204 204 221 221 221 
0 0 0 17 17 17 119 119 119 0 0 0 204 204 204 17 17 17 85 85 85 204 204 204 68 68 68 68 68 68 85 85 85 119 119 119 221 221 221 153 153 153 17 17 17 51 51 51 187 187 187 153 153 153 17 17 17 51 51 51 187 187 187 153 153 153 17 17 17 51 51 51 187 187 187 153 153 153 68 68 68 170 170 170 0 0 0 136 136 136 255 255 255 34 34 34 17 17 17 153 153 153 85 85 85 136 136 136 204 204 204 136 136 136 136 136 136 221 221 221 0 0 0 68 68 68 136 136 136 0 0 0 34 34 34 153 153 153 170 170 170 153 153 153 170 170 170 0 0 0 204 204 204 68 68 68 68 68 68 187 187 187 238 238 238 0 0 0 255 255 255 0 0 0 17 17 17 119 119 119 51 51 51 68 68 68 17 17 17 153 153 153 238 238 238 85 85 85 0 0 0 238 238 238 238 238 238 51 51 51 136 136 136 0 0 0 187 187 187 136 136 136 102 102 102 0 0 0 34 34 34 238 238 238 51 51 51 34 34 34 0 0 0 187 187 187 153 153 153 136 136 136 187 187 187 0 0 0 238 238 238 238 238 238 68 68 68 68 68 68 238 238 238 255 255 255 0 0 0 238 238 238 238 238 238 51 51 51 136 136 136 221 221 221 51 51 51 187 187 187 204 204 204 51 51 51 187 187 187 187 187 187 204 204 204 68 68 68 51 51 51 187 187 187 204 204 204 17 17 17 153 153 153 204 204 204 187 187 187 17 17 17 0 0 0 153 153 153 119 119 119 204 204 204 17 17 17 170 170 170 34 34 34 102 102 102 102 102 102 136 136 136 34 34 34 68 68 68 51 51 51 85 85 85 170 170 170 153 153 153 170 170 170 0 0 0 153 153 153 17 17 17 34 34 34 51 51 51 204 204 204 136 136 136 102 102 102 85 85 85 0 0 0 51 51 51 17 17 17 153 153 153 0 0 0 85 85 85 204 204 204 102 102 102 85 85 85 187 187 187 119 119 119 119 119 119 34 34 34 119 119 119 119 119 119 34 34 34 34 34 34 119 119 119 119 119 119 34 34 34 
119 119 119 119 119 119 17 17 17 153 153 153 85 85 85 153 153 153 221 221 221 204 204 204 136 136 136 153 153 153 221 221 221 204 204 204 136 136 136 119 119 119 0 0 0 17 17 17 119 119 119 34 34 34 68 68 68 102 102 102 153 153 153 221 221 221 238 238 238 34 34 34 0 0 0 153 153 153 221 221 221 204 204 204 136 136 136 153 153 153 221 221 221 204 204 204 68 68 68 85 85 85 255 255 255 119 119 119 119 119 119 34 34 34 119 119 119 119 119 119 119 119 119 34 34 34 34 34 34 119 119 119 119 119 119 34 34 34 34 34 34 119 119 119 119 119 119 34 34 34 34 34 34 0 0 0 187 187 187 153 153 153 68 68 68 170 170 170 0 0 0 136 136 136 255 255 255 34 34 34 17 17 17 153 153 153 85 85 85 136 136 136 204 204 204 136 136 136 136 136 136 221 221 221 0 0 0 68 68 68 136 136 136 0 0 0 51 51 51 34 34 34 170 170 170 153 153 153 170 170 170 0 0 0 204 204 204 68 68 68 68 68 68 187 187 187 238 238 238 17 17 17 51 51 51 17 17 17 238 238 238 119 119 119 119 119 119 34 34 34 34 34 34 119 119 119 119 119 119 136 136 136 136 136 136 119 119 119 119 119 119 136 136 136 136 136 136 119 119 119 119 119 119 136 136 136 0 0 0 187 187 187 136 136 136 238 238 238 34 34 34 204 204 204 238 238 238 255 255 255 17 17 17 0 0 0 238 238 238 255 255 255 0 0 0 68 68 68 34 34 34 0 0 0 187 187 187 136 136 136 136 136 136 136 136 136 34 34 34 238 238 238 34 34 34 34 34 34 153 153 153 68 68 68 51 51 51 187 187 187 136 136 136 170 170 170 51 51 51 238 238 238 238 238 238 255 255 255 17 17 17 0 0 0 238 238 238 255 255 255 17 17 17 0 0 0 238 238 238 255 255 255 17 17 17 0 0 0 238 238 238 255 255 255 17 17 17 0 0 0 17 17 17 119 119 119 0 0 0 204 204 204 0 0 0 85 85 85 204 204 204 187 187 187 17 17 17 0 0 0 
153 153 153 119 119 119 204 204 204 17 17 17 170 170 170 34 34 34 102 102 102 102 102 102 136 136 136 34 34 34 68 68 68 0 0 0 34 34 34 221 221 221 170 170 170 153 153 153 170 170 170 0 0 0 204 204 204 68 68 68 68 68 68 187 187 187 238 238 238 17 17 17 85 85 85 0 0 0 51 51 51 119 119 119 17 17 17 68 68 68 85 85 85 153 153 153 221 221 221 238 238 238 34 34 34 17 17 17 221 221 221 238 238 238 0 0 0 136 136 136 255 255 255 136 136 136 136 136 136 119 119 119 119 119 119 136 136 136 136 136 136 119 119 119 119 119 119 136 136 136 136 136 136 34 34 34 17 17 17 17 17 17 17 17 17 204 204 204 68 68 68 68 68 68 17 17 17 136 136 136 0 0 0 187 187 187 136 136 136 238 238 238 51 51 51 204 204 204 238 238 238 255 255 255 0 0 0 238 238 238 255 255 255 17 17 17 0 0 0 238 238 238 255 255 255 17 17 17 0 0 0 238 238 238 255 255 255 17 17 17 0 0 0 17 17 17 119 119 119 0 0 0 204 204 204 0 0 0 85 85 85 204 204 204 187 187 187 17 17 17 0 0 0 153 153 153 119 119 119 204 204 204 17 17 17 170 170 170 34 34 34 102 102 102 102 102 102 136 136 136 34 34 34 68 68 68 17 17 17 136 136 136 170 170 170 153 153 153 170 170 170 0 0 0 153 153 153 17 17 17 34 34 34 51 51 51 204 204 204 136 136 136 102 102 102 85 85 85 34 34 34 51 51 51 34 34 34 34 34 34 119 119 119 153 153 153 51 51 51 204 204 204 153 153 153 153 153 153 0 0 0 255 255 255 34 34 34 119 119 119 153 153 153 0 0 0 136 136 136 170 170 170 0 0 0 136 136 136 255 255 255 34 34 34 17 17 17 153 153 153 85 85 85 136 136 136 204 204 204 136 136 136 136 136 136 221 221 221 0 0 0 68 68 68 136 136 136 0 0 0 17 17 17 68 68 68 170 170 170 153 153 153 170 170 170 0 0 0 204 204 204 68 68 68 68 68 68 187 187 187 
238 238 238 17 17 17 255 255 255 0 0 0 255 255 255 136 136 136 68 68 68 68 68 68 34 34 34 0 0 0 153 153 153 255 255 255 0 0 0 255 255 255 136 136 136 34 34 34 68 68 68 68 68 68 34 34 34 85 85 85 255 255 255 0 0 0 102 102 102 136 136 136 153 153 153 153 153 153 170 170 170 0 0 0 153 153 153 0 0 0 17 17 17 68 68 68 170 170 170 153 153 153 170 170 170 0 0 0 204 204 204 68 68 68 68 68 68 187 187 187 238 238 238 17 17 17 255 255 255 0 0 0 255 255 255 136 136 136 85 85 85 204 204 204 0 0 0 136 136 136 153 153 153 255 255 255 0 0 0 255 255 255 136 136 136 51 51 51 204 204 204 68 68 68 34 34 34 85 85 85 255 255 255 0 0 0 102 102 102 136 136 136 153 153 153 153 153 153 170 170 170 0 0 0 153 153 153 0 0 0 17 17 17 119 119 119 170 170 170 153 153 153 170 170 170 0 0 0 153 153 153 17 17 17 34 34 34 51 51 51 204 204 204 136 136 136 102 102 102 85 85 85 0 0 0 51 51 51 119 119 119 153 153 153 51 51 51 204 204 204 153 153 153 238 238 238 68 68 68 255 255 255 34 34 34 119 119 119 153 153 153 68 68 68 136 136 136 136 136 136 153 153 153 17 17 17 238 238 238 68 68 68 51 51 51 34 34 34 187 187 187 17 17 17 153 153 153 17 17 17 17 17 17 170 170 170 0 0 0 153 153 153 0 0 0 0 0 0 17 17 17 119 119 119 170 170 170 153 153 153 170 170 170 0 0 0 153 153 153 17 17 17 17 17 17 187 187 187 204 204 204 68 68 68 102 102 102 51 51 51 0 0 0 51 51 51 119 119 119 153 153 153 51 51 51 204 204 204 153 153 153 238 238 238 68 68 68 255 255 255 34 34 34 119 119 119 153 153 153 68 68 68 136 136 136 136 136 136 136 136 136 221 221 221 238 238 238 34 34 34 51 51 51 17 17 17 187 187 187 17 17 17 153 153 153 17 17 17 17 17 17 170 170 170 0 0 0 153 153 153 
0 0 0 0 0 0 17 17 17 0 0 0 153 153 153 17 17 17 170 170 170 0 0 0 187 187 187 204 204 204 153 153 153 238 238 238 68 68 68 255 255 255 34 34 34 119 119 119 153 153 153 51 51 51 204 204 204 153 153 153 238 238 238 68 68 68 255 255 255 34 34 34 119 119 119 153 153 153 85 85 85 68 68 68 136 136 136 136 136 136 221 221 221 0 0 0 68 68 68 136 136 136 17 17 17 34 34 34 153 153 153 17 17 17 170 170 170 0 0 0 187 187 187 204 204 204 153 153 153 238 238 238 68 68 68 51 51 51 34 34 34 51 51 51 0 0 0 187 187 187 204 204 204 153 153 153 238 238 238 68 68 68 255 255 255 34 34 34 119 119 119 153 153 153 51 51 51 204 204 204 136 136 136 204 204 204 85 85 85 51 51 51 51 51 51 68 68 68 17 17 17 34 34 34 0 0 0 0 0 0 17 17 17 255 255 255 153 153 153 17 17 17 170 170 170 0 0 0 153 153 153 204 204 204 153 153 153 170 170 170 51 51 51 0 0 0 51 51 51 85 85 85 153 153 153 17 17 17 136 136 136 102 102 102 68 68 68 68 68 68 102 102 102 102 102 102 119 119 119 34 34 34 51 51 51 0 0 0 136 136 136 68 68 68 204 204 204 238 238 238 68 68 68 102 102 102 17 17 17 136 136 136 153 153 153 17 17 17 136 136 136 136 136 136 153 153 153 238 238 238 51 51 51 51 51 51 17 17 17 17 17 17 34 34 34 51 51 51 17 17 17 153 153 153 51 51 51 204 204 204 68 68 68 34 34 34 34 34 34 85 85 85 34 34 34 153 153 153 153 153 153 170 170 170 0 0 0 153 153 153 0 0 0 0 0 0 34 34 34 85 85 85 153 153 153 17 17 17 170 170 170 0 0 0 153 153 153 136 136 136 136 136 136 102 102 102 34 34 34 170 170 170 85 85 85 17 17 17 17 17 17 170 170 170 68 68 68 136 136 136 34 34 34 34 34 34 85 85 85 102 102 102 0 0 0 170 170 170 17 17 17 204 204 204 136 136 136 34 34 34 
34 34 34 68 68 68 85 85 85 153 153 153 17 17 17 170 170 170 17 17 17 153 153 153 136 136 136 136 136 136 34 34 34 34 34 34 68 68 68 85 85 85 153 153 153 153 153 153 170 170 170 17 17 17 17 17 17 0 0 0 136 136 136 85 85 85 238 238 238 187 187 187 17 17 17 85 85 85 68 68 68 17 17 17 17 17 17 0 0 0 136 136 136 102 102 102 0 0 0 170 170 170 204 204 204 102 102 102 17 17 17 17 17 17 153 153 153 0 0 0 170 170 170 102 102 102 102 102 102 136 136 136 34 34 34 68 68 68 34 34 34 221 221 221 153 153 153 17 17 17 170 170 170 0 0 0 153 153 153 68 68 68 136 136 136 68 68 68 51 51 51 0 0 0 85 85 85 102 102 102 51 51 51 68 68 68 153 153 153 17 17 17 0 0 0 221 221 221 0 0 0 85 85 85 51 51 51 17 17 17 17 17 17 102 102 102 85 85 85 17 17 17 187 187 187 0 0 0 85 85 85 0 0 0 238 238 238 85 85 85 68 68 68 17 17 17 17 17 17 102 102 102 85 85 85 85 85 85 17 17 17 51 51 51 0 0 0 85 85 85 0 0 0 170 170 170 68 68 68 34 34 34 17 17 17 136 136 136 187 187 187 34 34 34 136 136 136 221 221 221 170 170 170 238 238 238 136 136 136 68 68 68 68 68 68 34 34 34 34 34 34 204 204 204 170 170 170 170 170 170 238 238 238 102 102 102 204 204 204 34 34 34 17 17 17 17 17 17 17 17 17 0 0 0 136 136 136 187 187 187 51 51 51 34 34 34 187 187 187 85 85 85 170 170 170 34 34 34 136 136 136 102 102 102 51 51 51 34 34 34 153 153 153 153 153 153 170 170 170 0 0 0 153 153 153 0 0 0 34 34 34 153 153 153 153 153 153 17 17 17 170 170 170 0 0 0 153 153 153 68 68 68 170 170 170 102 102 102 34 34 34 34 34 34 204 204 204 170 170 170 221 221 221 102 102 102 0 0 0 170 170 170 17 17 17 204 204 204 136 136 136 34 34 34 34 34 34 119 119 119 
102 102 102 136 136 136 170 170 170 17 17 17 153 153 153 136 136 136 170 170 170 102 102 102 34 34 34 34 34 34 204 204 204 170 170 170 51 51 51 102 102 102 153 153 153 34 34 34 34 34 34 17 17 17 153 153 153 0 0 0 136 136 136 34 34 34 34 34 34 102 102 102 102 102 102 170 170 170 34 34 34 17 17 17 17 17 17 0 0 0 136 136 136 187 187 187 221 221 221 187 187 187 34 34 34 204 204 204 204 204 204 136 136 136 68 68 68 68 68 68 68 68 68 34 34 34 170 170 170 204 204 204 170 170 170 238 238 238 102 102 102 136 136 136 170 170 170 17 17 17 136 136 136 204 204 204 170 170 170 102 102 102 102 102 102 136 136 136 34 34 34 68 68 68 34 34 34 102 102 102 153 153 153 17 17 17 170 170 170 0 0 0 153 153 153 68 68 68 170 170 170 34 34 34 34 34 34 170 170 170 255 255 255 102 102 102 153 153 153 51 51 51 34 34 34 17 17 17 153 153 153 136 136 136 136 136 136 34 34 34 34 34 34 119 119 119 102 102 102 136 136 136 170 170 170 17 17 17 153 153 153 136 136 136 136 136 136 34 34 34 34 34 34 102 102 102 102 102 102 0 0 0 170 170 170 0 0 0 204 204 204 119 119 119 68 68 68 34 34 34 102 102 102 102 102 102 170 170 170 34 34 34 17 17 17 17 17 17 0 0 0 136 136 136 187 187 187 221 221 221 170 170 170 238 238 238 204 204 204 204 204 204 136 136 136 68 68 68 68 68 68 68 68 68 34 34 34 170 170 170 255 255 255 102 102 102 153 153 153 51 51 51 34 34 34 17 17 17 136 136 136 204 204 204 170 170 170 102 102 102 102 102 102 136 136 136 34 34 34 68 68 68 34 34 34 170 170 170 153 153 153 17 17 17 170 170 170 0 0 0 153 153 153 68 68 68 170 170 170 34 34 34 34 34 34 170 170 170 51 51 51 102 102 102 51 51 51 170 170 170 17 17 17 17 17 17 170 170 170 34 34 34 136 136 136 102 102 102 102 102 102 34 34 34 0 0 0 136 136 136 
153 153 153 221 221 221 170 170 170 34 34 34 136 136 136 102 102 102 102 102 102 34 34 34 0 0 0 136 136 136 153 153 153 153 153 153 170 170 170 68 68 68 136 136 136 136 136 136 102 102 102 34 34 34 34 34 34 0 0 0 136 136 136 153 153 153 221 221 221 170 170 170 136 136 136 136 136 136 68 68 68 68 68 68 34 34 34 34 34 34 51 51 51 102 102 102 119 119 119 34 34 34 0 0 0 136 136 136 170 170 170 34 34 34 34 34 34 170 170 170 34 34 34 102 102 102 68 68 68 170 170 170 0 0 0 221 221 221 170 170 170 34 34 34 136 136 136 102 102 102 51 51 51 34 34 34 153 153 153 153 153 153 170 170 170 0 0 0 153 153 153 0 0 0 51 51 51 0 0 0 153 153 153 17 17 17 170 170 170 0 0 0 153 153 153 68 68 68 170 170 170 34 34 34 34 34 34 170 170 170 34 34 34 102 102 102 0 0 0 170 170 170 17 17 17 136 136 136 238 238 238 0 0 0 136 136 136 51 51 51 102 102 102 136 136 136 170 170 170 17 17 17 153 153 153 136 136 136 170 170 170 102 102 102 34 34 34 34 34 34 204 204 204 170 170 170 85 85 85 102 102 102 0 0 0 170 170 170 17 17 17 136 136 136 136 136 136 34 34 34 34 34 34 119 119 119 102 102 102 0 0 0 170 170 170 0 0 0 68 68 68 136 136 136 68 68 68 34 34 34 119 119 119 102 102 102 170 170 170 34 34 34 17 17 17 17 17 17 0 0 0 136 136 136 136 136 136 221 221 221 136 136 136 34 34 34 136 136 136 204 204 204 51 51 51 17 17 17 17 17 17 85 85 85 136 136 136 85 85 85 85 85 85 153 153 153 153 153 153 153 153 153 0 0 0 204 204 204 204 204 204 85 85 85 0 0 0 51 51 51 17 17 17 187 187 187 68 68 68 85 85 85 0 0 0 204 204 204 102 102 102 85 85 85 51 51 51 51 51 51 68 68 68 17 17 17 34 34 34 0 0 0 51 51 51 17 17 17 153 153 153 17 17 17 170 170 170 0 0 0 
153 153 153 68 68 68 170 170 170 34 34 34 34 34 34 170 170 170 34 34 34 102 102 102 0 0 0 170 170 170 17 17 17 136 136 136 170 170 170 0 0 0 34 34 34 51 51 51 102 102 102 136 136 136 170 170 170 17 17 17 153 153 153 136 136 136 170 170 170 34 34 34 34 34 34 170 170 170 136 136 136 102 102 102 136 136 136 34 34 34 17 17 17 136 136 136 136 136 136 34 34 34 34 34 34 119 119 119 102 102 102 170 170 170 170 170 170 34 34 34 17 17 17 153 153 153 0 0 0 136 136 136 136 136 136 221 221 221 170 170 170 0 0 0 136 136 136 51 51 51 102 102 102 170 170 170 34 34 34 17 17 17 17 17 17 0 0 0 136 136 136 136 136 136 221 221 221 170 170 170 0 0 0 136 136 136 255 255 255 34 34 34 187 187 187 153 153 153 0 0 0 170 170 170 187 187 187 51 51 51 51 51 51 34 34 34 17 17 17 153 153 153 136 136 136 170 170 170 0 0 0 34 34 34 51 51 51 102 102 102 136 136 136 170 170 170 17 17 17 136 136 136 204 204 204 170 170 170 102 102 102 102 102 102 136 136 136 34 34 34 68 68 68 0 0 0 51 51 51 85 85 85 153 153 153 17 17 17 170 170 170 0 0 0 153 153 153 68 68 68 170 170 170 34 34 34 34 34 34 170 170 170 34 34 34 102 102 102 0 0 0 170 170 170 17 17 17 136 136 136 170 170 170 0 0 0 34 34 34 51 51 51 102 102 102 136 136 136 170 170 170 17 17 17 153 153 153 68 68 68 136 136 136 34 34 34 34 34 34 51 51 51 102 102 102 136 136 136 170 170 170 0 0 0 136 136 136 221 221 221 170 170 170 34 34 34 136 136 136 102 102 102 85 85 85 34 34 34 0 0 0 136 136 136 136 136 136 221 221 221 170 170 170 0 0 0 136 136 136 51 51 51 102 102 102 170 170 170 34 34 34 34 34 34 17 17 17 0 0 0 136 136 136 136 136 136 221 221 221 170 170 170 0 0 0 136 136 136 51 51 51 102 102 102 170 170 170 34 34 34 
17 17 17 17 17 17 0 0 0 136 136 136 136 136 136 221 221 221 170 170 170 0 0 0 136 136 136 255 255 255 34 34 34 187 187 187 153 153 153 0 0 0 170 170 170 187 187 187 51 51 51 51 51 51 34 34 34 17 17 17 153 153 153 136 136 136 170 170 170 0 0 0 34 34 34 51 51 51 102 102 102 136 136 136 170 170 170 17 17 17 136 136 136 204 204 204 170 170 170 102 102 102 102 102 102 136 136 136 34 34 34 68 68 68 51 51 51 68 68 68 153 153 153 17 17 17 170 170 170 0 0 0 153 153 153 68 68 68 170 170 170 34 34 34 34 34 34 170 170 170 34 34 34 102 102 102 0 0 0 170 170 170 17 17 17 136 136 136 170 170 170 0 0 0 34 34 34 51 51 51 102 102 102 136 136 136 170 170 170 17 17 17 153 153 153 68 68 68 136 136 136 34 34 34 34 34 34 51 51 51 102 102 102 136 136 136 170 170 170 0 0 0 136 136 136 221 221 221 170 170 170 34 34 34 136 136 136 102 102 102 85 85 85 34 34 34 0 0 0 136 136 136 136 136 136 221 221 221 170 170 170 0 0 0 136 136 136 51 51 51 102 102 102 153 153 153 170 170 170 34 34 34 17 17 17 0 0 0 136 136 136 221 221 221 170 170 170 34 34 34 136 136 136 102 102 102 51 51 51 102 102 102 170 170 170 34 34 34 17 17 17 17 17 17 0 0 0 136 136 136 136 136 136 221 221 221 170 170 170 0 0 0 136 136 136 255 255 255 34 34 34 187 187 187 153 153 153 0 0 0 170 170 170 187 187 187 51 51 51 51 51 51 34 34 34 17 17 17 153 153 153 204 204 204 0 0 0 204 204 204 221 221 221 17 17 17 68 68 68 51 51 51 17 17 17 153 153 153 68 68 68 204 204 204 221 221 221 0 0 0 68 68 68 136 136 136 51 51 51 68 68 68 153 153 153 17 17 17 170 170 170 0 0 0 153 153 153 68 68 68 170 170 170 34 34 34 34 34 34 170 170 170 34 34 34 102 102 102 0 0 0 170 170 170 17 17 17 136 136 136 
170 170 170 0 0 0 34 34 34 51 51 51 102 102 102 136 136 136 170 170 170 17 17 17 153 153 153 68 68 68 136 136 136 34 34 34 34 34 34 51 51 51 102 102 102 136 136 136 170 170 170 0 0 0 136 136 136 221 221 221 136 136 136 34 34 34 136 136 136 85 85 85 34 34 34 0 0 0 136 136 136 136 136 136 221 221 221 136 136 136 34 34 34 136 136 136 51 51 51 102 102 102 153 153 153 34 34 34 17 17 17 0 0 0 136 136 136 221 221 221 170 170 170 34 34 34 136 136 136 102 102 102 51 51 51 102 102 102 170 170 170 34 34 34 17 17 17 17 17 17 0 0 0 136 136 136 136 136 136 221 221 221 170 170 170 0 0 0 136 136 136 255 255 255 34 34 34 187 187 187 153 153 153 0 0 0 170 170 170 187 187 187 51 51 51 51 51 51 34 34 34 17 17 17 153 153 153 136 136 136 170 170 170 0 0 0 102 102 102 68 68 68 68 68 68 136 136 136 17 17 17 136 136 136 204 204 204 170 170 170 102 102 102 102 102 102 136 136 136 34 34 34 68 68 68 0 0 0 51 51 51 17 17 17 153 153 153 17 17 17 170 170 170 0 0 0 153 153 153 68 68 68 170 170 170 34 34 34 34 34 34 170 170 170 34 34 34 102 102 102 0 0 0 170 170 170 17 17 17 136 136 136 136 136 136 34 34 34 102 102 102 51 51 51 68 68 68 136 136 136 17 17 17 153 153 153 68 68 68 136 136 136 34 34 34 34 34 34 51 51 51 102 102 102 136 136 136 153 153 153 136 136 136 136 136 136 221 221 221 136 136 136 34 34 34 136 136 136 85 85 85 34 34 34 0 0 0 136 136 136 136 136 136 221 221 221 136 136 136 34 34 34 136 136 136 51 51 51 102 102 102 136 136 136 170 170 170 17 17 17 0 0 0 221 221 221 170 170 170 68 68 68 136 136 136 136 136 136 102 102 102 51 51 51 102 102 102 170 170 170 34 34 34 17 17 17 17 17 17 0 0 0 136 136 136 136 136 136 221 221 221 170 170 170 0 0 0 136 136 136 
255 255 255 34 34 34 204 204 204 153 153 153 0 0 0 170 170 170 187 187 187 51 51 51 51 51 51 34 34 34 34 34 34 17 17 17 153 153 153 17 17 17 204 204 204 68 68 68 238 238 238 85 85 85 51 51 51 51 51 51 68 68 68 17 17 17 34 34 34 0 0 0 51 51 51 34 34 34 153 153 153 17 17 17 170 170 170 0 0 0 153 153 153 68 68 68 170 170 170 34 34 34 34 34 34 170 170 170 34 34 34 102 102 102 0 0 0 170 170 170 51 51 51 204 204 204 136 136 136 68 68 68 68 68 68 17 17 17 17 17 17 17 17 17 187 187 187 68 68 68 221 221 221 0 0 0 204 204 204 68 68 68 68 68 68 102 102 102 221 221 221 17 17 17 68 68 68 51 51 51 34 34 34 17 17 17 0 0 0 68 68 68 68 68 68 102 102 102 204 204 204 34 34 34 68 68 68 17 17 17 187 187 187 68 68 68 0 0 0 136 136 136 102 102 102 221 221 221 34 34 34 68 68 68 51 51 51 51 51 51 17 17 17 187 187 187 85 85 85 17 17 17 0 0 0 136 136 136 136 136 136 68 68 68 68 68 68 102 102 102 221 221 221 17 17 17 68 68 68 34 34 34 51 51 51 136 136 136 153 153 153 204 204 204 170 170 170 238 238 238 34 34 34 170 170 170 204 204 204 204 204 204 204 204 204 136 136 136 102 102 102 68 68 68 102 102 102 17 17 17 17 17 17 17 17 17 0 0 0 68 68 68 204 204 204 136 136 136 85 85 85 51 51 51 51 51 51 68 68 68 17 17 17 34 34 34 0 0 0 0 0 0 51 51 51 17 17 17 153 153 153 17 17 17 170 170 170 0 0 0 153 153 153 68 68 68 170 170 170 34 34 34 34 34 34 170 170 170 34 34 34 102 102 102 0 0 0 170 170 170 0 0 0 68 68 68 136 136 136 34 34 34 34 34 34 85 85 85 102 102 102 136 136 136 17 17 17 153 153 153 204 204 204 136 136 136 34 34 34 34 34 34 51 51 51 102 102 102 153 153 153 170 170 170 17 17 17 136 136 136 
136 136 136 136 136 136 221 221 221 170 170 170 34 34 34 136 136 136 102 102 102 68 68 68 34 34 34 0 0 0 136 136 136 136 136 136 221 221 221 170 170 170 68 68 68 136 136 136 102 102 102 136 136 136 119 119 119 102 102 102 153 153 153 170 170 170 34 34 34 17 17 17 153 153 153 0 0 0 221 221 221 170 170 170 136 136 136 136 136 136 68 68 68 68 68 68 34 34 34 34 34 34 51 51 51 102 102 102 68 68 68 170 170 170 136 136 136 68 68 68 204 204 204 170 170 170 85 85 85 17 17 17 17 17 17 85 85 85 119 119 119 51 51 51 68 68 68 17 17 17 68 68 68 68 68 68 102 102 102 51 51 51 34 34 34 153 153 153 153 153 153 170 170 170 0 0 0 153 153 153 0 0 0 0 0 0 51 51 51 17 17 17 153 153 153 17 17 17 170 170 170 0 0 0 153 153 153 68 68 68 170 170 170 34 34 34 34 34 34 170 170 170 34 34 34 102 102 102 0 0 0 170 170 170 0 0 0 68 68 68 136 136 136 34 34 34 34 34 34 102 102 102 102 102 102 136 136 136 170 170 170 17 17 17 153 153 153 68 68 68 136 136 136 34 34 34 34 34 34 51 51 51 102 102 102 136 136 136 17 17 17 136 136 136 136 136 136 68 68 68 102 102 102 221 221 221 17 17 17 68 68 68 51 51 51 34 34 34 17 17 17 0 0 0 68 68 68 68 68 68 102 102 102 221 221 221 51 51 51 68 68 68 51 51 51 68 68 68 68 68 68 51 51 51 51 51 51 68 68 68 221 221 221 0 0 0 204 204 204 204 204 204 136 136 136 102 102 102 221 221 221 68 68 68 68 68 68 34 34 34 34 34 34 17 17 17 17 17 17 102 102 102 187 187 187 68 68 68 85 85 85 0 0 0 204 204 204 170 170 170 85 85 85 17 17 17 17 17 17 85 85 85 119 119 119 187 187 187 68 68 68 153 153 153 153 153 153 0 0 0 204 204 204 102 102 102 85 85 85 51 51 51 51 51 51 68 68 68 17 17 17 34 34 34 0 0 0 0 0 0 
34 34 34 221 221 221 153 153 153 17 17 17 170 170 170 0 0 0 153 153 153 68 68 68 170 170 170 34 34 34 34 34 34 170 170 170 34 34 34 102 102 102 0 0 0 170 170 170 0 0 0 68 68 68 136 136 136 34 34 34 34 34 34 119 119 119 102 102 102 136 136 136 170 170 170 17 17 17 153 153 153 0 0 0 136 136 136 34 34 34 34 34 34 187 187 187 102 102 102 0 0 0 170 170 170 17 17 17 0 0 0 136 136 136 34 34 34 34 34 34 51 51 51 102 102 102 153 153 153 170 170 170 17 17 17 17 17 17 170 170 170 17 17 17 85 85 85 170 170 170 136 136 136 136 136 136 136 136 136 68 68 68 68 68 68 34 34 34 51 51 51 102 102 102 170 170 170 34 34 34 17 17 17 17 17 17 0 0 0 136 136 136 187 187 187 85 85 85 170 170 170 34 34 34 136 136 136 102 102 102 85 85 85 34 34 34 136 136 136 136 136 136 153 153 153 51 51 51 221 221 221 170 170 170 68 68 68 204 204 204 136 136 136 102 102 102 51 51 51 34 34 34 153 153 153 153 153 153 170 170 170 0 0 0 153 153 153 0 0 0 34 34 34 221 221 221 153 153 153 17 17 17 170 170 170 0 0 0 153 153 153 68 68 68 170 170 170 34 34 34 34 34 34 170 170 170 34 34 34 102 102 102 0 0 0 170 170 170 0 0 0 68 68 68 136 136 136 34 34 34 34 34 34 119 119 119 102 102 102 136 136 136 170 170 170 17 17 17 153 153 153 0 0 0 170 170 170 34 34 34 34 34 34 170 170 170 204 204 204 102 102 102 136 136 136 34 34 34 17 17 17 0 0 0 136 136 136 34 34 34 34 34 34 51 51 51 102 102 102 170 170 170 34 34 34 17 17 17 17 17 17 170 170 170 34 34 34 17 17 17 17 17 17 170 170 170 136 136 136 136 136 136 102 102 102 68 68 68 68 68 68 34 34 34 51 51 51 102 102 102 170 170 170 34 34 34 17 17 17 17 17 17 0 0 0 136 136 136 187 187 187 85 85 85 170 170 170 34 34 34 
136 136 136 102 102 102 102 102 102 34 34 34 0 0 0 153 153 153 187 187 187 221 221 221 170 170 170 34 34 34 136 136 136 102 102 102 51 51 51 34 34 34 153 153 153 153 153 153 170 170 170 0 0 0 153 153 153 0 0 0 51 51 51 34 34 34 153 153 153 17 17 17 170 170 170 0 0 0 153 153 153 68 68 68 170 170 170 34 34 34 34 34 34 170 170 170 34 34 34 102 102 102 0 0 0 170 170 170 0 0 0 136 136 136 136 136 136 34 34 34 102 102 102 34 34 34 68 68 68 17 17 17 187 187 187 68 68 68 85 85 85 0 0 0 204 204 204 102 102 102 68 68 68 17 17 17 17 17 17 102 102 102 187 187 187 68 68 68 85 85 85 0 0 0 204 204 204 102 102 102 68 68 68 17 17 17 17 17 17 17 17 17 187 187 187 85 85 85 17 17 17 0 0 0 136 136 136 136 136 136 221 221 221 0 0 0 102 102 102 204 204 204 17 17 17 68 68 68 0 0 0 153 153 153 0 0 0 68 68 68 68 68 68 102 102 102 221 221 221 68 68 68 68 68 68 34 34 34 34 34 34 17 17 17 17 17 17 17 17 17 187 187 187 34 34 34 153 153 153 34 34 34 0 0 0 102 102 102 102 102 102 34 34 34 136 136 136 17 17 17 170 170 170 221 221 221 34 34 34 204 204 204 102 102 102 170 170 170 204 204 204 204 204 204 204 204 204 136 136 136 102 102 102 51 51 51 34 34 34 153 153 153 153 153 153 170 170 170 0 0 0 153 153 153 0 0 0 0 0 0 51 51 51 34 34 34 153 153 153 17 17 17 170 170 170 0 0 0 153 153 153 68 68 68 187 187 187 204 204 204 34 34 34 170 170 170 204 204 204 204 204 204 204 204 204 136 136 136 136 136 136 68 68 68 68 68 68 68 68 68 102 102 102 136 136 136 136 136 136 136 136 136 34 34 34 51 51 51 102 102 102 136 136 136 170 170 170 17 17 17 136 136 136 204 204 204 136 136 136 34 34 34 34 34 34 221 221 221 102 102 102 136 136 136 170 170 170 17 17 17 
136 136 136 204 204 204 136 136 136 34 34 34 34 34 34 51 51 51 102 102 102 255 255 255 34 34 34 17 17 17 17 17 17 17 17 17 170 170 170 34 34 34 51 51 51 51 51 51 51 51 51 34 34 34 17 17 17 153 153 153 17 17 17 0 0 0 136 136 136 136 136 136 221 221 221 170 170 170 136 136 136 136 136 136 68 68 68 68 68 68 34 34 34 34 34 34 51 51 51 102 102 102 136 136 136 34 34 34 34 34 34 68 68 68 221 221 221 238 238 238 68 68 68 68 68 68 34 34 34 187 187 187 17 17 17 170 170 170 187 187 187 51 51 51 51 51 51 34 34 34 17 17 17 136 136 136 204 204 204 170 170 170 102 102 102 102 102 102 136 136 136 34 34 34 68 68 68 0 0 0 51 51 51 51 51 51 153 153 153 17 17 17 170 170 170 0 0 0 153 153 153 68 68 68 170 170 170 34 34 34 34 34 34 170 170 170 34 34 34 102 102 102 0 0 0 170 170 170 17 17 17 136 136 136 170 170 170 0 0 0 34 34 34 51 51 51 102 102 102 136 136 136 170 170 170 17 17 17 136 136 136 204 204 204 136 136 136 34 34 34 34 34 34 51 51 51 102 102 102 34 34 34 34 34 34 68 68 68 0 0 0 204 204 204 102 102 102 204 204 204 17 17 17 68 68 68 17 17 17 153 153 153 0 0 0 68 68 68 68 68 68 102 102 102 221 221 221 68 68 68 68 68 68 34 34 34 34 34 34 34 34 34 51 51 51 34 34 34 34 34 34 0 0 0 136 136 136 136 136 136 34 34 34 34 34 34 51 51 51 102 102 102 170 170 170 34 34 34 17 17 17 17 17 17 0 0 0 136 136 136 136 136 136 221 221 221 170 170 170 34 34 34 136 136 136 68 68 68 255 255 255 34 34 34 34 34 34 0 0 0 204 204 204 68 68 68 136 136 136 204 204 204 238 238 238 85 85 85 85 85 85 85 85 85 102 102 102 102 102 102 102 102 102 68 68 68 51 51 51 17 17 17 153 153 153 68 68 68 204 204 204 221 221 221 0 0 0 68 68 68 
136 136 136 0 0 0 51 51 51 34 34 34 153 153 153 17 17 17 170 170 170 0 0 0 153 153 153 68 68 68 170 170 170 34 34 34 34 34 34 170 170 170 34 34 34 102 102 102 0 0 0 170 170 170 17 17 17 136 136 136 170 170 170 0 0 0 34 34 34 51 51 51 102 102 102 136 136 136 170 170 170 17 17 17 136 136 136 204 204 204 136 136 136 34 34 34 34 34 34 51 51 51 102 102 102 136 136 136 34 34 34 0 0 0 204 204 204 136 136 136 34 34 34 102 102 102 34 34 34 102 102 102 0 0 0 170 170 170 0 0 0 204 204 204 136 136 136 34 34 34 34 34 34 51 51 51 102 102 102 136 136 136 34 34 34 34 34 34 204 204 204 136 136 136 34 34 34 34 34 34 51 51 51 102 102 102 170 170 170 34 34 34 17 17 17 17 17 17 0 0 0 136 136 136 221 221 221 153 153 153 170 170 170 0 0 0 136 136 136 255 255 255 34 34 34 136 136 136 153 153 153 0 0 0 136 136 136 221 221 221 68 68 68 34 34 34 102 102 102 102 102 102 34 34 34 187 187 187 0 0 0 170 170 170 187 187 187 51 51 51 51 51 51 34 34 34 17 17 17 136 136 136 204 204 204 170 170 170 102 102 102 102 102 102 136 136 136 34 34 34 68 68 68 0 0 0 119 119 119 221 221 221 153 153 153 17 17 17 0 0 0 0 0 0 0 0 0 17 17 17 170 170 170 34 34 34 0 0 0 0 0 0 34 34 34 102 102 102 0 0 0 170 170 170 0 0 0 0 0 0 0 0 0 0 0 0 34 34 34 51 51 51 102 102 102 136 136 136 170 170 170 17 17 17 136 136 136 136 136 136 136 136 136 34 34 34 34 34 34 51 51 51 102 102 102 0 0 0 170 170 170 0 0 0 255 255 255 238 238 238 34 34 34 34 34 34 51 51 51 102 102 102 136 136 136 170 170 170 17 17 17 136 136 136 136 136 136 136 136 136 34 34 34 34 34 34 51 51 51 102 102 102 136 136 136 34 34 34 34 34 34 204 204 204 136 136 136 34 34 34 
34 34 34 51 51 51 102 102 102 170 170 170 34 34 34 17 17 17 17 17 17 0 0 0 136 136 136 136 136 136 221 221 221 170 170 170 0 0 0 136 136 136 255 255 255 34 34 34 187 187 187 153 153 153 0 0 0 170 170 170 187 187 187 51 51 51 51 51 51 34 34 34 17 17 17 153 153 153 136 136 136 170 170 170 0 0 0 0 0 0 0 0 0 0 0 0 204 204 204 204 204 204 0 0 0 0 0 0 51 51 51 34 34 34 153 153 153 153 153 153 170 170 170 0 0 0 34 34 34 170 170 170 51 51 51 68 68 68 153 153 153 17 17 17 170 170 170 0 0 0 153 153 153 68 68 68 170 170 170 34 34 34 34 34 34 170 170 170 34 34 34 102 102 102 0 0 0 170 170 170 0 0 0 0 0 0 170 170 170 0 0 0 34 34 34 51 51 51 102 102 102 136 136 136 170 170 170 17 17 17 136 136 136 136 136 136 136 136 136 34 34 34 34 34 34 51 51 51 0 0 0 0 0 0 170 170 170 17 17 17 136 136 136 204 204 204 136 136 136 34 34 34 34 34 34 51 51 51 102 102 102 136 136 136 170 170 170 17 17 17 136 136 136 136 136 136 0 0 0 0 0 0 34 34 34 51 51 51 102 102 102 136 136 136 34 34 34 34 34 34 0 0 0 0 0 0 34 34 34 34 34 34 51 51 51 102 102 102 170 170 170 34 34 34 17 17 17 17 17 17 0 0 0 136 136 136 136 136 136 221 221 221 170 170 170 0 0 0 136 136 136 255 255 255 34 34 34 187 187 187 153 153 153 0 0 0 170 170 170 187 187 187 51 51 51 51 51 51 34 34 34 17 17 17 153 153 153 136 136 136 170 170 170 204 204 204 34 34 34 170 170 170 204 204 204 170 170 170 0 0 0 0 0 0 0 0 0 0 0 0 34 34 34 153 153 153 153 153 153 170 170 170 0 0 0 0 0 0 0 0 0 0 0 0 0 0 0 0 0 0 0 0 0 0 0 0 170 170 170 0 0 0 153 153 153 68 68 68 0 0 0 0 0 0 34 34 34 170 170 170 
34 34 34 102 102 102 0 0 0 170 170 170 17 17 17 136 136 136 0 0 0 0 0 0 34 34 34 51 51 51 102 102 102 136 136 136 170 170 170 17 17 17 136 136 136 136 136 136 136 136 136 34 34 34 34 34 34 51 51 51 102 102 102 136 136 136 170 170 170 17 17 17 136 136 136 204 204 204 136 136 136 34 34 34 34 34 34 51 51 51 102 102 102 136 136 136 170 170 170 17 17 17 136 136 136 136 136 136 136 136 136 34 34 34 34 34 34 51 51 51 102 102 102 136 136 136 34 34 34 34 34 34 204 204 204 136 136 136 34 34 34 34 34 34 51 51 51 102 102 102 170 170 170 34 34 34 17 17 17 17 17 17 0 0 0 136 136 136 136 136 136 221 221 221 170 170 170 0 0 0 136 136 136 255 255 255 34 34 34 187 187 187 153 153 153 0 0 0 170 170 170 187 187 187 238 238 238 68 68 68 34 34 34 17 17 17 153 153 153 136 136 136 170 170 170 204 204 204 34 34 34 170 170 170 204 204 204 204 204 204 204 204 204 136 136 136 102 102 102 51 51 51 34 34 34 153 153 153 153 153 153 170 170 170 0 0 0 153 153 153 0 0 0 0 0 0 51 51 51 51 51 51 153 153 153 17 17 17 170 170 170 0 0 0 153 153 153 68 68 68 170 170 170 34 34 34 34 34 34 170 170 170 34 34 34 102 102 102 0 0 0 170 170 170 17 17 17 204 204 204 68 68 68 102 102 102 221 221 221 17 17 17 68 68 68 51 51 51 17 17 17 17 17 17 0 0 0 68 68 68 68 68 68 102 102 102 221 221 221 17 17 17 68 68 68 51 51 51 34 34 34 17 17 17 68 68 68 68 68 68 85 85 85 68 68 68 68 68 68 204 204 204 0 0 0 0 0 0 17 17 17 17 17 17 0 0 0 68 68 68 68 68 68 102 102 102 221 221 221 0 0 0 68 68 68 85 85 85 153 153 153 0 0 0 68 68 68 68 68 68 102 102 102 221 221 221 68 68 68 68 68 68 34 34 34 34 34 34 17 17 17 17 17 17 17 17 17 187 187 187 
68 68 68 153 153 153 0 0 0 204 204 204 221 221 221 68 68 68 34 34 34 51 51 51 34 34 34 136 136 136 136 136 136 170 170 170 0 0 0 0 0 0 136 136 136 34 34 34 136 136 136 119 119 119 0 0 0 0 0 0 170 170 170 187 187 187 51 51 51 51 51 51 34 34 34 17 17 17 136 136 136 204 204 204 0 0 0 0 0 0 0 0 0 0 0 0 34 34 34 68 68 68 51 51 51 34 34 34 0 0 0 0 0 0 170 170 170 0 0 0 153 153 153 68 68 68 170 170 170 34 34 34 34 34 34 170 170 170 51 51 51 102 102 102 68 68 68 0 0 0 136 136 136 221 221 221 170 170 170 204 204 204 0 0 0 0 0 0 68 68 68 68 68 68 68 68 68 34 34 34 170 170 170 51 51 51 102 102 102 136 136 136 34 34 34 17 17 17 68 68 68 136 136 136 34 34 34 34 34 34 51 51 51 102 102 102 136 136 136 34 34 34 0 0 0 136 136 136 136 136 136 34 34 34 34 34 34 51 51 51 102 102 102 136 136 136 34 34 34 34 34 34 204 204 204 136 136 136 34 34 34 34 34 34 51 51 51 102 102 102 170 170 170 34 34 34 17 17 17 17 17 17 0 0 0 0 0 0 136 136 136 221 221 221 170 170 170 34 34 34 136 136 136 102 102 102 170 170 170 17 17 17 221 221 221 17 17 17 17 17 17 153 153 153 17 17 17 17 17 17 0 0 0 170 170 170 187 187 187 51 51 51 51 51 51 34 34 34 34 34 34 0 0 0 102 102 102 170 170 170 170 170 170 204 204 204 204 204 204 204 204 204 136 136 136 102 102 102 51 51 51 34 34 34 153 153 153 153 153 153 170 170 170 0 0 0 153 153 153 0 0 0 34 34 34 170 170 170 153 153 153 17 17 17 170 170 170 0 0 0 153 153 153 68 68 68 136 136 136 34 34 34 34 34 34 255 255 255 102 102 102 187 187 187 51 51 51 34 34 34 17 17 17 153 153 153 17 17 17 0 0 0 136 136 136 136 136 136 221 221 221 136 136 136 34 34 34 136 136 136 
85 85 85 34 34 34 0 0 0 136 136 136 136 136 136 221 221 221 170 170 170 170 170 170 136 136 136 102 102 102 68 68 68 68 68 68 34 34 34 34 34 34 51 51 51 102 102 102 136 136 136 34 34 34 34 34 34 204 204 204 136 136 136 34 34 34 34 34 34 51 51 51 102 102 102 170 170 170 34 34 34 17 17 17 17 17 17 0 0 0 136 136 136 187 187 187 221 221 221 170 170 170 238 238 238 204 204 204 204 204 204 136 136 136 68 68 68 68 68 68 68 68 68 34 34 34 170 170 170 255 255 255 102 102 102 153 153 153 51 51 51 34 34 34 17 17 17 136 136 136 204 204 204 170 170 170 102 102 102 102 102 102 136 136 136 34 34 34 68 68 68 0 0 0 34 34 34 170 170 170 153 153 153 17 17 17 170 170 170 0 0 0 153 153 153 68 68 68 170 170 170 68 68 68 34 34 34 34 34 34 170 170 170 238 238 238 102 102 102 0 0 0 170 170 170 0 0 0 136 136 136 136 136 136 34 34 34 34 34 34 51 51 51 102 102 102 136 136 136 170 170 170 17 17 17 153 153 153 68 68 68 136 136 136 34 34 34 34 34 34 51 51 51 102 102 102 170 170 170 170 170 170 17 17 17 153 153 153 17 17 17 0 0 0 136 136 136 136 136 136 221 221 221 170 170 170 0 0 0 136 136 136 187 187 187 34 34 34 0 0 0 136 136 136 136 136 136 221 221 221 170 170 170 136 136 136 136 136 136 68 68 68 68 68 68 34 34 34 34 34 34 255 255 255 102 102 102 153 153 153 51 51 51 51 51 51 34 34 34 0 0 0 136 136 136 136 136 136 34 34 34 34 34 34 255 255 255 102 102 102 153 153 153 51 51 51 34 34 34 17 17 17 136 136 136 204 204 204 170 170 170 102 102 102 102 102 102 136 136 136 34 34 34 68 68 68 34 34 34 221 221 221 153 153 153 17 17 17 170 170 170 0 0 0 153 153 153 68 68 68 136 136 136 68 68 68 51 51 51 0 0 0 85 85 85 102 102 102 51 51 51 85 85 85 221 221 221 17 17 17 
0 0 0 204 204 204 136 136 136 136 136 136 136 136 136 68 68 68 136 136 136 102 102 102 221 221 221 17 17 17 68 68 68 51 51 51 34 34 34 153 153 153 0 0 0 68 68 68 68 68 68 102 102 102 221 221 221 85 85 85 68 68 68 51 51 51 34 34 34 34 34 34 17 17 17 17 17 17 17 17 17 187 187 187 68 68 68 17 17 17 17 17 17 102 102 102 68 68 68 17 17 17 17 17 17 17 17 17 187 187 187 85 85 85 85 85 85 0 0 0 136 136 136 136 136 136 68 68 68 85 85 85 85 85 85 238 238 238 221 221 221 119 119 119 102 102 102 68 68 68 34 34 34 34 34 34 34 34 34 17 17 17 17 17 17 85 85 85 119 119 119 51 51 51 68 68 68 153 153 153 17 17 17 0 0 0 204 204 204 102 102 102 85 85 85 51 51 51 51 51 51 68 68 68 17 17 17 34 34 34 0 0 0 0 0 0 34 34 34 204 204 204 153 153 153 17 17 17 170 170 170 0 0 0 153 153 153 136 136 136 170 170 170 136 136 136 34 34 34 34 34 34 68 68 68 136 136 136 170 170 170 153 153 153 102 102 102 153 153 153 34 34 34 34 34 34 17 17 17 153 153 153 0 0 0 170 170 170 0 0 0 102 102 102 51 51 51 102 102 102 136 136 136 34 34 34 34 34 34 0 0 0 187 187 187 34 34 34 170 170 170 204 204 204 204 204 204 204 204 204 136 136 136 102 102 102 68 68 68 68 68 68 34 34 34 34 34 34 51 51 51 102 102 102 136 136 136 34 34 34 34 34 34 204 204 204 136 136 136 34 34 34 34 34 34 51 51 51 102 102 102 187 187 187 34 34 34 17 17 17 17 17 17 0 0 0 153 153 153 17 17 17 170 170 170 187 187 187 221 221 221 170 170 170 238 238 238 136 136 136 68 68 68 68 68 68 68 68 68 34 34 34 34 34 34 68 68 68 102 102 102 204 204 204 102 102 102 17 17 17 34 34 34 17 17 17 0 0 0 170 170 170 102 102 102 102 102 102 136 136 136 34 34 34 68 68 68 0 0 0 
34 34 34 68 68 68 153 153 153 17 17 17 170 170 170 0 0 0 153 153 153 204 204 204 170 170 170 68 68 68 34 34 34 68 68 68 102 102 102 187 187 187 68 68 68 136 136 136 17 17 17 153 153 153 0 0 0 170 170 170 0 0 0 102 102 102 85 85 85 68 68 68 51 51 51 153 153 153 68 68 68 0 0 0 204 204 204 136 136 136 153 153 153 51 51 51 51 51 51 34 34 34 34 34 34 17 17 17 34 34 34 170 170 170 34 34 34 204 204 204 170 170 170 0 0 0 34 34 34 68 68 68 68 68 68 136 136 136 17 17 17 136 136 136 136 136 136 136 136 136 34 34 34 102 102 102 255 255 255 68 68 68 136 136 136 170 170 170 17 17 17 153 153 153 0 0 0 136 136 136 34 34 34 102 102 102 238 238 238 68 68 68 34 34 34 153 153 153 68 68 68 204 204 204 221 221 221 0 0 0 68 68 68 136 136 136 17 17 17 0 0 0 153 153 153 17 17 17 170 170 170 0 0 0 187 187 187 204 204 204 153 153 153 238 238 238 68 68 68 255 255 255 34 34 34 119 119 119 153 153 153 51 51 51 204 204 204 153 153 153 238 238 238 68 68 68 255 255 255 34 34 34 119 119 119 153 153 153 85 85 85 68 68 68 136 136 136 136 136 136 221 221 221 0 0 0 68 68 68 136 136 136 17 17 17 0 0 0 153 153 153 17 17 17 170 170 170 0 0 0 187 187 187 204 204 204 153 153 153 238 238 238 68 68 68 255 255 255 34 34 34 119 119 119 153 153 153 51 51 51 204 204 204 153 153 153 238 238 238 68 68 68 255 255 255 34 34 34 119 119 119 153 153 153 85 85 85 68 68 68 136 136 136 136 136 136 221 221 221 0 0 0 68 68 68 204 204 204 17 17 17 0 0 0 153 153 153 17 17 17 17 17 17 170 170 170 51 51 51 204 204 204 221 221 221 238 238 238 102 102 102 255 255 255 51 51 51 119 119 119 153 153 153 187 187 187 204 204 204 221 221 221 238 238 238 102 102 102 255 255 255 51 51 51 119 119 119 153 153 153 
136 136 136 136 136 136 238 238 238 68 68 68 68 68 68 34 34 34 102 102 102 0 0 0 0 0 0 255 255 255 17 17 17 17 17 17 51 51 51 221 221 221 17 17 17 238 238 238 136 136 136 255 255 255 68 68 68 119 119 119 170 170 170 51 51 51 221 221 221 17 17 17 238 238 238 136 136 136 255 255 255 68 68 68 119 119 119 170 170 170 85 85 85 17 17 17 17 17 17 0 0 0 136 136 136 68 68 68 136 136 136 0 0 0 0 0 0 255 255 255 136 136 136 0 0 0 0 0 0 136 136 136 153 153 153 238 238 238 34 34 34 255 255 255 17 17 17 119 119 119 136 136 136 187 187 187 204 204 204 85 85 85 238 238 238 34 34 34 255 255 255 17 17 17 119 119 119 136 136 136 187 187 187 204 204 204 102 102 102 102 102 102 34 34 34 34 34 34 68 68 68 136 136 136 0 0 0 238 238 238 153 153 153 0 0 0 0 0 0 34 34 34 51 51 51 204 204 204 153 153 153 238 238 238 68 68 68 255 255 255 34 34 34 119 119 119 153 153 153 51 51 51 204 204 204 153 153 153 238 238 238 68 68 68 255 255 255 34 34 34 119 119 119 153 153 153 0 0 0 136 136 136 204 204 204 0 0 0 0 0 0 0 0 0 0 0 0 68 68 68 221 221 221 119 119 119 221 221 221 17 17 17 0 0 0 0 0 0 0 0 0 68 68 68 221 221 221 85 85 85 85 85 85 187 187 187 0 0 0 0 0 0 0 0 0 68 68 68 221 221 221 17 17 17 17 17 17 85 85 85 0 0 0 0 0 0 0 0 0 68 68 68 221 221 221 17 17 17 17 17 17 85 85 85 0 0 0 0 0 0 0 0 0 68 68 68 221 221 221 17 17 17 17 17 17 17 17 17 0 0 0 0 0 0 0 0 0 68 68 68 221 221 221 51 51 51 153 153 153 17 17 17 0 0 0 0 0 0 0 0 0 0 0 0 0 0 0 85 85 85 119 119 119 136 136 136 102 102 102 136 136 136 0 0 0 204 204 204 0 0 0 0 0 0 0 0 0 85 85 85 
119 119 119 136 136 136 102 102 102 136 136 136 153 153 153 68 68 68 17 17 17 0 0 0 17 17 17 187 187 187 153 153 153 0 0 0 17 17 17 0 0 0 170 170 170 238 238 238 17 17 17 0 0 0 136 136 136 238 238 238 34 34 34 34 34 34 119 119 119 221 221 221 136 136 136 17 17 17 17 17 17 204 204 204 0 0 0 17 17 17 187 187 187 136 136 136 0 0 0 68 68 68 136 136 136 17 17 17 238 238 238 17 17 17 238 238 238 0 0 0 85 85 85 255 255 255 170 170 170 51 51 51 17 17 17 255 255 255 255 255 255 136 136 136 0 0 0 119 119 119 136 136 136 17 17 17 204 204 204 17 17 17 119 119 119 204 204 204 136 136 136 102 102 102 34 34 34 34 34 34 238 238 238 0 0 0 34 34 34 34 34 34 153 153 153 136 136 136 17 17 17 17 17 17 153 153 153 0 0 0 119 119 119 34 34 34 51 51 51 0 0 0 0 0 0 51 51 51 136 136 136 34 34 34 51 51 51 102 102 102 238 238 238 0 0 0 221 221 221 221 221 221 170 170 170 0 0 0 0 0 0 34 34 34 0 0 0 136 136 136 102 102 102 0 0 0 85 85 85 255 255 255 0 0 0 34 34 34 51 51 51 0 0 0 51 51 51 238 238 238 17 17 17 17 17 17 238 238 238 204 204 204 119 119 119 255 255 255 238 238 238 51 51 51 119 119 119 255 255 255 136 136 136 0 0 0 204 204 204 119 119 119 136 136 136 136 136 136 119 119 119 255 255 255 17 17 17 255 255 255 204 204 204 119 119 119 0 0 0 0 0 0 102 102 102 238 238 238 0 0 0 102 102 102 221 221 221 204 204 204 34 34 34 68 68 68 136 136 136 136 136 136 136 136 136 68 68 68 119 119 119 34 34 34 17 17 17 17 17 17 136 136 136 136 136 136 119 119 119 17 17 17 204 204 204 0 0 0 0 0 0 51 51 51 119 119 119 0 0 0 68 68 68 102 102 102 238 238 238 34 34 34 204 204 204 0 0 0 119 119 119 0 0 0 119 119 119 136 136 136 
187 187 187 119 119 119 187 187 187 255 255 255 34 34 34 51 51 51 102 102 102 255 255 255 187 187 187 17 17 17 238 238 238 51 51 51 17 17 17 238 238 238 34 34 34 17 17 17 221 221 221 221 221 221 255 255 255 136 136 136 0 0 0 51 51 51 17 17 17 238 238 238 0 0 0 0 0 0 204 204 204 119 119 119 255 255 255 255 255 255 153 153 153 238 238 238 0 0 0 0 0 0 221 221 221 204 204 204 0 0 0 17 17 17 187 187 187 119 119 119 34 34 34 0 0 0 34 34 34 51 51 51 153 153 153 0 0 0 136 136 136 204 204 204 136 136 136 34 34 34 51 51 51 17 17 17 136 136 136 136 136 136 102 102 102 221 221 221 204 204 204 0 0 0 17 17 17 187 187 187 136 136 136 0 0 0 51 51 51 136 136 136 221 221 221 136 136 136 51 51 51 255 255 255 187 187 187 119 119 119 238 238 238 0 0 0 102 102 102 221 221 221 255 255 255 136 136 136 221 221 221 187 187 187 136 136 136 17 17 17 255 255 255 221 221 221 204 204 204 238 238 238 51 51 51 204 204 204 0 0 0 17 17 17 187 187 187 119 119 119 34 34 34 0 0 0 102 102 102 255 255 255 153 153 153 255 255 255 204 204 204 0 0 0 17 17 17 187 187 187 136 136 136 255 255 255 204 204 204 0 0 0 17 17 17 187 187 187 153 153 153 0 0 0 68 68 68 187 187 187 119 119 119 238 238 238 34 34 34 51 51 51 204 204 204 68 68 68 102 102 102 204 204 204 0 0 0 0 0 0 34 34 34 51 51 51 17 17 17 0 0 0 238 238 238 187 187 187 136 136 136 0 0 0 51 51 51 119 119 119 0 0 0 0 0 0 119 119 119 0 0 0 68 68 68 102 102 102 204 204 204 17 17 17 204 204 204 221 221 221 255 255 255 136 136 136 0 0 0 51 51 51 102 102 102 255 255 255 204 204 204 102 102 102 238 238 238 34 34 34 0 0 0 17 17 17 255 255 255 238 238 238 204 204 204 119 119 119 255 255 255 238 238 238 0 0 0 102 102 102 
221 221 221 255 255 255 136 136 136 17 17 17 187 187 187 136 136 136 204 204 204 102 102 102 119 119 119 119 119 119 0 0 0 119 119 119 136 136 136 0 0 0 51 51 51 119 119 119 34 34 34 136 136 136 136 136 136 255 255 255 34 34 34 0 0 0 34 34 34 17 17 17 136 136 136 68 68 68 34 34 34 51 51 51 136 136 136 136 136 136 136 136 136 68 68 68 119 119 119 221 221 221 136 136 136 17 17 17 187 187 187 136 136 136 0 0 0 51 51 51 136 136 136 0 0 0 0 0 0 136 136 136 221 221 221 102 102 102 34 34 34 85 85 85 136 136 136 255 255 255 17 17 17 136 136 136 238 238 238 238 238 238 255 255 255 204 204 204 102 102 102 238 238 238 0 0 0 0 0 0 238 238 238 119 119 119 17 17 17 238 238 238 85 85 85 17 17 17 85 85 85 221 221 221 204 204 204 0 0 0 221 221 221 204 204 204 102 102 102 51 51 51 255 255 255 187 187 187 136 136 136 17 17 17 204 204 204 0 0 0 0 0 0 51 51 51 136 136 136 0 0 0 51 51 51 119 119 119 238 238 238 0 0 0 17 17 17 187 187 187 34 34 34 136 136 136 136 136 136 204 204 204 102 102 102 255 255 255 0 0 0 238 238 238 17 17 17 34 34 34 204 204 204 119 119 119 136 136 136 204 204 204 119 119 119 119 119 119 119 119 119 238 238 238 51 51 51 119 119 119 0 0 0 51 51 51 255 255 255 0 0 0 51 51 51 119 119 119 34 34 34 136 136 136 255 255 255 238 238 238 238 238 238 0 0 0 102 102 102 255 255 255 204 204 204 221 221 221 187 187 187 187 187 187 204 204 204 136 136 136 0 0 0 0 0 0 102 102 102 0 0 0 68 68 68 0 0 0 170 170 170 0 0 0 136 136 136 0 0 0 102 102 102 136 136 136 17 17 17 136 136 136 34 34 34 136 136 136 136 136 136 204 204 204 102 102 102 255 255 255 0 0 0 238 238 238 17 17 17 187 187 187 204 204 204 119 119 119 136 136 136 0 0 0 0 0 0 102 102 102 
238 238 238 0 0 0 102 102 102 17 17 17 255 255 255 17 17 17 0 0 0 221 221 221 238 238 238 238 238 238 0 0 0 0 0 0 0 0 0 119 119 119 255 255 255 17 17 17 34 34 34 0 0 0 136 136 136 0 0 0 170 170 170 0 0 0 68 68 68 17 17 17 34 34 34 51 51 51 17 17 17 136 136 136 102 102 102 0 0 0 17 17 17 51 51 51 119 119 119 136 136 136 119 119 119 136 136 136 51 51 51 0 0 0 221 221 221 238 238 238 51 51 51 204 204 204 0 0 0 0 0 0 51 51 51 153 153 153 0 0 0 51 51 51 0 0 0 255 255 255 136 136 136 136 136 136 68 68 68 51 51 51 0 0 0 187 187 187 153 153 153 0 0 0 34 34 34 34 34 34 17 17 17 153 153 153 187 187 187 204 204 204 0 0 0 221 221 221 136 136 136 0 0 0 17 17 17 51 51 51 119 119 119 136 136 136 119 119 119 136 136 136 51 51 51 0 0 0 255 255 255 102 102 102 51 51 51 204 204 204 0 0 0 17 17 17 204 204 204 136 136 136 0 0 0 51 51 51 119 119 119 17 17 17 136 136 136 51 51 51 204 204 204 51 51 51 0 0 0 102 102 102 0 0 0 255 255 255 0 0 0 170 170 170 221 221 221 238 238 238 17 17 17 170 170 170 0 0 0 34 34 34 204 204 204 0 0 0 0 0 0 238 238 238 119 119 119 136 136 136 119 119 119 136 136 136 51 51 51 0 0 0 187 187 187 102 102 102 51 51 51 204 204 204 17 17 17 238 238 238 68 68 68 136 136 136 34 34 34 153 153 153 238 238 238 136 136 136 17 17 17 221 221 221 17 17 17 0 0 0 136 136 136 238 238 238 0 0 0 136 136 136 0 0 0 238 238 238 119 119 119 136 136 136 119 119 119 136 136 136 51 51 51 136 136 136 255 255 255 238 238 238 255 255 255 255 255 255 153 153 153 0 0 0 0 0 0 85 85 85 136 136 136 51 51 51 204 204 204 136 136 136 0 0 0 17 17 17 34 34 34 0 0 0 221 221 221 204 204 204 
17 17 17 0 0 0 0 0 0 221 221 221 119 119 119 136 136 136 119 119 119 136 136 136 51 51 51 136 136 136 221 221 221 238 238 238 255 255 255 204 204 204 0 0 0 187 187 187 102 102 102 68 68 68 136 136 136 0 0 0 17 17 17 34 34 34 0 0 0 221 221 221 204 204 204 17 17 17 0 0 0 0 0 0 0 0 0 170 170 170 119 119 119 136 136 136 119 119 119 136 136 136 51 51 51 136 136 136 153 153 153 238 238 238 238 238 238 34 34 34 170 170 170 170 170 170 0 0 0 153 153 153 204 204 204 17 17 17 0 0 0 0 0 0 0 0 0 153 153 153 119 119 119 136 136 136 119 119 119 136 136 136 51 51 51 136 136 136 136 136 136 238 238 238 238 238 238 153 153 153 136 136 136 34 34 34 119 119 119 0 0 0 68 68 68 0 0 0 0 0 0 153 153 153 119 119 119 136 136 136 119 119 119 136 136 136 51 51 51 136 136 136 136 136 136 238 238 238 238 238 238 119 119 119 153 153 153 34 34 34 102 102 102 221 221 221 0 0 0 0 0 0 0 0 0 170 170 170 119 119 119 136 136 136 119 119 119 136 136 136 34 34 34 0 0 0 170 170 170 85 85 85 136 136 136 51 51 51 119 119 119 34 34 34 204 204 204 153 153 153 51 51 51 102 102 102 136 136 136 0 0 0 0 0 0 170 170 170 119 119 119 136 136 136 119 119 119 136 136 136 17 17 17 0 0 0 238 238 238 221 221 221 153 153 153 34 34 34 0 0 0 0 0 0 34 34 34 68 68 68 136 136 136 221 221 221 187 187 187 68 68 68 0 0 0 136 136 136 119 119 119 136 136 136 119 119 119 136 136 136 136 136 136 136 136 136 170 170 170 136 136 136 136 136 136 34 34 34 119 119 119 0 0 0 68 68 68 0 0 0 0 0 0 136 136 136 119 119 119 136 136 136 119 119 119 136 136 136 136 136 136 136 136 136 170 170 170 102 102 102 136 136 136 34 34 34 119 119 119 0 0 0 68 68 68 0 0 0 0 0 0 119 119 119 119 119 119 136 136 136 
119 119 119 136 136 136 136 136 136 136 136 136 170 170 170 68 68 68 136 136 136 34 34 34 102 102 102 0 0 0 0 0 0 136 136 136 119 119 119 136 136 136 119 119 119 136 136 136 187 187 187 136 136 136 17 17 17 102 102 102 204 204 204 136 136 136 221 221 221 170 170 170 136 136 136 136 136 136 0 0 0 102 102 102 119 119 119 136 136 136 119 119 119 136 136 136 51 51 51 136 136 136 68 68 68 34 34 34 0 0 0 0 0 0 0 0 0 102 102 102 119 119 119 136 136 136 119 119 119 136 136 136 51 51 51 136 136 136 51 51 51 34 34 34 0 0 0 0 0 0 0 0 0 102 102 102 119 119 119 136 136 136 119 119 119 136 136 136 68 68 68 0 0 0 17 17 17 170 170 170 0 0 0 0 0 0 0 0 0 0 0 0 0 0 0 255 255 255 204 204 204 51 51 51 85 85 85 0 0 0 0 0 0 204 204 204 255 255 255 17 17 17 136 136 136 68 68 68 153 153 153 170 170 170 119 119 119 153 153 153 51 51 51 0 0 0 102 102 102 119 119 119 136 136 136 51 51 51 34 34 34 204 204 204 204 204 204 0 0 0 0 0 0 153 153 153 34 34 34 0 0 0 17 17 17 0 0 0 153 153 153 0 0 0 204 204 204 255 255 255 17 17 17 238 238 238 0 0 0 204 204 204 187 187 187 187 187 187 0 0 0 0 0 0 51 51 51 34 34 34 136 136 136 204 204 204 51 51 51 85 85 85 0 0 0 0 0 0 204 204 204 255 255 255 51 51 51 34 34 34 0 0 0 51 51 51 68 68 68 0 0 0 204 204 204 0 0 0 34 34 34 0 0 0 170 170 170 0 0 0 204 204 204 17 17 17 255 255 255 17 17 17 170 170 170 0 0 0 102 102 102 136 136 136 17 17 17 170 170 170 17 17 17 255 255 255 221 221 221 68 68 68 0 0 0 51 51 51 68 68 68 0 0 0 221 221 221 0 0 0 119 119 119 221 221 221 170 170 170 136 136 136 0 0 0 102 102 102 170 170 170 0 0 0 102 102 102 136 136 136 
136 136 136 119 119 119 85 85 85 153 153 153 136 136 136 17 17 17 170 170 170 136 136 136 17 17 17 187 187 187 255 255 255 0 0 0 51 51 51 51 51 51 0 0 0 221 221 221 0 0 0 0 0 0 204 204 204 102 102 102 51 51 51 68 68 68 221 221 221 0 0 0 51 51 51 51 51 51 0 0 0 136 136 136 238 238 238 0 0 0 34 34 34 17 17 17 153 153 153 0 0 0 204 204 204 51 51 51 51 51 51 204 204 204 204 204 204 51 51 51 0 0 0 0 0 0 204 204 204 204 204 204 51 51 51 119 119 119 204 204 204 102 102 102 17 17 17 136 136 136 0 0 0 102 102 102 102 102 102 17 17 17 187 187 187 238 238 238 51 51 51 0 0 0 0 0 0 51 51 51 0 0 0 51 51 51 0 0 0 204 204 204 51 51 51 51 51 51 0 0 0 204 204 204 204 204 204 0 0 0 51 51 51 17 17 17 0 0 0 255 255 255 187 187 187 0 0 0 51 51 51 68 68 68 0 0 0 204 204 204 0 0 0 51 51 51 17 17 17 68 68 68 136 136 136 51 51 51 255 255 255 136 136 136 102 102 102 0 0 0 102 102 102 136 136 136 17 17 17 136 136 136 102 102 102 0 0 0 34 34 34 17 17 17 204 204 204 0 0 0 204 204 204 0 0 0 0 0 0 221 221 221 255 255 255 17 17 17 136 136 136 0 0 0 102 102 102 136 136 136 17 17 17 136 136 136 102 102 102 255 255 255 136 136 136 51 51 51 0 0 0 51 51 51 68 68 68 0 0 0 204 204 204 51 51 51 0 0 0 204 204 204 238 238 238 51 51 51 0 0 0 51 51 51 0 0 0 204 204 204 0 0 0 34 34 34 68 68 68 187 187 187 238 238 238 0 0 0 204 204 204 0 0 0 0 0 0 221 221 221 0 0 0 51 51 51 17 17 17 255 255 255 0 0 0 102 102 102 0 0 0 17 17 17 136 136 136 0 0 0 0 0 0 17 17 17 255 255 255 204 204 204 51 51 51 0 0 0 51 51 51 0 0 0 0 0 0 204 204 204 
51 51 51 0 0 0 34 34 34 34 34 34 255 255 255 0 0 0 204 204 204 51 51 51 0 0 0 204 204 204 51 51 51 0 0 0 17 17 17 255 255 255 102 102 102 0 0 0 17 17 17 136 136 136 102 102 102 0 0 0 17 17 17 136 136 136 255 255 255 187 187 187 0 0 0 0 0 0 204 204 204 51 51 51 0 0 0 0 0 0 51 51 51 119 119 119 204 204 204 17 17 17 136 136 136 102 102 102 0 0 0 17 17 17 136 136 136 17 17 17 187 187 187 238 238 238 0 0 0 204 204 204 0 0 0 51 51 51 51 51 51 0 0 0 51 51 51 17 17 17 255 255 255 0 0 0 102 102 102 0 0 0 17 17 17 170 170 170 0 0 0 102 102 102 17 17 17 255 255 255 204 204 204 51 51 51 0 0 0 51 51 51 0 0 0 0 0 0 204 204 204 51 51 51 0 0 0 0 0 0 34 34 34 51 51 51 136 136 136 34 34 34 68 68 68 187 187 187 136 136 136 51 51 51 0 0 0 51 51 51 68 68 68 0 0 0 221 221 221 119 119 119 204 204 204 102 102 102 153 153 153 170 170 170 102 102 102 170 170 170 0 0 0 102 102 102 187 187 187 238 238 238 0 0 0 221 221 221 51 51 51 0 0 0 0 0 0 51 51 51 68 68 68 51 51 51 255 255 255 170 170 170 0 0 0 17 17 17 170 170 170 153 153 153 170 170 170 136 136 136 17 17 17 255 255 255 221 221 221 0 0 0 221 221 221 68 68 68 51 51 51 85 85 85 0 0 0 51 51 51 0 0 0 204 204 204 221 221 221 51 51 51 85 85 85 68 68 68 0 0 0 51 51 51 85 85 85 255 255 255 0 0 0 102 102 102 170 170 170 0 0 0 102 102 102 170 170 170 0 0 0 102 102 102 0 0 0 0 0 0 0 0 0 153 153 153 119 119 119 136 136 136 255 255 255 17 17 17 238 238 238 51 51 51 204 204 204 119 119 119 136 136 136 255 255 255 17 17 17 34 34 34 68 68 68 85 85 85 136 136 136 0 0 0 0 0 0 153 153 153 
119 119 119 136 136 136 255 255 255 17 17 17 238 238 238 51 51 51 204 204 204 119 119 119 136 136 136 255 255 255 17 17 17 34 34 34 68 68 68 85 85 85 136 136 136 0 0 0 0 0 0 153 153 153 119 119 119 136 136 136 255 255 255 17 17 17 238 238 238 51 51 51 204 204 204 119 119 119 136 136 136 255 255 255 17 17 17 0 0 0 68 68 68 221 221 221 170 170 170 136 136 136 0 0 0 0 0 0 170 170 170 153 153 153 0 0 0 136 136 136 136 136 136 221 221 221 187 187 187 204 204 204 68 68 68 170 170 170 136 136 136 221 221 221 153 153 153 34 34 34 255 255 255 204 204 204 170 170 170 153 153 153 0 0 0 170 170 170 136 136 136 221 221 221 187 187 187 238 238 238 68 68 68 170 170 170 136 136 136 221 221 221 136 136 136 187 187 187 255 255 255 221 221 221 136 136 136 221 221 221 187 187 187 255 255 255 68 68 68 170 170 170 136 136 136 221 221 221 136 136 136 170 170 170 255 255 255 221 221 221 170 170 170 153 153 153 0 0 0 68 68 68 136 136 136 221 221 221 136 136 136 204 204 204 255 255 255 221 221 221 153 153 153 204 204 204 204 204 204 153 153 153 68 68 68 170 170 170 153 153 153 204 204 204 204 204 204 170 170 170 68 68 68 170 170 170 119 119 119 136 136 136 170 170 170 221 221 221 255 255 255 153 153 153 255 255 255 255 255 255 0 0 0 153 153 153 0 0 0 136 136 136 136 136 136 221 221 221 255 255 255 153 153 153 255 255 255 255 255 255 170 170 170 153 153 153 136 136 136 34 34 34 136 136 136 221 221 221 255 255 255 238 238 238 255 255 255 255 255 255 170 170 170 153 153 153 85 85 85 85 85 85 136 136 136 221 221 221 255 255 255 255 255 255 255 255 255 255 255 255 170 170 170 34 34 34 0 0 0 255 255 255 170 170 170 0 0 0 85 85 85 119 119 119 170 170 170 153 153 153 85 85 85 0 0 0 153 153 153 221 221 221 255 255 255 0 0 0 255 255 255 187 187 187 204 204 204 170 170 170 
153 153 153 136 136 136 153 153 153 221 221 221 255 255 255 0 0 0 255 255 255 187 187 187 204 204 204 170 170 170 17 17 17 0 0 0 255 255 255 51 51 51 170 170 170 221 221 221 255 255 255 170 170 170 255 255 255 255 255 255 136 136 136 221 221 221 153 153 153 34 34 34 85 85 85 85 85 85 170 170 170 221 221 221 255 255 255 187 187 187 255 255 255 255 255 255 136 136 136 221 221 221 153 153 153 51 51 51 85 85 85 85 85 85 85 85 85 136 136 136 119 119 119 136 136 136 221 221 221 136 136 136 170 170 170 34 34 34 255 255 255 255 255 255 153 153 153 170 170 170 34 34 34 0 0 0 17 17 17 238 238 238 85 85 85 68 68 68 85 85 85 136 136 136 34 34 34 0 0 0 119 119 119 187 187 187 68 68 68 255 255 255 170 170 170 153 153 153 238 238 238 0 0 0 136 136 136 221 221 221 170 170 170 68 68 68 68 68 68 34 34 34 170 170 170 153 153 153 136 136 136 0 0 0 136 136 136 221 221 221 0 0 0 136 136 136 68 68 68 204 204 204 170 170 170 153 153 153 17 17 17 0 0 0 136 136 136 221 221 221 170 170 170 85 85 85 68 68 68 34 34 34 102 102 102 68 68 68 17 17 17 255 255 255 102 102 102 68 68 68 17 17 17 238 238 238 34 34 34 0 0 0 221 221 221 17 17 17 68 68 68 238 238 238 102 102 102 68 68 68 17 17 17 119 119 119 170 170 170 153 153 153 0 0 0 34 34 34 0 0 0 204 204 204 119 119 119 170 170 170 68 68 68 34 34 34 170 170 170 221 221 221 119 119 119 170 170 170 68 68 68 34 34 34 136 136 136 221 221 221 204 204 204 0 0 0 255 255 255 204 204 204 170 170 170 221 221 221 221 221 221 0 0 0 68 68 68 17 17 17 221 221 221 0 0 0 238 238 238 187 187 187 34 34 34 0 0 0 85 85 85 136 136 136 85 85 85 0 0 0 170 170 170 221 221 221 170 170 170 68 68 68 68 68 68 34 34 34 17 17 17 0 0 0 0 0 0 68 68 68 
0 0 0 153 153 153 68 68 68 0 0 0 136 136 136 0 0 0 0 0 0 34 34 34 34 34 34 153 153 153 187 187 187 255 255 255 136 136 136 221 221 221 170 170 170 68 68 68 68 68 68 34 34 34 136 136 136 153 153 153 34 34 34 0 0 0 221 221 221 0 0 0 0 0 0 51 51 51 34 34 34 0 0 0 170 170 170 17 17 17 85 85 85 17 17 17 170 170 170 153 153 153 0 0 0 17 17 17 17 17 17 204 204 204 119 119 119 170 170 170 68 68 68 34 34 34 170 170 170 221 221 221 119 119 119 170 170 170 68 68 68 34 34 34 136 136 136 221 221 221 204 204 204 0 0 0 255 255 255 204 204 204 170 170 170 85 85 85 17 17 17 85 85 85 51 51 51 0 0 0 0 0 0 51 51 51 34 34 34 0 0 0 119 119 119 34 34 34 68 68 68 255 255 255 170 170 170 153 153 153 0 0 0 17 17 17 0 0 0 204 204 204 119 119 119 170 170 170 68 68 68 34 34 34 170 170 170 221 221 221 119 119 119 170 170 170 68 68 68 34 34 34 136 136 136 221 221 221 204 204 204 0 0 0 255 255 255 204 204 204 170 170 170 221 221 221 0 0 0 136 136 136 68 68 68 204 204 204 51 51 51 0 0 0 34 34 34 51 51 51 170 170 170 221 221 221 170 170 170 17 17 17 68 68 68 204 204 204 51 51 51 0 0 0 255 255 255 187 187 187 34 34 34 0 0 0 17 17 17 51 51 51 85 85 85 34 34 34 170 170 170 221 221 221 170 170 170 51 51 51 68 68 68 204 204 204 34 34 34 153 153 153 51 51 51 255 255 255 0 0 0 85 85 85 17 17 17 102 102 102 136 136 136 221 221 221 170 170 170 51 51 51 68 68 68 204 204 204 170 170 170 153 153 153 136 136 136 0 0 0 136 136 136 221 221 221 170 170 170 17 17 17 68 68 68 204 204 204 170 170 170 85 85 85 17 17 17 238 238 238 221 221 221 0 0 0 0 0 0 51 51 51 34 34 34 0 0 0 85 85 85 17 17 17 102 102 102 153 153 153 
170 170 170 153 153 153 170 170 170 0 0 0 17 17 17 204 204 204 170 170 170 68 68 68 68 68 68 34 34 34 170 170 170 85 85 85 17 17 17 85 85 85 51 51 51 0 0 0 0 0 0 51 51 51 34 34 34 0 0 0 119 119 119 85 85 85 68 68 68 255 255 255 170 170 170 153 153 153 0 0 0 17 17 17 17 17 17 204 204 204 119 119 119 170 170 170 68 68 68 34 34 34 170 170 170 221 221 221 119 119 119 170 170 170 68 68 68 34 34 34 136 136 136 221 221 221 204 204 204 0 0 0 255 255 255 204 204 204 34 34 34 0 0 0 119 119 119 136 136 136 68 68 68 255 255 255 34 34 34 0 0 0 187 187 187 255 255 255 85 85 85 34 34 34 170 170 170 221 221 221 119 119 119 136 136 136 68 68 68 34 34 34 255 255 255 0 0 0 0 0 0 51 51 51 34 34 34 0 0 0 221 221 221 204 204 204 85 85 85 34 34 34 170 170 170 153 153 153 0 0 0 17 17 17 0 0 0 204 204 204 119 119 119 170 170 170 68 68 68 34 34 34 170 170 170 221 221 221 119 119 119 170 170 170 68 68 68 34 34 34 136 136 136 221 221 221 204 204 204 0 0 0 255 255 255 204 204 204 170 170 170 221 221 221 204 204 204 187 187 187 68 68 68 170 170 170 34 34 34 153 153 153 34 34 34 0 0 0 255 255 255 0 0 0 255 255 255 153 153 153 170 170 170 153 153 153 0 0 0 34 34 34 17 17 17 204 204 204 119 119 119 170 170 170 68 68 68 34 34 34 170 170 170 221 221 221 119 119 119 170 170 170 68 68 68 34 34 34 136 136 136 221 221 221 204 204 204 0 0 0 255 255 255 204 204 204 170 170 170 153 153 153 0 0 0 17 17 17 17 17 17 204 204 204 119 119 119 170 170 170 68 68 68 34 34 34 170 170 170 221 221 221 119 119 119 170 170 170 68 68 68 34 34 34 136 136 136 221 221 221 204 204 204 0 0 0 255 255 255 204 204 204 170 170 170 221 221 221 204 204 204 0 0 0 68 68 68 170 170 170 
136 136 136 221 221 221 0 0 0 136 136 136 255 255 255 204 204 204 170 170 170 221 221 221 204 204 204 17 17 17 68 68 68 170 170 170 136 136 136 221 221 221 0 0 0 153 153 153 255 255 255 204 204 204 170 170 170 221 221 221 170 170 170 51 51 51 102 102 102 255 255 255 136 136 136 85 85 85 0 0 0 102 102 102 136 136 136 221 221 221 17 17 17 0 0 0 255 255 255 204 204 204 170 170 170 221 221 221 170 170 170 68 68 68 102 102 102 255 255 255 136 136 136 85 85 85 0 0 0 119 119 119 136 136 136 221 221 221 17 17 17 17 17 17 255 255 255 204 204 204 170 170 170 221 221 221 170 170 170 136 136 136 102 102 102 255 255 255 136 136 136 153 153 153 17 17 17 0 0 0 255 255 255 0 0 0 17 17 17 0 0 0 170 170 170 0 0 0 0 0 0 0 0 0 187 187 187 17 17 17 0 0 0 102 102 102 136 136 136 221 221 221 17 17 17 0 0 0 255 255 255 204 204 204 204 204 204 136 136 136 187 187 187 17 17 17 0 0 0 102 102 102 136 136 136 221 221 221 17 17 17 17 17 17 255 255 255 204 204 204 255 255 255 0 0 0 17 17 17 238 238 238 204 204 204 136 136 136 170 170 170 153 153 153 0 0 0 17 17 17 136 136 136 221 221 221 153 153 153 17 17 17 255 255 255 204 204 204 153 153 153 204 204 204 153 153 153 0 0 0 255 255 255 221 221 221 153 153 153 204 204 204 153 153 153 17 17 17 255 255 255 221 221 221 238 238 238 170 170 170 238 238 238 170 170 170 170 170 170 221 221 221 153 153 153 34 34 34 255 255 255 204 204 204 68 68 68 170 170 170 187 187 187 0 0 0 255 255 255 85 85 85 153 153 153 204 204 204 153 153 153 0 0 0 255 255 255 221 221 221 170 170 170 221 221 221 170 170 170 136 136 136 102 102 102 255 255 255 136 136 136 153 153 153 17 17 17 0 0 0 221 221 221 0 0 0 221 221 221 85 85 85 170 170 170 34 34 34 0 0 0 0 0 0 170 170 170 153 153 153 
136 136 136 0 0 0 0 0 0 136 136 136 119 119 119 136 136 136 68 68 68 221 221 221 204 204 204 187 187 187 68 68 68 170 170 170 136 136 136 221 221 221 204 204 204 187 187 187 68 68 68 170 170 170 17 17 17 0 0 0 0 0 0 17 17 17 238 238 238 136 136 136 170 170 170 221 221 221 204 204 204 0 0 0 68 68 68 170 170 170 136 136 136 221 221 221 204 204 204 34 34 34 68 68 68 170 170 170 170 170 170 221 221 221 204 204 204 17 17 17 68 68 68 170 170 170 136 136 136 221 221 221 204 204 204 51 51 51 68 68 68 170 170 170 34 34 34 136 136 136 187 187 187 221 221 221 204 204 204 68 68 68 68 68 68 170 170 170 136 136 136 221 221 221 204 204 204 0 0 0 68 68 68 170 170 170 187 187 187 221 221 221 204 204 204 102 102 102 68 68 68 170 170 170 136 136 136 221 221 221 204 204 204 17 17 17 68 68 68 170 170 170 170 170 170 153 153 153 34 34 34 0 0 0 17 17 17 204 204 204 204 204 204 187 187 187 68 68 68 170 170 170 170 170 170 221 221 221 153 153 153 255 255 255 68 68 68 34 34 34 255 255 255 0 0 0 34 34 34 17 17 17 170 170 170 153 153 153 34 34 34 0 0 0 17 17 17 204 204 204 204 204 204 187 187 187 68 68 68 170 170 170 170 170 170 221 221 221 204 204 204 187 187 187 68 68 68 170 170 170 34 34 34 153 153 153 34 34 34 0 0 0 255 255 255 0 0 0 255 255 255 153 153 153 170 170 170 153 153 153 153 153 153 204 204 204 136 136 136 85 85 85 0 0 0 0 0 0 170 170 170 153 153 153 68 68 68 170 170 170 136 136 136 85 85 85 0 0 0 17 17 17 170 170 170 0 0 0 17 17 17 255 255 255 187 187 187 17 17 17 0 0 0 0 0 0 153 153 153 153 153 153 170 170 170 0 0 0 255 255 255 221 221 221 136 136 136 136 136 136 17 17 17 0 0 0 255 255 255 136 136 136 153 153 153 204 204 204 153 153 153 255 255 255 68 68 68 34 34 34 
170 170 170 153 153 153 0 0 0 17 17 17 0 0 0 204 204 204 119 119 119 170 170 170 68 68 68 34 34 34 170 170 170 221 221 221 119 119 119 170 170 170 68 68 68 34 34 34 136 136 136 221 221 221 204 204 204 0 0 0 255 255 255 204 204 204 170 170 170 221 221 221 187 187 187 0 0 0 85 85 85 85 85 85 204 204 204 221 221 221 170 170 170 85 85 85 102 102 102 255 255 255 187 187 187 0 0 0 0 0 0 34 34 34 136 136 136 0 0 0 255 255 255 102 102 102 153 153 153 204 204 204 187 187 187 0 0 0 85 85 85 85 85 85 170 170 170 221 221 221 187 187 187 221 221 221 68 68 68 170 170 170 0 0 0 153 153 153 0 0 0 17 17 17 136 136 136 221 221 221 187 187 187 221 221 221 68 68 68 170 170 170 136 136 136 221 221 221 153 153 153 34 34 34 255 255 255 221 221 221 68 68 68 204 204 204 85 85 85 51 51 51 68 68 68 221 221 221 170 170 170 221 221 221 187 187 187 0 0 0 255 255 255 204 204 204 255 255 255 0 0 0 0 0 0 102 102 102 153 153 153 204 204 204 204 204 204 153 153 153 68 68 68 170 170 170 153 153 153 204 204 204 204 204 204 170 170 170 68 68 68 170 170 170 136 136 136 85 85 85 17 17 17 170 170 170 102 102 102 68 68 68 17 17 17 136 136 136 170 170 170 221 221 221 187 187 187 17 17 17 255 255 255 204 204 204 136 136 136 153 153 153 0 0 0 17 17 17 255 255 255 0 0 0 0 0 0 102 102 102 153 153 153 204 204 204 204 204 204 153 153 153 68 68 68 170 170 170 153 153 153 204 204 204 204 204 204 170 170 170 68 68 68 170 170 170 136 136 136 85 85 85 17 17 17 187 187 187 102 102 102 68 68 68 17 17 17 153 153 153 170 170 170 221 221 221 187 187 187 204 204 204 68 68 68 170 170 170 34 34 34 153 153 153 34 34 34 255 255 255 0 0 0 153 153 153 34 34 34 0 0 0 136 136 136 221 221 221 187 187 187 204 204 204 68 68 68 170 170 170 
136 136 136 221 221 221 153 153 153 34 34 34 255 255 255 204 204 204 34 34 34 0 0 0 238 238 238 204 204 204 85 85 85 153 153 153 34 34 34 0 0 0 51 51 51 153 153 153 85 85 85 102 102 102 170 170 170 34 34 34 34 34 34 238 238 238 119 119 119 68 68 68 0 0 0 0 0 0 238 238 238 136 136 136 221 221 221 0 0 0 255 255 255 187 187 187 170 170 170 153 153 153 221 221 221 119 119 119 170 170 170 34 34 34 68 68 68 17 17 17 136 136 136 85 85 85 0 0 0 0 0 0 136 136 136 102 102 102 0 0 0 17 17 17 170 170 170 0 0 0 17 17 17 68 68 68 170 170 170 34 34 34 0 0 0 119 119 119 153 153 153 136 136 136 153 153 153 34 34 34 0 0 0 0 0 0 17 17 17 136 136 136 102 102 102 85 85 85 0 0 0 0 0 0 136 136 136 85 85 85 0 0 0 0 0 0 170 170 170 153 153 153 0 0 0 0 0 0 102 102 102 85 85 85 0 0 0 17 17 17 136 136 136 85 85 85 0 0 0 17 17 17 204 204 204 170 170 170 221 221 221 0 0 0 238 238 238 255 255 255 170 170 170 153 153 153 0 0 0 0 0 0 153 153 153 34 34 34 0 0 0 0 0 0 34 34 34 0 0 0 204 204 204 221 221 221 85 85 85 34 34 34 34 34 34 0 0 0 17 17 17 102 102 102 85 85 85 34 34 34 170 170 170 221 221 221 221 221 221 0 0 0 68 68 68 17 17 17 153 153 153 204 204 204 221 221 221 0 0 0 68 68 68 17 17 17 34 34 34 0 0 0 85 85 85 136 136 136 68 68 68 255 255 255 170 170 170 238 238 238 170 170 170 102 102 102 102 102 102 255 255 255 170 170 170 204 204 204 170 170 170 119 119 119 102 102 102 255 255 255 0 0 0 136 136 136 119 119 119 136 136 136 136 136 136 238 238 238 0 0 0 0 0 0 255 255 255 221 221 221 136 136 136 204 204 204 153 153 153 51 51 51 255 255 255 221 221 221 34 34 34 136 136 136 170 170 170 221 221 221 
170 170 170 153 153 153 102 102 102 255 255 255 136 136 136 221 221 221 34 34 34 0 0 0 102 102 102 187 187 187 170 170 170 153 153 153 136 136 136 0 0 0 0 0 0 204 204 204 170 170 170 68 68 68 68 68 68 34 34 34 102 102 102 204 204 204 153 153 153 119 119 119 102 102 102 255 255 255 34 34 34 0 0 0 221 221 221 187 187 187 102 102 102 0 0 0 34 34 34 0 0 0 119 119 119 51 51 51 85 85 85 255 255 255 34 34 34 204 204 204 102 102 102 238 238 238 85 85 85 255 255 255 17 17 17 0 0 0 0 0 0 153 153 153 170 170 170 238 238 238 102 102 102 255 255 255 85 85 85 255 255 255 170 170 170 204 204 204 119 119 119 0 0 0 85 85 85 255 255 255 68 68 68 204 204 204 119 119 119 187 187 187 102 102 102 238 238 238 170 170 170 153 153 153 0 0 0 0 0 0 34 34 34 0 0 0 238 238 238 85 85 85 85 85 85 255 255 255 102 102 102 0 0 0 102 102 102 204 204 204 153 153 153 187 187 187 102 102 102 255 255 255 102 102 102 204 204 204 153 153 153 255 255 255 102 102 102 255 255 255 102 102 102 204 204 204 170 170 170 17 17 17 102 102 102 255 255 255 170 170 170 153 153 153 0 0 0 68 68 68 136 136 136 221 221 221 136 136 136 204 204 204 255 255 255 221 221 221 170 170 170 34 34 34 0 0 0 0 0 0 153 153 153 238 238 238 0 0 0 0 0 0 255 255 255 221 221 221 238 238 238 136 136 136 238 238 238 0 0 0 136 136 136 17 17 17 221 221 221 0 0 0 255 255 255 136 136 136 170 170 170 34 34 34 221 221 221 102 102 102 153 153 153 238 238 238 204 204 204 255 255 255 68 68 68 17 17 17 204 204 204 170 170 170 221 221 221 0 0 0 255 255 255 170 170 170 170 170 170 153 153 153 255 255 255 255 255 255 136 136 136 221 221 221 17 17 17 204 204 204 255 255 255 221 221 221 170 170 170 153 153 153 17 17 17 136 136 136 136 136 136 221 221 221 17 17 17 221 221 221 
255 255 255 221 221 221 170 170 170 153 153 153 0 0 0 34 34 34 136 136 136 221 221 221 221 221 221 0 0 0 68 68 68 17 17 17 102 102 102 68 68 68 17 17 17 85 85 85 170 170 170 153 153 153 153 153 153 238 238 238 136 136 136 221 221 221 0 0 0 0 0 0 255 255 255 221 221 221 170 170 170 153 153 153 17 17 17 136 136 136 136 136 136 221 221 221 0 0 0 17 17 17 255 255 255 221 221 221 170 170 170 153 153 153 102 102 102 136 136 136 136 136 136 221 221 221 0 0 0 136 136 136 255 255 255 221 221 221 170 170 170 153 153 153 153 153 153 255 255 255 136 136 136 221 221 221 0 0 0 153 153 153 255 255 255 221 221 221 170 170 170 153 153 153 34 34 34 153 153 153 136 136 136 221 221 221 153 153 153 51 51 51 255 255 255 221 221 221 170 170 170 153 153 153 0 0 0 204 204 204 136 136 136 221 221 221 187 187 187 221 221 221 68 68 68 170 170 170 170 170 170 153 153 153 255 255 255 51 51 51 136 136 136 221 221 221 136 136 136 51 51 51 255 255 255 204 204 204 170 170 170 153 153 153 119 119 119 255 255 255 136 136 136 221 221 221 34 34 34 136 136 136 255 255 255 204 204 204 153 153 153 204 204 204 34 34 34 153 153 153 255 255 255 204 204 204 136 136 136 221 221 221 34 34 34 170 170 170 255 255 255 204 204 204 153 153 153 204 204 204 34 34 34 187 187 187 255 255 255 204 204 204 170 170 170 153 153 153 0 0 0 17 17 17 136 136 136 221 221 221 153 153 153 0 0 0 255 255 255 204 204 204 153 153 153 204 204 204 153 153 153 0 0 0 255 255 255 221 221 221 34 34 34 0 0 0 187 187 187 17 17 17 85 85 85 85 85 85 153 153 153 204 204 204 187 187 187 0 0 0 85 85 85 85 85 85 170 170 170 153 153 153 0 0 0 0 0 0 136 136 136 221 221 221 204 204 204 68 68 68 68 68 68 170 170 170 136 136 136 221 221 221 204 204 204 0 0 0 68 68 68 170 170 170 170 170 170 153 153 153 
0 0 0 34 34 34 136 136 136 221 221 221 204 204 204 102 102 102 68 68 68 170 170 170 136 136 136 221 221 221 204 204 204 17 17 17 68 68 68 170 170 170 170 170 170 153 153 153 238 238 238 0 0 0 136 136 136 221 221 221 204 204 204 85 85 85 68 68 68 170 170 170 136 136 136 221 221 221 204 204 204 34 34 34 68 68 68 170 170 170 170 170 170 153 153 153 34 34 34 17 17 17 136 136 136 221 221 221 204 204 204 119 119 119 68 68 68 170 170 170 136 136 136 221 221 221 204 204 204 51 51 51 68 68 68 170 170 170 153 153 153 204 204 204 204 204 204 187 187 187 68 68 68 170 170 170 170 170 170 153 153 153 0 0 0 0 0 0 136 136 136 221 221 221 0 0 0 170 170 170 255 255 255 204 204 204 170 170 170 153 153 153 0 0 0 34 34 34 136 136 136 221 221 221 0 0 0 187 187 187 255 255 255 204 204 204 170 170 170 153 153 153 17 17 17 51 51 51 136 136 136 221 221 221 34 34 34 68 68 68 255 255 255 204 204 204 170 170 170 153 153 153 0 0 0 0 0 0 136 136 136 221 221 221 34 34 34 85 85 85 255 255 255 204 204 204 170 170 170 221 221 221 187 187 187 204 204 204 68 68 68 170 170 170 34 34 34 153 153 153 34 34 34 255 255 255 0 0 0 153 153 153 34 34 34 136 136 136 136 136 136 221 221 221 187 187 187 204 204 204 68 68 68 170 170 170 136 136 136 221 221 221 153 153 153 34 34 34 255 255 255 204 204 204 170 170 170 34 34 34 153 153 153 221 221 221 153 153 153 238 238 238 204 204 204 187 187 187 68 68 68 170 170 170 204 204 204 170 170 170 221 221 221 0 0 0 255 255 255 170 170 170 170 170 170 34 34 34 153 153 153 68 68 68 153 153 153 238 238 238 102 102 102 136 136 136 68 68 68 187 187 187 204 204 204 170 170 170 221 221 221 0 0 0 255 255 255 170 170 170 34 34 34 0 0 0 34 34 34 238 238 238 85 85 85 153 153 153 102 102 102 0 0 0 170 170 170 153 153 153 
85 85 85 204 204 204 170 170 170 34 34 34 85 85 85 17 17 17 136 136 136 221 221 221 255 255 255 170 170 170 255 255 255 187 187 187 136 136 136 238 238 238 255 255 255 187 187 187 255 255 255 187 187 187 170 170 170 34 34 34 119 119 119 204 204 204 170 170 170 153 153 153 17 17 17 238 238 238 136 136 136 238 238 238 0 0 0 204 204 204 255 255 255 221 221 221 136 136 136 221 221 221 0 0 0 221 221 221 255 255 255 221 221 221 170 170 170 153 153 153 153 153 153 255 255 255 136 136 136 238 238 238 17 17 17 68 68 68 255 255 255 221 221 221 136 136 136 221 221 221 17 17 17 85 85 85 255 255 255 221 221 221 102 102 102 0 0 0 102 102 102 0 0 0 170 170 170 85 85 85 17 17 17 204 204 204 136 136 136 85 85 85 17 17 17 170 170 170 170 170 170 221 221 221 187 187 187 0 0 0 255 255 255 204 204 204 255 255 255 0 0 0 0 0 0 102 102 102 153 153 153 204 204 204 204 204 204 153 153 153 68 68 68 170 170 170 153 153 153 204 204 204 204 204 204 170 170 170 68 68 68 170 170 170 136 136 136 85 85 85 17 17 17 204 204 204 68 68 68 85 85 85 17 17 17 170 170 170 136 136 136 85 85 85 17 17 17 136 136 136 170 170 170 85 85 85 17 17 17 221 221 221 136 136 136 85 85 85 17 17 17 187 187 187 170 170 170 221 221 221 187 187 187 17 17 17 255 255 255 204 204 204 136 136 136 153 153 153 0 0 0 17 17 17 255 255 255 0 0 0 0 0 0 102 102 102 153 153 153 204 204 204 204 204 204 153 153 153 68 68 68 170 170 170 153 153 153 204 204 204 204 204 204 170 170 170 68 68 68 170 170 170 136 136 136 85 85 85 17 17 17 221 221 221 68 68 68 85 85 85 17 17 17 187 187 187 136 136 136 85 85 85 17 17 17 153 153 153 102 102 102 68 68 68 17 17 17 102 102 102 170 170 170 85 85 85 17 17 17 221 221 221 136 136 136 153 153 153 0 0 0 17 17 17 255 255 255 0 0 0 
51 51 51 238 238 238 34 34 34 85 85 85 17 17 17 153 153 153 255 255 255 0 0 0 17 17 17 119 119 119 170 170 170 221 221 221 170 170 170 136 136 136 102 102 102 255 255 255 136 136 136 153 153 153 34 34 34 0 0 0 221 221 221 0 0 0 0 0 0 204 204 204 170 170 170 153 153 153 68 68 68 0 0 0 34 34 34 68 68 68 17 17 17 85 85 85 17 17 17 0 0 0 0 0 0 34 34 34 170 170 170 153 153 153 136 136 136 0 0 0 136 136 136 85 85 85 17 17 17 102 102 102 136 136 136 0 0 0 0 0 0 68 68 68 170 170 170 153 153 153 136 136 136 0 0 0 136 136 136 85 85 85 17 17 17 102 102 102 170 170 170 85 85 85 17 17 17 204 204 204 34 34 34 85 85 85 17 17 17 136 136 136 136 136 136 153 153 153 0 0 0 136 136 136 255 255 255 0 0 0 0 0 0 68 68 68 170 170 170 153 153 153 204 204 204 0 0 0 136 136 136 85 85 85 17 17 17 102 102 102 136 136 136 153 153 153 0 0 0 68 68 68 255 255 255 0 0 0 17 17 17 51 51 51 170 170 170 221 221 221 187 187 187 221 221 221 68 68 68 170 170 170 68 68 68 153 153 153 0 0 0 34 34 34 136 136 136 221 221 221 187 187 187 221 221 221 68 68 68 170 170 170 170 170 170 221 221 221 187 187 187 204 204 204 68 68 68 170 170 170 68 68 68 153 153 153 0 0 0 136 136 136 136 136 136 221 221 221 187 187 187 204 204 204 68 68 68 170 170 170 136 136 136 221 221 221 153 153 153 34 34 34 255 255 255 204 204 204 170 170 170 85 85 85 17 17 17 119 119 119 34 34 34 153 153 153 204 204 204 0 0 0 68 68 68 170 170 170 68 68 68 170 170 170 68 68 68 170 170 170 68 68 68 170 170 170 68 68 68 170 170 170 170 170 170 170 170 170 119 119 119 204 204 204 221 221 221 119 119 119 85 85 85 0 0 0 85 85 85 119 119 119 85 85 85 0 0 0 238 238 238 0 0 0 85 85 85 0 0 0 
238 238 238 238 238 238 85 85 85 0 0 0 238 238 238 102 102 102 85 85 85 0 0 0 102 102 102 0 0 0 170 170 170 85 85 85 17 17 17 85 85 85 51 51 51 0 0 0 85 85 85 0 0 0 136 136 136 0 0 0 0 0 0 204 204 204 170 170 170 153 153 153 0 0 0 34 34 34 136 136 136 221 221 221 221 221 221 0 0 0 68 68 68 17 17 17 153 153 153 204 204 204 170 170 170 17 17 17 68 68 68 34 34 34 170 170 170 85 85 85 17 17 17 85 85 85 17 17 17 0 0 0 68 68 68 34 34 34 170 170 170 85 85 85 17 17 17 85 85 85 68 68 68 153 153 153 136 136 136 0 0 0 136 136 136 85 85 85 17 17 17 85 85 85 17 17 17 0 0 0 51 51 51 187 187 187 119 119 119 136 136 136 170 170 170 221 221 221 0 0 0 221 221 221 255 255 255 221 221 221 136 136 136 221 221 221 221 221 221 17 17 17 68 68 68 17 17 17 170 170 170 221 221 221 17 17 17 153 153 153 255 255 255 221 221 221 136 136 136 221 221 221 221 221 221 34 34 34 68 68 68 17 17 17 170 170 170 221 221 221 34 34 34 85 85 85 255 255 255 221 221 221 136 136 136 221 221 221 221 221 221 51 51 51 68 68 68 17 17 17 170 170 170 221 221 221 34 34 34 221 221 221 255 255 255 221 221 221 136 136 136 221 221 221 221 221 221 68 68 68 68 68 68 17 17 17 170 170 170 221 221 221 51 51 51 85 85 85 255 255 255 221 221 221 136 136 136 221 221 221 221 221 221 85 85 85 68 68 68 17 17 17 170 170 170 221 221 221 51 51 51 221 221 221 255 255 255 221 221 221 136 136 136 221 221 221 221 221 221 102 102 102 68 68 68 17 17 17 170 170 170 153 153 153 255 255 255 255 255 255 17 17 17 204 204 204 0 0 0 221 221 221 255 255 255 221 221 221 17 17 17 204 204 204 17 17 17 153 153 153 255 255 255 221 221 221 17 17 17 204 204 204 34 34 34 85 85 85 255 255 255 221 221 221 17 17 17 204 204 204 
34 34 34 221 221 221 255 255 255 221 221 221 17 17 17 204 204 204 51 51 51 85 85 85 255 255 255 221 221 221 17 17 17 204 204 204 51 51 51 221 221 221 255 255 255 221 221 221 85 85 85 136 136 136 102 102 102 0 0 0 119 119 119 136 136 136 170 170 170 221 221 221 221 221 221 17 17 17 68 68 68 17 17 17 136 136 136 221 221 221 0 0 0 221 221 221 255 255 255 221 221 221 170 170 170 221 221 221 221 221 221 34 34 34 68 68 68 17 17 17 136 136 136 221 221 221 17 17 17 153 153 153 255 255 255 221 221 221 170 170 170 221 221 221 221 221 221 51 51 51 68 68 68 17 17 17 136 136 136 221 221 221 34 34 34 85 85 85 255 255 255 221 221 221 170 170 170 221 221 221 221 221 221 68 68 68 68 68 68 17 17 17 136 136 136 221 221 221 34 34 34 221 221 221 255 255 255 221 221 221 170 170 170 221 221 221 221 221 221 85 85 85 68 68 68 17 17 17 136 136 136 221 221 221 51 51 51 85 85 85 255 255 255 221 221 221 170 170 170 221 221 221 221 221 221 102 102 102 68 68 68 17 17 17 136 136 136 221 221 221 51 51 51 221 221 221 255 255 255 221 221 221 85 85 85 136 136 136 102 102 102 0 0 0 0 0 0 136 136 136 85 85 85 136 136 136 34 34 34 204 204 204 170 170 170 136 136 136 102 102 102 255 255 255 17 17 17 0 0 0 51 51 51 204 204 204 68 68 68 136 136 136 238 238 238 102 102 102 0 0 0 221 221 221 221 221 221 0 0 0 0 0 0 34 34 34 238 238 238 102 102 102 0 0 0 238 238 238 255 255 255 136 136 136 34 34 34 204 204 204 170 170 170 136 136 136 102 102 102 255 255 255 85 85 85 0 0 0 17 17 17 17 17 17 17 17 17 136 136 136 170 170 170 153 153 153 0 0 0 17 17 17 102 102 102 85 85 85 0 0 0 153 153 153 204 204 204 153 153 153 102 102 102 0 0 0 153 153 153 0 0 0 0 0 0 68 68 68 102 102 102 153 153 153 68 68 68 0 0 0 
238 238 238 102 102 102 0 0 0 170 170 170 136 136 136 85 85 85 0 0 0 153 153 153 136 136 136 0 0 0 17 17 17 170 170 170 51 51 51 136 136 136 170 170 170 85 85 85 0 0 0 187 187 187 221 221 221 0 0 0 0 0 0 187 187 187 204 204 204 85 85 85 0 0 0 204 204 204 221 221 221 0 0 0 0 0 0 119 119 119 170 170 170 153 153 153 136 136 136 0 0 0 17 17 17 204 204 204 170 170 170 136 136 136 102 102 102 255 255 255 136 136 136 0 0 0 0 0 0 170 170 170 238 238 238 153 153 153 0 0 0 17 17 17 187 187 187 0 0 0 0 0 0 68 68 68 170 170 170 153 153 153 85 85 85 153 153 153 204 204 204 102 102 102 0 0 0 204 204 204 136 136 136 85 85 85 0 0 0 187 187 187 102 102 102 136 136 136 238 238 238 238 238 238 119 119 119 136 136 136 68 68 68 34 34 34 34 34 34 136 136 136 102 102 102 0 0 0 102 102 102 68 68 68 17 17 17 119 119 119 170 170 170 221 221 221 170 170 170 51 51 51 68 68 68 34 34 34 221 221 221 0 0 0 0 0 0 102 102 102 170 170 170 34 34 34 68 68 68 17 17 17 170 170 170 0 0 0 68 68 68 204 204 204 136 136 136 0 0 0 0 0 0 68 68 68 170 170 170 34 34 34 119 119 119 85 85 85 170 170 170 0 0 0 68 68 68 204 204 204 136 136 136 102 102 102 34 34 34 0 0 0 136 136 136 68 68 68 34 34 34 17 17 17 170 170 170 34 34 34 255 255 255 255 255 255 238 238 238 136 136 136 187 187 187 221 221 221 51 51 51 85 85 85 68 68 68 204 204 204 51 51 51 0 0 0 68 68 68 85 85 85 170 170 170 221 221 221 170 170 170 51 51 51 68 68 68 34 34 34 221 221 221 0 0 0 34 34 34 17 17 17 187 187 187 221 221 221 51 51 51 153 153 153 68 68 68 204 204 204 17 17 17 0 0 0 255 255 255 187 187 187 221 221 221 170 170 170 187 187 187 204 204 204 68 68 68 221 221 221 
102 102 102 153 153 153 187 187 187 17 17 17 34 34 34 0 0 0 34 34 34 153 153 153 204 204 204 0 0 0 255 255 255 0 0 0 0 0 0 102 102 102 204 204 204 85 85 85 17 17 17 119 119 119 153 153 153 0 0 0 0 0 0 34 34 34 136 136 136 85 85 85 17 17 17 119 119 119 187 187 187 221 221 221 51 51 51 221 221 221 68 68 68 204 204 204 34 34 34 0 0 0 17 17 17 0 0 0 85 85 85 34 34 34 255 255 255 170 170 170 153 153 153 238 238 238 51 51 51 153 153 153 68 68 68 204 204 204 136 136 136 0 0 0 17 17 17 255 255 255 187 187 187 221 221 221 102 102 102 221 221 221 68 68 68 204 204 204 17 17 17 0 0 0 255 255 255 187 187 187 221 221 221 170 170 170 187 187 187 204 204 204 68 68 68 221 221 221 102 102 102 153 153 153 187 187 187 17 17 17 34 34 34 0 0 0 0 0 0 0 0 0 204 204 204 0 0 0 255 255 255 0 0 0 0 0 0 102 102 102 204 204 204 85 85 85 17 17 17 119 119 119 153 153 153 0 0 0 0 0 0 34 34 34 136 136 136 85 85 85 17 17 17 119 119 119 187 187 187 221 221 221 119 119 119 17 17 17 68 68 68 204 204 204 34 34 34 0 0 0 17 17 17 0 0 0 85 85 85 34 34 34 255 255 255 170 170 170 153 153 153 238 238 238 102 102 102 221 221 221 68 68 68 204 204 204 238 238 238 68 68 68 17 17 17 255 255 255 221 221 221 0 0 0 187 187 187 17 17 17 170 170 170 221 221 221 170 170 170 51 51 51 68 68 68 34 34 34 68 68 68 153 153 153 255 255 255 255 255 255 136 136 136 221 221 221 170 170 170 51 51 51 68 68 68 34 34 34 102 102 102 0 0 0 102 102 102 204 204 204 153 153 153 153 153 153 102 102 102 255 255 255 102 102 102 204 204 204 153 153 153 221 221 221 102 102 102 255 255 255 170 170 170 153 153 153 170 170 170 102 102 102 136 136 136 85 85 85 0 0 0 0 0 0 170 170 170 153 153 153 
68 68 68 34 34 34 136 136 136 85 85 85 0 0 0 17 17 17 170 170 170 153 153 153 0 0 0 0 0 0 153 153 153 34 34 34 0 0 0 0 0 0 238 238 238 102 102 102 0 0 0 0 0 0 221 221 221 0 0 0 0 0 0 0 0 0 238 238 238 102 102 102 0 0 0 17 17 17 170 170 170 85 85 85 0 0 0 0 0 0 204 204 204 153 153 153 153 153 153 204 204 204 170 170 170 85 85 85 0 0 0 17 17 17 238 238 238 153 153 153 68 68 68 170 170 170 153 153 153 0 0 0 238 238 238 204 204 204 170 170 170 153 153 153 170 170 170 102 102 102 170 170 170 34 34 34 68 68 68 34 34 34 136 136 136 85 85 85 0 0 0 0 0 0 136 136 136 102 102 102 0 0 0 17 17 17 170 170 170 0 0 0 17 17 17 85 85 85 170 170 170 34 34 34 102 102 102 17 17 17 153 153 153 136 136 136 153 153 153 34 34 34 0 0 0 0 0 0 17 17 17 136 136 136 102 102 102 85 85 85 0 0 0 0 0 0 136 136 136 85 85 85 0 0 0 0 0 0 170 170 170 153 153 153 0 0 0 0 0 0 102 102 102 85 85 85 0 0 0 17 17 17 136 136 136 85 85 85 0 0 0 17 17 17 204 204 204 170 170 170 221 221 221 0 0 0 238 238 238 255 255 255 170 170 170 153 153 153 0 0 0 0 0 0 153 153 153 34 34 34 0 0 0 0 0 0 102 102 102 0 0 0 68 68 68 136 136 136 85 85 85 170 170 170 136 136 136 238 238 238 255 255 255 85 85 85 85 85 85 238 238 238 136 136 136 204 204 204 85 85 85 34 34 34 255 255 255 204 204 204 153 153 153 204 204 204 85 85 85 51 51 51 255 255 255 204 204 204 0 0 0 170 170 170 170 170 170 136 136 136 170 170 170 221 221 221 170 170 170 170 170 170 102 102 102 255 255 255 136 136 136 85 85 85 0 0 0 0 0 0 170 170 170 221 221 221 170 170 170 187 187 187 102 102 102 255 255 255 136 136 136 85 85 85 0 0 0 17 17 17 
187 187 187 17 17 17 0 0 0 0 0 0 170 170 170 170 170 170 204 204 204 136 136 136 187 187 187 17 17 17 0 0 0 0 0 0 136 136 136 85 85 85 0 0 0 17 17 17 136 136 136 102 102 102 0 0 0 0 0 0 170 170 170 153 153 153 187 187 187 221 221 221 136 136 136 221 221 221 85 85 85 68 68 68 255 255 255 204 204 204 153 153 153 204 204 204 85 85 85 85 85 85 255 255 255 204 204 204 34 34 34 0 0 0 85 85 85 119 119 119 85 85 85 0 0 0 17 17 17 136 136 136 170 170 170 221 221 221 102 102 102 0 0 0 255 255 255 204 204 204 102 102 102 153 153 153 170 170 170 102 102 102 136 136 136 221 221 221 255 255 255 17 17 17 85 85 85 238 238 238 170 170 170 221 221 221 102 102 102 17 17 17 255 255 255 204 204 204 102 102 102 153 153 153 68 68 68 34 34 34 136 136 136 221 221 221 255 255 255 34 34 34 85 85 85 238 238 238 17 17 17 136 136 136 170 170 170 221 221 221 255 255 255 17 17 17 85 85 85 238 238 238 102 102 102 221 221 221 255 255 255 85 85 85 85 85 85 238 238 238 136 136 136 221 221 221 255 255 255 17 17 17 85 85 85 238 238 238 136 136 136 85 85 85 0 0 0 34 34 34 170 170 170 221 221 221 255 255 255 34 34 34 85 85 85 238 238 238 102 102 102 153 153 153 0 0 0 0 0 0 136 136 136 221 221 221 255 255 255 34 34 34 85 85 85 238 238 238 136 136 136 85 85 85 0 0 0 51 51 51 170 170 170 153 153 153 17 17 17 85 85 85 136 136 136 221 221 221 255 255 255 51 51 51 85 85 85 238 238 238 153 153 153 204 204 204 255 255 255 68 68 68 85 85 85 238 238 238 34 34 34 0 0 0 0 0 0 153 153 153 85 85 85 255 255 255 170 170 170 221 221 221 255 255 255 85 85 85 85 85 85 238 238 238 51 51 51 136 136 136 238 238 238 221 221 221 255 255 255 68 68 68 85 85 85 238 238 238 170 170 170 170 170 170 119 119 119 170 170 170 
204 204 204 136 136 136 102 102 102 136 136 136 17 17 17 170 170 170 102 102 102 0 0 0 170 170 170 221 221 221 119 119 119 153 153 153 68 68 68 34 34 34 255 255 255 0 0 0 0 0 0 136 136 136 204 204 204 238 238 238 119 119 119 153 153 153 68 68 68 34 34 34 221 221 221 0 0 0 0 0 0 51 51 51 238 238 238 238 238 238 119 119 119 136 136 136 68 68 68 34 34 34 102 102 102 0 0 0 153 153 153 204 204 204 119 119 119 153 153 153 68 68 68 34 34 34 170 170 170 0 0 0 17 17 17 34 34 34 170 170 170 153 153 153 0 0 0 17 17 17 153 153 153 153 153 153 102 102 102 68 68 68 68 68 68 34 34 34 136 136 136 136 136 136 17 17 17 0 0 0 255 255 255 170 170 170 136 136 136 0 0 0 85 85 85 34 34 34 170 170 170 153 153 153 102 102 102 68 68 68 136 136 136 85 85 85 0 0 0 255 255 255 170 170 170 153 153 153 68 68 68 34 34 34 136 136 136 85 85 85 17 17 17 0 0 0 170 170 170 0 0 0 0 0 0 0 0 0 34 34 34 204 204 204 170 170 170 136 136 136 102 102 102 255 255 255 119 119 119 136 136 136 119 119 119 0 0 0 0 0 0 119 119 119 170 170 170 85 85 85 0 0 0 187 187 187 68 68 68 136 136 136 170 170 170 85 85 85 0 0 0 204 204 204 136 136 136 0 0 0 0 0 0 85 85 85 170 170 170 85 85 85 0 0 0 153 153 153 68 68 68 136 136 136 170 170 170 85 85 85 0 0 0 170 170 170 85 85 85 136 136 136 170 170 170 34 34 34 0 0 0 17 17 17 34 34 34 0 0 0 68 68 68 204 204 204 85 85 85 51 51 51 170 170 170 153 153 153 34 34 34 238 238 238 153 153 153 17 17 17 0 0 0 255 255 255 204 204 204 136 136 136 102 102 102 136 136 136 34 34 34 0 0 0 68 68 68 119 119 119 85 85 85 51 51 51 170 170 170 153 153 153 136 136 136 85 85 85 136 136 136 85 85 85 0 0 0 136 136 136 
170 170 170 0 0 0 17 17 17 34 34 34 170 170 170 85 85 85 17 17 17 17 17 17 170 170 170 102 102 102 17 17 17 34 34 34 34 34 34 0 0 0 102 102 102 51 51 51 85 85 85 51 51 51 170 170 170 0 0 0 0 0 0 204 204 204 170 170 170 221 221 221 119 119 119 153 153 153 68 68 68 34 34 34 255 255 255 0 0 0 0 0 0 153 153 153 170 170 170 85 85 85 17 17 17 51 51 51 170 170 170 102 102 102 17 17 17 68 68 68 34 34 34 0 0 0 102 102 102 51 51 51 85 85 85 51 51 51 136 136 136 0 0 0 0 0 0 170 170 170 170 170 170 153 153 153 0 0 0 17 17 17 170 170 170 34 34 34 0 0 0 85 85 85 153 153 153 17 17 17 0 0 0 255 255 255 136 136 136 136 136 136 204 204 204 170 170 170 221 221 221 0 0 0 255 255 255 170 170 170 170 170 170 153 153 153 102 102 102 68 68 68 136 136 136 85 85 85 0 0 0 0 0 0 170 170 170 153 153 153 68 68 68 34 34 34 136 136 136 85 85 85 0 0 0 17 17 17 170 170 170 153 153 153 221 221 221 119 119 119 136 136 136 221 221 221 255 255 255 17 17 17 85 85 85 238 238 238 170 170 170 153 153 153 68 68 68 17 17 17 136 136 136 221 221 221 255 255 255 34 34 34 85 85 85 238 238 238 34 34 34 0 0 0 255 255 255 102 102 102 85 85 85 238 238 238 153 153 153 204 204 204 119 119 119 136 136 136 68 68 68 34 34 34 102 102 102 0 0 0 68 68 68 136 136 136 34 34 34 0 0 0 85 85 85 0 0 0 85 85 85 51 51 51 102 102 102 136 136 136 34 34 34 153 153 153 0 0 0 255 255 255 136 136 136 0 0 0 0 0 0 68 68 68 68 68 68 170 170 170 68 68 68 170 170 170 68 68 68 170 170 170 68 68 68 170 170 170 255 255 255 0 0 0 0 0 0 17 17 17 238 238 238 136 136 136 17 17 17 170 170 170 17 17 17 170 170 170 238 238 238 0 0 0 0 0 0 0 0 0 
221 221 221 0 0 0 0 0 0 34 34 34 170 170 170 153 153 153 0 0 0 17 17 17 153 153 153 17 17 17 0 0 0 255 255 255 204 204 204 136 136 136 102 102 102 0 0 0 136 136 136 68 68 68 0 0 0 102 102 102 102 102 102 68 68 68 0 0 0 119 119 119 170 170 170 0 0 0 0 0 0 17 17 17 136 136 136 204 204 204 85 85 85 51 51 51 255 255 255 204 204 204 170 170 170 68 68 68 0 0 0 102 102 102 68 68 68 136 136 136 136 136 136 221 221 221 102 102 102 0 0 0 255 255 255 204 204 204 136 136 136 238 238 238 102 102 102 17 17 17 255 255 255 204 204 204 170 170 170 153 153 153 0 0 0 170 170 170 136 136 136 221 221 221 85 85 85 102 102 102 255 255 255 204 204 204 153 153 153 204 204 204 85 85 85 119 119 119 255 255 255 204 204 204 153 153 153 204 204 204 102 102 102 34 34 34 255 255 255 204 204 204 153 153 153 204 204 204 102 102 102 51 51 51 255 255 255 204 204 204 34 34 34 204 204 204 153 153 153 34 34 34 255 255 255 204 204 204 51 51 51 0 0 0 255 255 255 187 187 187 170 170 170 153 153 153 0 0 0 170 170 170 136 136 136 221 221 221 85 85 85 68 68 68 255 255 255 204 204 204 153 153 153 204 204 204 85 85 85 85 85 85 255 255 255 204 204 204 34 34 34 204 204 204 153 153 153 34 34 34 255 255 255 204 204 204 51 51 51 0 0 0 255 255 255 187 187 187 102 102 102 136 136 136 51 51 51 136 136 136 238 238 238 221 221 221 102 102 102 0 0 0 255 255 255 204 204 204 17 17 17 136 136 136 102 102 102 153 153 153 0 0 0 34 34 34 34 34 34 68 68 68 0 0 0 136 136 136 51 51 51 0 0 0 0 0 0 68 68 68 68 68 68 136 136 136 204 204 204 136 136 136 136 136 136 0 0 0 0 0 0 51 51 51 153 153 153 17 17 17 0 0 0 255 255 255 136 136 136 136 136 136 238 238 238 102 102 102 0 0 0 119 119 119 17 17 17 136 136 136 
170 170 170 238 238 238 85 85 85 51 51 51 255 255 255 204 204 204 221 221 221 0 0 0 0 0 0 17 17 17 51 51 51 136 136 136 170 170 170 221 221 221 85 85 85 34 34 34 255 255 255 204 204 204 221 221 221 0 0 0 187 187 187 136 136 136 153 153 153 0 0 0 187 187 187 102 102 102 34 34 34 68 68 68 0 0 0 136 136 136 51 51 51 0 0 0 0 0 0 221 221 221 153 153 153 136 136 136 170 170 170 68 68 68 0 0 0 102 102 102 136 136 136 85 85 85 0 0 0 102 102 102 102 102 102 136 136 136 153 153 153 17 17 17 0 0 0 255 255 255 204 204 204 136 136 136 204 204 204 68 68 68 0 0 0 102 102 102 221 221 221 0 0 0 255 255 255 136 136 136 170 170 170 85 85 85 0 0 0 136 136 136 34 34 34 153 153 153 51 51 51 255 255 255 170 170 170 102 102 102 0 0 0 119 119 119 136 136 136 85 85 85 0 0 0 119 119 119 170 170 170 153 153 153 0 0 0 17 17 17 34 34 34 68 68 68 0 0 0 136 136 136 85 85 85 0 0 0 0 0 0 34 34 34 170 170 170 153 153 153 0 0 0 34 34 34 238 238 238 68 68 68 0 0 0 119 119 119 187 187 187 0 0 0 0 0 0 221 221 221 238 238 238 136 136 136 153 153 153 17 17 17 0 0 0 255 255 255 34 34 34 68 68 68 0 0 0 136 136 136 17 17 17 0 0 0 0 0 0 51 51 51 136 136 136 136 136 136 136 136 136 0 0 0 255 255 255 34 34 34 204 204 204 136 136 136 136 136 136 0 0 0 238 238 238 255 255 255 102 102 102 0 0 0 170 170 170 34 34 34 0 0 0 0 0 0 17 17 17 136 136 136 102 102 102 85 85 85 17 17 17 17 17 17 136 136 136 85 85 85 17 17 17 17 17 17 136 136 136 170 170 170 102 102 102 85 85 85 17 17 17 34 34 34 136 136 136 85 85 85 17 17 17 34 34 34 238 238 238 238 238 238 119 119 119 136 136 136 68 68 68 34 34 34 102 102 102 0 0 0 
170 170 170 34 34 34 0 0 0 0 0 0 170 170 170 0 0 0 0 0 0 170 170 170 136 136 136 204 204 204 119 119 119 153 153 153 68 68 68 34 34 34 136 136 136 85 85 85 17 17 17 51 51 51 136 136 136 102 102 102 17 17 17 68 68 68 238 238 238 238 238 238 119 119 119 136 136 136 68 68 68 34 34 34 102 102 102 0 0 0 0 0 0 136 136 136 119 119 119 136 136 136 136 136 136 85 85 85 0 0 0 153 153 153 136 136 136 85 85 85 0 0 0 187 187 187 136 136 136 102 102 102 0 0 0 170 170 170 136 136 136 102 102 102 0 0 0 204 204 204 170 170 170 153 153 153 136 136 136 0 0 0 0 0 0 204 204 204 170 170 170 136 136 136 102 102 102 255 255 255 34 34 34 136 136 136 238 238 238 238 238 238 119 119 119 136 136 136 68 68 68 34 34 34 102 102 102 0 0 0 170 170 170 153 153 153 0 0 0 0 0 0 187 187 187 170 170 170 153 153 153 221 221 221 0 0 0 0 0 0 0 0 0 17 17 17 204 204 204 170 170 170 221 221 221 0 0 0 255 255 255 170 170 170 153 153 153 221 221 221 0 0 0 0 0 0 0 0 0 17 17 17 102 102 102 0 0 0 0 0 0 0 0 0 0 0 0 0 0 0 0 0 0 0 0 0 0 0 0 0 0 0 0 0 0 0 0 0 0 0 0 0 0 0 0 0 0 0 0 0 119 119 119 204 204 204 204 204 204 102 102 102 204 204 204 102 102 102 204 204 204 102 102 102 204 204 204 102 102 102 204 204 204 102 102 102 119 119 119 204 204 204 255 255 255 238 238 238 17 17 17 136 136 136 17 17 17 136 136 136 17 17 17 136 136 136 119 119 119 136 136 136 51 51 51 136 136 136 17 17 17 136 136 136 255 255 255 238 238 238 51 51 51 0 0 0 17 17 17 136 136 136 0 0 0 204 204 204 0 0 0 102 102 102 204 204 204 102 102 102 119 119 119 204 204 204 119 119 119 204 204 204 204 204 204 102 102 102 0 0 0 102 102 102 0 0 0 204 204 204 
0 0 0 102 102 102 204 204 204 102 102 102 119 119 119 204 204 204 0 0 0 204 204 204 0 0 0 204 204 204 255 255 255 238 238 238 204 204 204 204 204 204 102 102 102 204 204 204 51 51 51 204 204 204 17 17 17 204 204 204 255 255 255 204 204 204 0 0 0 102 102 102 0 0 0 102 102 102 255 255 255 204 204 204 204 204 204 0 0 0 204 204 204 0 0 0 255 255 255 204 204 204 119 119 119 204 204 204 204 204 204 102 102 102 204 204 204 102 102 102 255 255 255 204 204 204 204 204 204 0 0 0 204 204 204 0 0 0 119 119 119 204 204 204 204 204 204 0 0 0 102 102 102 0 0 0 51 51 51 0 0 0 17 17 17 136 136 136 0 0 0 204 204 204 0 0 0 102 102 102 255 255 255 238 238 238 119 119 119 204 204 204 204 204 204 102 102 102 204 204 204 102 102 102 119 119 119 204 204 204 204 204 204 102 102 102 204 204 204 102 102 102 119 119 119 204 204 204 119 119 119 204 204 204 0 0 0 102 102 102 0 0 0 102 102 102 119 119 119 238 238 238 204 204 204 102 102 102 204 204 204 102 102 102 119 119 119 204 204 204 204 204 204 102 102 102 204 204 204 102 102 102 204 204 204 102 102 102 255 255 255 238 238 238 204 204 204 102 102 102 102 102 102 204 204 204 51 51 51 136 136 136 255 255 255 204 204 204 204 204 204 102 102 102 204 204 204 102 102 102 255 255 255 204 204 204 204 204 204 102 102 102 204 204 204 102 102 102 255 255 255 204 204 204 119 119 119 204 204 204 204 204 204 102 102 102 204 204 204 0 0 0 204 204 204 0 0 0 204 204 204 0 0 0 204 204 204 102 102 102 119 119 119 204 204 204 255 255 255 204 204 204 204 204 204 102 102 102 204 204 204 102 102 102 204 204 204 102 102 102 204 204 204 102 102 102 204 204 204 102 102 102 255 255 255 204 204 204 255 255 255 238 238 238 204 204 204 0 0 0 204 204 204 0 0 0 255 255 255 136 136 136 204 204 204 0 0 0 204 204 204 0 0 0 255 255 255 238 238 238 
204 204 204 0 0 0 204 204 204 0 0 0 204 204 204 0 0 0 255 255 255 136 136 136 204 204 204 0 0 0 204 204 204 0 0 0 255 255 255 238 238 238 119 119 119 238 238 238 204 204 204 102 102 102 204 204 204 102 102 102 204 204 204 238 238 238 204 204 204 0 0 0 204 204 204 102 102 102 119 119 119 204 204 204 204 204 204 102 102 102 204 204 204 102 102 102 204 204 204 102 102 102 255 255 255 238 238 238 204 204 204 102 102 102 204 204 204 102 102 102 204 204 204 102 102 102 119 119 119 238 238 238 17 17 17 136 136 136 17 17 17 136 136 136 17 17 17 136 136 136 17 17 17 136 136 136 17 17 17 136 136 136 119 119 119 238 238 238 119 119 119 204 204 204 204 204 204 102 102 102 0 0 0 102 102 102 0 0 0 102 102 102 0 0 0 102 102 102 0 0 0 102 102 102 119 119 119 238 238 238 204 204 204 102 102 102 204 204 204 204 204 204 221 221 221 136 136 136 255 255 255 0 0 0 221 221 221 136 136 136 204 204 204 204 204 204 204 204 204 102 102 102 255 255 255 238 238 238 204 204 204 0 0 0 204 204 204 0 0 0 204 204 204 0 0 0 204 204 204 0 0 0 204 204 204 0 0 0 204 204 204 0 0 0 204 204 204 102 102 102 204 204 204 102 102 102 204 204 204 102 102 102 221 221 221 102 102 102 255 255 255 238 238 238 238 238 238 238 238 238 204 204 204 102 102 102 204 204 204 102 102 102 204 204 204 102 102 102 204 204 204 238 238 238 221 221 221 238 238 238 255 255 255 102 102 102 238 238 238 102 102 102 204 204 204 102 102 102 119 119 119 204 204 204 204 204 204 102 102 102 204 204 204 102 102 102 204 204 204 102 102 102 204 204 204 102 102 102 204 204 204 102 102 102 119 119 119 204 204 204 204 204 204 0 0 0 204 204 204 0 0 0 204 204 204 0 0 0 255 255 255 204 204 204 204 204 204 102 102 102 204 204 204 102 102 102 255 255 255 204 204 204 119 119 119 170 170 170 204 204 204 238 238 238 221 221 221 102 102 102 
204 204 204 102 102 102 204 204 204 102 102 102 204 204 204 102 102 102 119 119 119 204 204 204 204 204 204 102 102 102 204 204 204 204 204 204 221 221 221 136 136 136 255 255 255 204 204 204 204 204 204 102 102 102 204 204 204 102 102 102 255 255 255 204 204 204 119 119 119 204 204 204 204 204 204 102 102 102 0 0 0 102 102 102 119 119 119 204 204 204 204 204 204 0 0 0 204 204 204 102 102 102 119 119 119 204 204 204 17 17 17 136 136 136 17 17 17 136 136 136 17 17 17 136 136 136 17 17 17 136 136 136 17 17 17 136 136 136 17 17 17 136 136 136 119 119 119 238 238 238 119 119 119 204 204 204 204 204 204 102 102 102 204 204 204 102 102 102 204 204 204 102 102 102 204 204 204 102 102 102 204 204 204 102 102 102 204 204 204 102 102 102 51 51 51 136 136 136 51 51 51 136 136 136 102 102 102 204 204 204 102 102 102 204 204 204 102 102 102 204 204 204 204 204 204 102 102 102 204 204 204 102 102 102 102 102 102 204 204 204 221 221 221 102 102 102 221 221 221 102 102 102 221 221 221 102 102 102 204 204 204 102 102 102 204 204 204 102 102 102 204 204 204 102 102 102 204 204 204 102 102 102 204 204 204 102 102 102 102 102 102 204 204 204 51 51 51 136 136 136 102 102 102 204 204 204 204 204 204 102 102 102 204 204 204 102 102 102 17 17 17 136 136 136 17 17 17 136 136 136 17 17 17 136 136 136 17 17 17 136 136 136 51 51 51 204 204 204 102 102 102 102 102 102 102 102 102 102 102 102 255 255 255 238 238 238 204 204 204 0 0 0 102 102 102 0 0 0 51 51 51 0 0 0 17 17 17 136 136 136 0 0 0 204 204 204 255 255 255 238 238 238 17 17 17 136 136 136 0 0 0 0 0 0 17 17 17 136 136 136 51 51 51 204 204 204 51 51 51 204 204 204 51 51 51 204 204 204 17 17 17 136 136 136 0 0 0 0 0 0 0 0 0 0 0 0 0 0 0 0 0 0 0 0 0 0 0 0 102 102 102 102 102 102 102 102 102 102 102 102 
102 102 102 102 102 102 0 0 0 0 0 0 0 0 0 0 0 0 0 0 0 0 0 0 0 0 0 0 0 0 51 51 51 0 0 0 17 17 17 136 136 136 17 17 17 136 136 136 0 0 0 204 204 204 17 17 17 136 136 136 51 51 51 0 0 0 102 102 102 0 0 0 51 51 51 0 0 0 17 17 17 136 136 136 0 0 0 204 204 204 51 51 51 0 0 0 17 17 17 136 136 136 0 0 0 204 204 204 0 0 0 102 102 102 0 0 0 204 204 204 17 17 17 136 136 136 51 51 51 0 0 0 51 51 51 0 0 0 17 17 17 136 136 136 17 17 17 136 136 136 0 0 0 0 0 0 0 0 0 0 0 0 0 0 0 0 0 0 0 0 0 0 0 0 0 0 0 0 0 0 0 0 0 0 0 0 0 0 0 0 0 0 51 51 51 204 204 204 0 0 0 0 0 0 0 0 0 0 0 0 0 0 0 0 0 0 17 17 17 136 136 136 17 17 17 136 136 136 0 0 0 0 0 0 0 0 0 0 0 0 0 0 0 0 0 0 0 0 0 0 0 0 0 0 0 0 0 0 0 0 0 0 0 0 17 17 17 136 136 136 17 17 17 136 136 136 0 0 0 0 0 0 17 17 17 136 136 136 17 17 17 136 136 136 0 0 0 0 0 0 51 51 51 0 0 0 17 17 17 136 136 136 17 17 17 136 136 136 0 0 0 0 0 0 17 17 17 136 136 136 17 17 17 136 136 136 0 0 0 0 0 0 17 17 17 136 136 136 0 0 0 0 0 0 17 17 17 136 136 136 0 0 0 204 204 204 0 0 0 102 102 102 204 204 204 102 102 102 119 119 119 204 204 204 170 170 170 85 85 85 85 85 85 170 170 170 170 170 170 85 85 85 85 85 85 170 170 170 170 170 170 85 85 85 85 85 85 170 170 170 170 170 170 85 85 85 68 68 68 136 136 136 221 221 221 170 170 170 187 187 187 170 170 170 238 238 238 136 136 136 238 238 238 136 136 136 238 238 238 136 136 136 187 187 187 221 221 221 0 0 0 0 0 0 0 0 0 17 17 17 
34 34 34 153 153 153 17 17 17 0 0 0 255 255 255 0 0 0 0 0 0 85 85 85 255 255 255 170 170 170 102 102 102 136 136 136 68 68 68 204 204 204 153 153 153 17 17 17 85 85 85 85 85 85 170 170 170 221 221 221 136 136 136 17 17 17 255 255 255 221 221 221 136 136 136 221 221 221 136 136 136 0 0 0 255 255 255 221 221 221 170 170 170 34 34 34 0 0 0 0 0 0 136 136 136 153 153 153 0 0 0 17 17 17 255 255 255 0 0 0 0 0 0 51 51 51 34 34 34 0 0 0 170 170 170 221 221 221 85 85 85 85 85 85 68 68 68 170 170 170 238 238 238 136 136 136 238 238 238 136 136 136 238 238 238 0 0 0 0 0 0 238 238 238 153 153 153 0 0 0 255 255 255 34 34 34 255 255 255 170 170 170 102 102 102 136 136 136 68 68 68 0 0 0 119 119 119 204 204 204 255 255 255 0 0 0 255 255 255 187 187 187 0 0 0 0 0 0 170 170 170 221 221 221 255 255 255 68 68 68 255 255 255 187 187 187 136 136 136 221 221 221 34 34 34 85 85 85 85 85 85 102 102 102 170 170 170 221 221 221 255 255 255 85 85 85 255 255 255 187 187 187 136 136 136 221 221 221 34 34 34 102 102 102 85 85 85 102 102 102 0 0 0 136 136 136 119 119 119 136 136 136 170 170 170 153 153 153 204 204 204 187 187 187 136 136 136 221 221 221 255 255 255 68 68 68 255 255 255 187 187 187 170 170 170 153 153 153 85 85 85 85 85 85 136 136 136 221 221 221 255 255 255 85 85 85 255 255 255 187 187 187 34 34 34 136 136 136 102 102 102 0 0 0 68 68 68 136 136 136 221 221 221 170 170 170 85 85 85 170 170 170 238 238 238 238 238 238 204 204 204 136 136 136 68 68 68 170 170 170 17 17 17 0 0 0 17 17 17 255 255 255 153 153 153 204 204 204 204 204 204 136 136 136 68 68 68 170 170 170 238 238 238 238 238 238 204 204 204 153 153 153 68 68 68 170 170 170 17 17 17 0 0 0 17 17 17 119 119 119 
153 153 153 204 204 204 204 204 204 153 153 153 68 68 68 170 170 170 170 170 170 221 221 221 136 136 136 187 187 187 255 255 255 221 221 221 34 34 34 153 153 153 0 0 0 17 17 17 255 255 255 0 0 0 0 0 0 170 170 170 238 238 238 238 238 238 204 204 204 170 170 170 68 68 68 170 170 170 170 170 170 221 221 221 204 204 204 170 170 170 68 68 68 170 170 170 204 204 204 153 153 153 17 17 17 68 68 68 153 153 153 0 0 0 0 0 0 51 51 51 153 153 153 204 204 204 136 136 136 119 119 119 255 255 255 221 221 221 170 170 170 221 221 221 187 187 187 221 221 221 68 68 68 170 170 170 136 136 136 221 221 221 153 153 153 34 34 34 255 255 255 221 221 221 34 34 34 153 153 153 0 0 0 34 34 34 255 255 255 0 0 0 0 0 0 238 238 238 170 170 170 221 221 221 204 204 204 34 34 34 68 68 68 170 170 170 17 17 17 136 136 136 102 102 102 153 153 153 221 221 221 255 255 255 170 170 170 170 170 170 170 170 170 221 221 221 204 204 204 51 51 51 68 68 68 170 170 170 102 102 102 153 153 153 17 17 17 255 255 255 136 136 136 0 0 0 0 0 0 102 102 102 170 170 170 238 238 238 204 204 204 34 34 34 68 68 68 170 170 170 170 170 170 221 221 221 204 204 204 51 51 51 68 68 68 170 170 170 0 0 0 136 136 136 119 119 119 136 136 136 136 136 136 238 238 238 153 153 153 68 68 68 255 255 255 221 221 221 136 136 136 221 221 221 153 153 153 85 85 85 255 255 255 221 221 221 34 34 34 136 136 136 238 238 238 238 238 238 187 187 187 0 0 0 85 85 85 85 85 85 170 170 170 153 153 153 34 34 34 0 0 0 0 0 0 204 204 204 204 204 204 187 187 187 68 68 68 170 170 170 119 119 119 170 170 170 255 255 255 170 170 170 102 102 102 136 136 136 68 68 68 204 204 204 34 34 34 119 119 119 85 85 85 102 102 102 102 102 102 0 0 0 0 0 0 136 136 136 119 119 119 136 136 136 170 170 170 221 221 221 
34 34 34 204 204 204 85 85 85 153 153 153 170 170 170 204 204 204 34 34 34 221 221 221 85 85 85 153 153 153 0 0 0 153 153 153 153 153 153 136 136 136 136 136 136 221 221 221 17 17 17 153 153 153 255 255 255 221 221 221 136 136 136 204 204 204 17 17 17 136 136 136 255 255 255 221 221 221 34 34 34 136 136 136 0 0 0 136 136 136 119 119 119 136 136 136 170 170 170 34 34 34 0 0 0 51 51 51 153 153 153 238 238 238 204 204 204 204 204 204 68 68 68 170 170 170 153 153 153 238 238 238 102 102 102 85 85 85 68 68 68 187 187 187 204 204 204 170 170 170 17 17 17 0 0 0 255 255 255 119 119 119 153 153 153 204 204 204 34 34 34 85 85 85 255 255 255 221 221 221 153 153 153 204 204 204 34 34 34 221 221 221 255 255 255 221 221 221 153 153 153 204 204 204 51 51 51 85 85 85 255 255 255 221 221 221 153 153 153 204 204 204 51 51 51 221 221 221 255 255 255 221 221 221 153 153 153 204 204 204 34 34 34 119 119 119 85 85 85 153 153 153 34 34 34 136 136 136 102 102 102 0 0 0 0 0 0 136 136 136 119 119 119 136 136 136 136 136 136 85 85 85 34 34 34 102 102 102 136 136 136 102 102 102 34 34 34 119 119 119 34 34 34 0 0 0 221 221 221 102 102 102 85 85 85 102 102 102 187 187 187 0 0 0 0 0 0 85 85 85 170 170 170 34 34 34 0 0 0 68 68 68 34 34 34 136 136 136 51 51 51 136 136 136 102 102 102 0 0 0 153 153 153 221 221 221 204 204 204 204 204 204 68 68 68 170 170 170 170 170 170 85 85 85 34 34 34 102 102 102 153 153 153 221 221 221 85 85 85 221 221 221 68 68 68 187 187 187 170 170 170 85 85 85 34 34 34 119 119 119 153 153 153 221 221 221 102 102 102 17 17 17 68 68 68 187 187 187 136 136 136 170 170 170 17 17 17 136 136 136 102 102 102 153 153 153 51 51 51 136 136 136 170 170 170 170 170 170 153 153 153 238 238 238 221 221 221 17 17 17 
68 68 68 170 170 170 204 204 204 170 170 170 204 204 204 170 170 170 204 204 204 170 170 170 204 204 204 170 170 170 238 238 238 0 0 0 0 0 0 68 68 68 187 187 187 0 0 0 255 255 255 85 85 85 34 34 34 0 0 0 153 153 153 255 255 255 85 85 85 119 119 119 34 34 34 0 0 0 187 187 187 170 170 170 85 85 85 136 136 136 170 170 170 153 153 153 136 136 136 0 0 0 153 153 153 221 221 221 102 102 102 85 85 85 68 68 68 187 187 187 34 34 34 136 136 136 17 17 17 136 136 136 102 102 102 0 0 0 0 0 0 136 136 136 119 119 119 136 136 136 153 153 153 136 136 136 170 170 170 34 34 34 0 0 0 51 51 51 221 221 221 221 221 221 204 204 204 204 204 204 68 68 68 170 170 170 255 255 255 0 0 0 0 0 0 136 136 136 204 204 204 170 170 170 17 17 17 0 0 0 255 255 255 136 136 136 34 34 34 136 136 136 51 51 51 136 136 136 102 102 102 0 0 0 0 0 0 136 136 136 119 119 119 136 136 136 238 238 238 0 0 0 0 0 0 68 68 68 187 187 187 0 0 0 0 0 0 187 187 187 187 187 187 204 204 204 34 34 34 136 136 136 85 85 85 153 153 153 170 170 170 153 153 153 0 0 0 0 0 0 153 153 153 153 153 153 34 34 34 85 85 85 255 255 255 221 221 221 153 153 153 221 221 221 204 204 204 204 204 204 68 68 68 170 170 170 34 34 34 136 136 136 17 17 17 136 136 136 102 102 102 0 0 0 0 0 0 136 136 136 119 119 119 136 136 136 34 34 34 0 0 0 221 221 221 102 102 102 85 85 85 102 102 102 187 187 187 0 0 0 0 0 0 85 85 85 34 34 34 136 136 136 51 51 51 136 136 136 102 102 102 0 0 0 0 0 0 136 136 136 119 119 119 136 136 136 238 238 238 0 0 0 0 0 0 68 68 68 187 187 187 0 0 0 0 0 0 221 221 221 187 187 187 204 204 204 34 34 34 136 136 136 85 85 85 153 153 153 170 170 170 153 153 153 255 255 255 255 255 255 
153 153 153 221 221 221 204 204 204 204 204 204 68 68 68 170 170 170 170 170 170 153 153 153 0 0 0 0 0 0 153 153 153 153 153 153 34 34 34 85 85 85 255 255 255 221 221 221 34 34 34 136 136 136 17 17 17 136 136 136 102 102 102 0 0 0 136 136 136 204 204 204 68 68 68 136 136 136 68 68 68 187 187 187 170 170 170 34 34 34 0 0 0 51 51 51 170 170 170 0 0 0 0 0 0 34 34 34 187 187 187 221 221 221 204 204 204 204 204 204 68 68 68 170 170 170 221 221 221 153 153 153 204 204 204 204 204 204 68 68 68 170 170 170 153 153 153 0 0 0 0 0 0 34 34 34 153 153 153 136 136 136 170 170 170 170 170 170 136 136 136 136 136 136 17 17 17 0 0 0 255 255 255 51 51 51 170 170 170 221 221 221 68 68 68 136 136 136 68 68 68 187 187 187 221 221 221 221 221 221 204 204 204 204 204 204 68 68 68 170 170 170 102 102 102 0 0 0 170 170 170 34 34 34 0 0 0 51 51 51 187 187 187 221 221 221 204 204 204 204 204 204 68 68 68 170 170 170 221 221 221 0 0 0 0 0 0 51 51 51 68 68 68 204 204 204 51 51 51 136 136 136 85 85 85 119 119 119 187 187 187 204 204 204 34 34 34 136 136 136 85 85 85 153 153 153 187 187 187 221 221 221 238 238 238 221 221 221 68 68 68 170 170 170 153 153 153 153 153 153 34 34 34 0 0 0 255 255 255 221 221 221 187 187 187 221 221 221 68 68 68 221 221 221 68 68 68 187 187 187 153 153 153 153 153 153 34 34 34 68 68 68 255 255 255 221 221 221 187 187 187 221 221 221 85 85 85 17 17 17 68 68 68 187 187 187 153 153 153 153 153 153 34 34 34 17 17 17 255 255 255 221 221 221 187 187 187 221 221 221 17 17 17 17 17 17 68 68 68 187 187 187 34 34 34 153 153 153 0 0 0 68 68 68 221 221 221 0 0 0 0 0 0 85 85 85 17 17 17 238 238 238 68 68 68 17 17 17 68 68 68 187 187 187 153 153 153 0 0 0 
17 17 17 17 17 17 187 187 187 153 153 153 34 34 34 119 119 119 255 255 255 221 221 221 34 34 34 153 153 153 0 0 0 255 255 255 17 17 17 221 221 221 85 85 85 85 85 85 68 68 68 187 187 187 153 153 153 153 153 153 34 34 34 119 119 119 255 255 255 221 221 221 187 187 187 221 221 221 221 221 221 153 153 153 68 68 68 170 170 170 153 153 153 153 153 153 34 34 34 51 51 51 255 255 255 221 221 221 187 187 187 153 153 153 34 34 34 85 85 85 255 255 255 221 221 221 34 34 34 153 153 153 85 85 85 136 136 136 17 17 17 221 221 221 68 68 68 153 153 153 68 68 68 187 187 187 153 153 153 153 153 153 34 34 34 85 85 85 255 255 255 221 221 221 204 204 204 170 170 170 51 51 51 0 0 0 0 0 0 51 51 51 68 68 68 204 204 204 255 255 255 51 51 51 85 85 85 102 102 102 119 119 119 136 136 136 170 170 170 34 34 34 0 0 0 51 51 51 187 187 187 221 221 221 102 102 102 85 85 85 68 68 68 187 187 187 255 255 255 0 0 0 17 17 17 68 68 68 187 187 187 204 204 204 34 34 34 136 136 136 85 85 85 153 153 153 187 187 187 153 153 153 34 34 34 68 68 68 255 255 255 221 221 221 153 153 153 153 153 153 34 34 34 102 102 102 255 255 255 221 221 221 187 187 187 153 153 153 34 34 34 85 85 85 255 255 255 221 221 221 0 0 0 153 153 153 17 17 17 136 136 136 153 153 153 153 153 153 34 34 34 85 85 85 255 255 255 221 221 221 153 153 153 238 238 238 102 102 102 85 85 85 68 68 68 187 187 187 204 204 204 170 170 170 17 17 17 0 0 0 238 238 238 68 68 68 85 85 85 136 136 136 170 170 170 34 34 34 0 0 0 51 51 51 187 187 187 221 221 221 204 204 204 204 204 204 68 68 68 170 170 170 255 255 255 0 0 0 51 51 51 102 102 102 187 187 187 221 221 221 34 34 34 17 17 17 68 68 68 187 187 187 221 221 221 221 221 221 17 17 17 153 153 153 68 68 68 187 187 187 
221 221 221 0 0 0 0 0 0 221 221 221 187 187 187 221 221 221 34 34 34 85 85 85 68 68 68 187 187 187 221 221 221 221 221 221 17 17 17 221 221 221 68 68 68 187 187 187 221 221 221 0 0 0 0 0 0 85 85 85 34 34 34 0 0 0 153 153 153 255 255 255 85 85 85 119 119 119 136 136 136 0 0 0 17 17 17 238 238 238 221 221 221 170 170 170 17 17 17 136 136 136 187 187 187 221 221 221 255 255 255 17 17 17 68 68 68 170 170 170 119 119 119 221 221 221 221 221 221 17 17 17 68 68 68 170 170 170 153 153 153 221 221 221 221 221 221 17 17 17 68 68 68 170 170 170 187 187 187 221 221 221 255 255 255 85 85 85 68 68 68 170 170 170 119 119 119 221 221 221 221 221 221 85 85 85 68 68 68 170 170 170 153 153 153 221 221 221 221 221 221 85 85 85 68 68 68 170 170 170 136 136 136 170 170 170 17 17 17 136 136 136 102 102 102 153 153 153 0 0 0 136 136 136 170 170 170 170 170 170 238 238 238 0 0 0 17 17 17 204 204 204 153 153 153 0 0 0 238 238 238 68 68 68 255 255 255 170 170 170 34 34 34 0 0 0 187 187 187 170 170 170 85 85 85 136 136 136 204 204 204 170 170 170 17 17 17 0 0 0 204 204 204 34 34 34 102 102 102 0 0 0 187 187 187 221 221 221 85 85 85 221 221 221 68 68 68 187 187 187 136 136 136 85 85 85 34 34 34 102 102 102 187 187 187 221 221 221 102 102 102 17 17 17 68 68 68 187 187 187 136 136 136 85 85 85 34 34 34 119 119 119 170 170 170 0 0 0 0 0 0 0 0 0 187 187 187 17 17 17 34 34 34 102 102 102 153 153 153 221 221 221 34 34 34 17 17 17 68 68 68 187 187 187 204 204 204 136 136 136 187 187 187 17 17 17 34 34 34 102 102 102 153 153 153 221 221 221 34 34 34 85 85 85 68 68 68 187 187 187 204 204 204 136 136 136 187 187 187 17 17 17 34 34 34 102 102 102 153 153 153 221 221 221 17 17 17 17 17 17 
68 68 68 187 187 187 204 204 204 136 136 136 187 187 187 17 17 17 34 34 34 102 102 102 153 153 153 221 221 221 17 17 17 85 85 85 68 68 68 187 187 187 204 204 204 136 136 136 0 0 0 238 238 238 68 68 68 102 102 102 68 68 68 187 187 187 187 187 187 0 0 0 51 51 51 153 153 153 187 187 187 221 221 221 17 17 17 85 85 85 68 68 68 187 187 187 34 34 34 153 153 153 68 68 68 0 0 0 255 255 255 0 0 0 17 17 17 204 204 204 187 187 187 221 221 221 34 34 34 153 153 153 68 68 68 187 187 187 255 255 255 0 0 0 0 0 0 85 85 85 221 221 221 238 238 238 34 34 34 153 153 153 68 68 68 187 187 187 255 255 255 0 0 0 17 17 17 34 34 34 187 187 187 221 221 221 34 34 34 221 221 221 68 68 68 187 187 187 136 136 136 85 85 85 34 34 34 102 102 102 187 187 187 221 221 221 51 51 51 17 17 17 68 68 68 187 187 187 136 136 136 85 85 85 34 34 34 119 119 119 170 170 170 153 153 153 136 136 136 0 0 0 136 136 136 221 221 221 68 68 68 102 102 102 68 68 68 187 187 187 68 68 68 204 204 204 170 170 170 153 153 153 85 85 85 119 119 119 187 187 187 221 221 221 17 17 17 85 85 85 68 68 68 187 187 187 34 34 34 153 153 153 136 136 136 0 0 0 255 255 255 0 0 0 17 17 17 0 0 0 170 170 170 85 85 85 34 34 34 102 102 102 153 153 153 221 221 221 34 34 34 221 221 221 68 68 68 187 187 187 170 170 170 85 85 85 34 34 34 119 119 119 153 153 153 221 221 221 51 51 51 17 17 17 68 68 68 187 187 187 187 187 187 17 17 17 34 34 34 102 102 102 153 153 153 221 221 221 34 34 34 153 153 153 68 68 68 187 187 187 204 204 204 136 136 136 0 0 0 238 238 238 68 68 68 119 119 119 68 68 68 187 187 187 187 187 187 0 0 0 51 51 51 153 153 153 187 187 187 221 221 221 17 17 17 85 85 85 68 68 68 187 187 187 34 34 34 153 153 153 
17 17 17 0 0 0 255 255 255 0 0 0 17 17 17 204 204 204 187 187 187 221 221 221 51 51 51 85 85 85 68 68 68 187 187 187 255 255 255 0 0 0 0 0 0 85 85 85 221 221 221 238 238 238 51 51 51 85 85 85 68 68 68 187 187 187 255 255 255 0 0 0 17 17 17 34 34 34 187 187 187 221 221 221 51 51 51 153 153 153 68 68 68 187 187 187 136 136 136 85 85 85 34 34 34 102 102 102 187 187 187 221 221 221 51 51 51 221 221 221 68 68 68 187 187 187 136 136 136 85 85 85 34 34 34 119 119 119 170 170 170 153 153 153 136 136 136 0 0 0 136 136 136 221 221 221 68 68 68 119 119 119 68 68 68 187 187 187 68 68 68 204 204 204 170 170 170 153 153 153 85 85 85 119 119 119 187 187 187 221 221 221 17 17 17 85 85 85 68 68 68 187 187 187 34 34 34 153 153 153 34 34 34 0 0 0 255 255 255 0 0 0 17 17 17 0 0 0 170 170 170 85 85 85 34 34 34 102 102 102 153 153 153 221 221 221 51 51 51 153 153 153 68 68 68 187 187 187 170 170 170 85 85 85 34 34 34 119 119 119 153 153 153 221 221 221 51 51 51 221 221 221 68 68 68 187 187 187 187 187 187 17 17 17 34 34 34 102 102 102 153 153 153 221 221 221 51 51 51 85 85 85 68 68 68 187 187 187 204 204 204 136 136 136 221 221 221 170 170 170 187 187 187 221 221 221 17 17 17 85 85 85 68 68 68 187 187 187 136 136 136 221 221 221 68 68 68 85 85 85 68 68 68 187 187 187 187 187 187 221 221 221 17 17 17 17 17 17 68 68 68 187 187 187 170 170 170 34 34 34 0 0 0 51 51 51 0 0 0 170 170 170 34 34 34 238 238 238 68 68 68 85 85 85 68 68 68 187 187 187 204 204 204 170 170 170 17 17 17 0 0 0 255 255 255 153 153 153 255 255 255 170 170 170 221 221 221 170 170 170 0 0 0 238 238 238 68 68 68 85 85 85 68 68 68 187 187 187 153 153 153 0 0 0 0 0 0 204 204 204 
187 187 187 17 17 17 34 34 34 102 102 102 153 153 153 221 221 221 221 221 221 17 17 17 68 68 68 170 170 170 204 204 204 136 136 136 187 187 187 17 17 17 34 34 34 102 102 102 153 153 153 221 221 221 221 221 221 85 85 85 68 68 68 170 170 170 204 204 204 136 136 136 136 136 136 170 170 170 17 17 17 136 136 136 102 102 102 153 153 153 0 0 0 136 136 136 170 170 170 170 170 170 238 238 238 0 0 0 68 68 68 0 0 0 153 153 153 0 0 0 238 238 238 102 102 102 255 255 255 170 170 170 153 153 153 238 238 238 68 68 68 17 17 17 68 68 68 187 187 187 187 187 187 221 221 221 17 17 17 85 85 85 68 68 68 187 187 187 34 34 34 153 153 153 0 0 0 68 68 68 255 255 255 0 0 0 0 0 0 85 85 85 170 170 170 153 153 153 136 136 136 0 0 0 153 153 153 221 221 221 68 68 68 17 17 17 68 68 68 187 187 187 187 187 187 221 221 221 17 17 17 17 17 17 68 68 68 187 187 187 34 34 34 153 153 153 0 0 0 136 136 136 0 0 0 170 170 170 0 0 0 170 170 170 153 153 153 221 221 221 85 85 85 153 153 153 68 68 68 187 187 187 187 187 187 221 221 221 17 17 17 17 17 17 68 68 68 187 187 187 34 34 34 153 153 153 0 0 0 17 17 17 255 255 255 0 0 0 0 0 0 255 255 255 153 153 153 238 238 238 204 204 204 204 204 204 68 68 68 170 170 170 187 187 187 204 204 204 34 34 34 136 136 136 85 85 85 153 153 153 187 187 187 153 153 153 34 34 34 85 85 85 255 255 255 221 221 221 34 34 34 153 153 153 238 238 238 119 119 119 153 153 153 153 153 153 34 34 34 85 85 85 255 255 255 221 221 221 102 102 102 0 0 0 153 153 153 136 136 136 17 17 17 136 136 136 102 102 102 85 85 85 34 34 34 102 102 102 153 153 153 221 221 221 85 85 85 221 221 221 68 68 68 187 187 187 170 170 170 153 153 153 0 0 0 0 0 0 102 102 102 85 85 85 34 34 34 119 119 119 
153 153 153 221 221 221 102 102 102 17 17 17 68 68 68 187 187 187 187 187 187 17 17 17 34 34 34 102 102 102 153 153 153 221 221 221 17 17 17 153 153 153 68 68 68 187 187 187 204 204 204 136 136 136 187 187 187 17 17 17 34 34 34 102 102 102 153 153 153 221 221 221 17 17 17 221 221 221 68 68 68 187 187 187 102 102 102 0 0 0 170 170 170 0 0 0 0 0 0 102 102 102 187 187 187 221 221 221 221 221 221 17 17 17 68 68 68 170 170 170 153 153 153 221 221 221 85 85 85 17 17 17 68 68 68 187 187 187 187 187 187 221 221 221 221 221 221 85 85 85 68 68 68 170 170 170 51 51 51 0 0 0 0 0 0 187 187 187 17 17 17 238 238 238 85 85 85 17 17 17 68 68 68 187 187 187 34 34 34 170 170 170 51 51 51 0 0 0 0 0 0 68 68 68 136 136 136 136 136 136 221 221 221 0 0 0 255 255 255 119 119 119 204 204 204 136 136 136 136 136 136 136 136 136 153 153 153 221 221 221 68 68 68 221 221 221 68 68 68 187 187 187 153 153 153 136 136 136 153 153 153 221 221 221 68 68 68 153 153 153 68 68 68 187 187 187 187 187 187 221 221 221 221 221 221 221 221 221 68 68 68 170 170 170 0 0 0 170 170 170 0 0 0 170 170 170 0 0 0 170 170 170 0 0 0 170 170 170 153 153 153 221 221 221 85 85 85 85 85 85 68 68 68 187 187 187 187 187 187 221 221 221 238 238 238 17 17 17 68 68 68 170 170 170 153 153 153 221 221 221 85 85 85 17 17 17 68 68 68 187 187 187 187 187 187 221 221 221 238 238 238 85 85 85 68 68 68 170 170 170 17 17 17 238 238 238 85 85 85 17 17 17 68 68 68 187 187 187 34 34 34 170 170 170 17 17 17 238 238 238 85 85 85 17 17 17 68 68 68 187 187 187 34 34 34 170 170 170 17 17 17 238 238 238 85 85 85 17 17 17 68 68 68 187 187 187 34 34 34 170 170 170 17 17 17 238 238 238 85 85 85 17 17 17 68 68 68 187 187 187 
34 34 34 170 170 170 34 34 34 153 153 153 51 51 51 255 255 255 153 153 153 221 221 221 85 85 85 17 17 17 68 68 68 187 187 187 187 187 187 221 221 221 238 238 238 85 85 85 68 68 68 170 170 170 34 34 34 153 153 153 204 204 204 0 0 0 17 17 17 221 221 221 85 85 85 17 17 17 68 68 68 187 187 187 153 153 153 221 221 221 85 85 85 17 17 17 68 68 68 187 187 187 187 187 187 221 221 221 238 238 238 85 85 85 68 68 68 170 170 170 34 34 34 153 153 153 0 0 0 136 136 136 0 0 0 170 170 170 0 0 0 170 170 170 0 0 0 170 170 170 0 0 0 170 170 170 17 17 17 221 221 221 85 85 85 153 153 153 68 68 68 187 187 187 17 17 17 221 221 221 68 68 68 153 153 153 68 68 68 187 187 187 153 153 153 221 221 221 68 68 68 153 153 153 68 68 68 187 187 187 255 255 255 238 238 238 34 34 34 17 17 17 68 68 68 187 187 187 221 221 221 0 0 0 0 0 0 51 51 51 255 255 255 238 238 238 34 34 34 85 85 85 68 68 68 187 187 187 102 102 102 0 0 0 0 0 0 0 0 0 0 0 0 0 0 0 0 0 0 136 136 136 17 17 17 0 0 0 17 17 17 136 136 136 0 0 0 102 102 102 68 68 68 0 0 0 34 34 34 0 0 0 34 34 34 136 136 136 85 85 85 102 102 102 0 0 0 136 136 136 119 119 119 136 136 136 170 170 170 153 153 153 0 0 0 204 204 204 136 136 136 221 221 221 255 255 255 204 204 204 255 255 255 187 187 187 170 170 170 153 153 153 85 85 85 170 170 170 136 136 136 221 221 221 255 255 255 221 221 221 255 255 255 187 187 187 170 170 170 34 34 34 0 0 0 51 51 51 153 153 153 238 238 238 102 102 102 153 153 153 68 68 68 187 187 187 204 204 204 170 170 170 17 17 17 0 0 0 255 255 255 170 170 170 34 34 34 136 136 136 102 102 102 0 0 0 0 0 0 136 136 136 119 119 119 136 136 136 136 136 136 85 85 85 34 34 34 102 102 102 
136 136 136 102 102 102 34 34 34 119 119 119 17 17 17 136 136 136 102 102 102 153 153 153 0 0 0 153 153 153 136 136 136 85 85 85 34 34 34 204 204 204 153 153 153 0 0 0 0 0 0 17 17 17 238 238 238 136 136 136 136 136 136 102 102 102 34 34 34 221 221 221 170 170 170 153 153 153 0 0 0 0 0 0 170 170 170 0 0 0 0 0 0 119 119 119 153 153 153 17 17 17 34 34 34 102 102 102 136 136 136 136 136 136 17 17 17 0 0 0 255 255 255 187 187 187 170 170 170 0 0 0 0 0 0 136 136 136 187 187 187 17 17 17 34 34 34 102 102 102 204 204 204 153 153 153 0 0 0 85 85 85 153 153 153 0 0 0 0 0 0 34 34 34 170 170 170 153 153 153 0 0 0 68 68 68 0 0 0 170 170 170 51 51 51 170 170 170 170 170 170 136 136 136 187 187 187 17 17 17 34 34 34 204 204 204 153 153 153 17 17 17 34 34 34 102 102 102 136 136 136 136 136 136 17 17 17 0 0 0 255 255 255 153 153 153 170 170 170 85 85 85 34 34 34 102 102 102 170 170 170 102 102 102 34 34 34 119 119 119 136 136 136 0 0 0 0 0 0 34 34 34 0 0 0 136 136 136 119 119 119 136 136 136 136 136 136 85 85 85 34 34 34 102 102 102 136 136 136 221 221 221 255 255 255 187 187 187 68 68 68 187 187 187 136 136 136 102 102 102 34 34 34 119 119 119 136 136 136 238 238 238 255 255 255 204 204 204 68 68 68 187 187 187 17 17 17 136 136 136 102 102 102 153 153 153 0 0 0 153 153 153 136 136 136 85 85 85 34 34 34 204 204 204 136 136 136 170 170 170 102 102 102 153 153 153 0 0 0 0 0 0 136 136 136 85 85 85 34 34 34 221 221 221 153 153 153 204 204 204 119 119 119 17 17 17 68 68 68 187 187 187 170 170 170 34 34 34 0 0 0 51 51 51 170 170 170 0 0 0 0 0 0 0 0 0 153 153 153 238 238 238 102 102 102 153 153 153 68 68 68 187 187 187 187 187 187 17 17 17 
34 34 34 102 102 102 204 204 204 136 136 136 153 153 153 221 221 221 170 170 170 34 34 34 68 68 68 187 187 187 187 187 187 17 17 17 34 34 34 102 102 102 204 204 204 136 136 136 153 153 153 221 221 221 170 170 170 102 102 102 68 68 68 187 187 187 17 17 17 221 221 221 170 170 170 34 34 34 68 68 68 187 187 187 255 255 255 0 0 0 0 0 0 51 51 51 34 34 34 0 0 0 187 187 187 136 136 136 85 85 85 153 153 153 204 204 204 170 170 170 17 17 17 0 0 0 238 238 238 102 102 102 170 170 170 238 238 238 119 119 119 17 17 17 68 68 68 187 187 187 204 204 204 170 170 170 34 34 34 136 136 136 17 17 17 136 136 136 102 102 102 0 0 0 17 17 17 136 136 136 170 170 170 221 221 221 255 255 255 187 187 187 68 68 68 187 187 187 119 119 119 221 221 221 170 170 170 34 34 34 68 68 68 187 187 187 153 153 153 221 221 221 170 170 170 34 34 34 68 68 68 187 187 187 170 170 170 221 221 221 255 255 255 204 204 204 68 68 68 187 187 187 119 119 119 221 221 221 170 170 170 102 102 102 68 68 68 187 187 187 153 153 153 221 221 221 170 170 170 102 102 102 68 68 68 187 187 187 255 255 255 238 238 238 102 102 102 153 153 153 68 68 68 187 187 187 153 153 153 238 238 238 187 187 187 34 34 34 68 68 68 187 187 187 153 153 153 238 238 238 187 187 187 102 102 102 68 68 68 187 187 187 170 170 170 153 153 153 255 255 255 255 255 255 153 153 153 221 221 221 170 170 170 170 170 170 68 68 68 187 187 187 153 153 153 221 221 221 170 170 170 238 238 238 68 68 68 187 187 187 170 170 170 221 221 221 119 119 119 17 17 17 68 68 68 187 187 187 153 153 153 221 221 221 119 119 119 34 34 34 68 68 68 187 187 187 238 238 238 238 238 238 119 119 119 17 17 17 68 68 68 187 187 187 153 153 153 238 238 238 238 238 238 51 51 51 68 68 68 187 187 187 153 153 153 238 238 238 238 238 238 255 255 255 68 68 68 187 187 187 
102 102 102 0 0 0 0 0 0 136 136 136 119 119 119 136 136 136 170 170 170 34 34 34 0 0 0 51 51 51 187 187 187 221 221 221 102 102 102 153 153 153 68 68 68 187 187 187 255 255 255 0 0 0 0 0 0 85 85 85 221 221 221 170 170 170 34 34 34 0 0 0 255 255 255 255 255 255 85 85 85 153 153 153 255 255 255 170 170 170 204 204 204 170 170 170 17 17 17 0 0 0 255 255 255 51 51 51 34 34 34 136 136 136 102 102 102 0 0 0 153 153 153 238 238 238 102 102 102 153 153 153 68 68 68 187 187 187 187 187 187 204 204 204 238 238 238 221 221 221 85 85 85 238 238 238 187 187 187 153 153 153 17 17 17 85 85 85 85 85 85 238 238 238 170 170 170 136 136 136 68 68 68 204 204 204 153 153 153 34 34 34 85 85 85 102 102 102 68 68 68 136 136 136 0 0 0 136 136 136 119 119 119 136 136 136 170 170 170 221 221 221 34 34 34 119 119 119 85 85 85 153 153 153 255 255 255 0 0 0 0 0 0 51 51 51 34 34 34 136 136 136 102 102 102 136 136 136 102 102 102 0 0 0 238 238 238 238 238 238 34 34 34 119 119 119 85 85 85 153 153 153 85 85 85 136 136 136 221 221 221 170 170 170 85 85 85 170 170 170 170 170 170 34 34 34 0 0 0 51 51 51 187 187 187 221 221 221 102 102 102 153 153 153 68 68 68 187 187 187 255 255 255 0 0 0 119 119 119 51 51 51 255 255 255 238 238 238 170 170 170 170 170 170 68 68 68 187 187 187 221 221 221 0 0 0 0 0 0 51 51 51 255 255 255 238 238 238 170 170 170 238 238 238 68 68 68 187 187 187 187 187 187 221 221 221 170 170 170 170 170 170 68 68 68 187 187 187 221 221 221 221 221 221 187 187 187 34 34 34 68 68 68 187 187 187 221 221 221 0 0 0 34 34 34 119 119 119 187 187 187 221 221 221 170 170 170 238 238 238 68 68 68 187 187 187 221 221 221 221 221 221 187 187 187 102 102 102 68 68 68 187 187 187 221 221 221 0 0 0 
17 17 17 255 255 255 34 34 34 0 0 0 204 204 204 170 170 170 85 85 85 170 170 170 153 153 153 238 238 238 170 170 170 170 170 170 68 68 68 187 187 187 153 153 153 238 238 238 170 170 170 238 238 238 68 68 68 187 187 187 221 221 221 170 170 170 187 187 187 204 204 204 238 238 238 221 221 221 85 85 85 238 238 238 187 187 187 221 221 221 102 102 102 221 221 221 68 68 68 187 187 187 170 170 170 170 170 170 187 187 187 153 153 153 17 17 17 85 85 85 85 85 85 238 238 238 221 221 221 221 221 221 204 204 204 204 204 204 68 68 68 170 170 170 221 221 221 0 0 0 0 0 0 51 51 51 34 34 34 0 0 0 170 170 170 34 34 34 85 85 85 102 102 102 255 255 255 170 170 170 136 136 136 0 0 0 51 51 51 204 204 204 187 187 187 204 204 204 238 238 238 221 221 221 85 85 85 238 238 238 187 187 187 221 221 221 170 170 170 238 238 238 68 68 68 187 187 187 221 221 221 153 153 153 51 51 51 238 238 238 85 85 85 238 238 238 153 153 153 0 0 0 51 51 51 17 17 17 221 221 221 0 0 0 0 0 0 136 136 136 187 187 187 221 221 221 170 170 170 170 170 170 68 68 68 187 187 187 221 221 221 153 153 153 51 51 51 221 221 221 85 85 85 238 238 238 153 153 153 0 0 0 34 34 34 119 119 119 221 221 221 170 170 170 187 187 187 221 221 221 102 102 102 221 221 221 68 68 68 187 187 187 170 170 170 170 170 170 187 187 187 153 153 153 17 17 17 85 85 85 85 85 85 238 238 238 221 221 221 221 221 221 204 204 204 204 204 204 68 68 68 170 170 170 221 221 221 0 0 0 17 17 17 153 153 153 187 187 187 221 221 221 238 238 238 221 221 221 68 68 68 170 170 170 255 255 255 0 0 0 17 17 17 17 17 17 221 221 221 153 153 153 68 68 68 102 102 102 85 85 85 238 238 238 255 255 255 0 0 0 0 0 0 68 68 68 187 187 187 0 0 0 0 0 0 170 170 170 136 136 136 0 0 0 0 0 0 187 187 187 
187 187 187 221 221 221 238 238 238 153 153 153 68 68 68 170 170 170 221 221 221 153 153 153 68 68 68 85 85 85 85 85 85 238 238 238 153 153 153 0 0 0 0 0 0 51 51 51 34 34 34 0 0 0 170 170 170 34 34 34 85 85 85 102 102 102 255 255 255 170 170 170 204 204 204 170 170 170 17 17 17 0 0 0 136 136 136 85 85 85 170 170 170 34 34 34 0 0 0 51 51 51 17 17 17 238 238 238 204 204 204 0 0 0 68 68 68 187 187 187 153 153 153 0 0 0 17 17 17 187 187 187 221 221 221 170 170 170 187 187 187 204 204 204 238 238 238 221 221 221 85 85 85 238 238 238 187 187 187 153 153 153 17 17 17 85 85 85 85 85 85 238 238 238 170 170 170 136 136 136 187 187 187 221 221 221 238 238 238 221 221 221 85 85 85 238 238 238 17 17 17 136 136 136 102 102 102 153 153 153 17 17 17 119 119 119 170 170 170 34 34 34 85 85 85 238 238 238 153 153 153 0 0 0 0 0 0 17 17 17 238 238 238 136 136 136 34 34 34 0 0 0 85 85 85 119 119 119 85 85 85 102 102 102 136 136 136 170 170 170 255 255 255 170 170 170 153 153 153 221 221 221 102 102 102 221 221 221 68 68 68 187 187 187 204 204 204 170 170 170 17 17 17 0 0 0 221 221 221 221 221 221 34 34 34 0 0 0 255 255 255 17 17 17 85 85 85 102 102 102 119 119 119 170 170 170 255 255 255 170 170 170 153 153 153 204 204 204 34 34 34 119 119 119 85 85 85 153 153 153 34 34 34 136 136 136 102 102 102 136 136 136 102 102 102 0 0 0 17 17 17 238 238 238 119 119 119 102 102 102 68 68 68 187 187 187 153 153 153 0 0 0 17 17 17 187 187 187 187 187 187 204 204 204 238 238 238 221 221 221 85 85 85 238 238 238 187 187 187 221 221 221 119 119 119 170 170 170 68 68 68 187 187 187 153 153 153 153 153 153 34 34 34 153 153 153 85 85 85 238 238 238 187 187 187 221 221 221 119 119 119 238 238 238 68 68 68 187 187 187 
153 153 153 153 153 153 34 34 34 170 170 170 85 85 85 238 238 238 187 187 187 221 221 221 136 136 136 34 34 34 68 68 68 187 187 187 153 153 153 153 153 153 51 51 51 51 51 51 85 85 85 238 238 238 187 187 187 221 221 221 136 136 136 102 102 102 68 68 68 187 187 187 153 153 153 153 153 153 51 51 51 68 68 68 85 85 85 238 238 238 153 153 153 204 204 204 204 204 204 153 153 153 68 68 68 187 187 187 153 153 153 204 204 204 204 204 204 136 136 136 68 68 68 187 187 187 153 153 153 204 204 204 204 204 204 170 170 170 68 68 68 187 187 187 187 187 187 204 204 204 238 238 238 221 221 221 85 85 85 238 238 238 187 187 187 153 153 153 17 17 17 85 85 85 85 85 85 238 238 238 221 221 221 0 0 0 17 17 17 17 17 17 187 187 187 221 221 221 204 204 204 68 68 68 68 68 68 187 187 187 255 255 255 0 0 0 0 0 0 204 204 204 153 153 153 153 153 153 17 17 17 85 85 85 85 85 85 238 238 238 170 170 170 136 136 136 221 221 221 170 170 170 34 34 34 0 0 0 153 153 153 34 34 34 85 85 85 102 102 102 255 255 255 170 170 170 153 153 153 238 238 238 204 204 204 68 68 68 68 68 68 187 187 187 187 187 187 221 221 221 170 170 170 34 34 34 68 68 68 187 187 187 136 136 136 85 85 85 34 34 34 102 102 102 187 187 187 221 221 221 170 170 170 102 102 102 68 68 68 187 187 187 136 136 136 85 85 85 34 34 34 119 119 119 187 187 187 34 34 34 34 34 34 102 102 102 17 17 17 0 0 0 0 0 0 51 51 51 68 68 68 204 204 204 238 238 238 102 102 102 85 85 85 187 187 187 221 221 221 170 170 170 0 0 0 170 170 170 34 34 34 153 153 153 17 17 17 238 238 238 170 170 170 136 136 136 187 187 187 221 221 221 136 136 136 170 170 170 68 68 68 187 187 187 136 136 136 85 85 85 34 34 34 136 136 136 187 187 187 221 221 221 136 136 136 238 238 238 68 68 68 187 187 187 136 136 136 85 85 85 
34 34 34 153 153 153 187 187 187 221 221 221 153 153 153 34 34 34 68 68 68 187 187 187 136 136 136 85 85 85 34 34 34 170 170 170 187 187 187 221 221 221 153 153 153 102 102 102 68 68 68 187 187 187 136 136 136 85 85 85 34 34 34 187 187 187 187 187 187 221 221 221 238 238 238 221 221 221 85 85 85 238 238 238 170 170 170 170 170 170 187 187 187 17 17 17 34 34 34 136 136 136 153 153 153 221 221 221 17 17 17 187 187 187 85 85 85 238 238 238 204 204 204 136 136 136 187 187 187 17 17 17 34 34 34 136 136 136 153 153 153 221 221 221 17 17 17 204 204 204 85 85 85 238 238 238 187 187 187 34 34 34 34 34 34 102 102 102 68 68 68 170 170 170 68 68 68 170 170 170 68 68 68 170 170 170 34 34 34 153 153 153 0 0 0 238 238 238 170 170 170 136 136 136 187 187 187 17 17 17 34 34 34 170 170 170 153 153 153 221 221 221 68 68 68 119 119 119 85 85 85 238 238 238 204 204 204 136 136 136 187 187 187 17 17 17 34 34 34 170 170 170 153 153 153 221 221 221 68 68 68 136 136 136 85 85 85 238 238 238 255 255 255 170 170 170 153 153 153 221 221 221 187 187 187 102 102 102 68 68 68 187 187 187 136 136 136 136 136 136 187 187 187 17 17 17 34 34 34 170 170 170 153 153 153 221 221 221 187 187 187 34 34 34 68 68 68 187 187 187 187 187 187 204 204 204 238 238 238 221 221 221 85 85 85 238 238 238 187 187 187 221 221 221 187 187 187 204 204 204 68 68 68 187 187 187 34 34 34 153 153 153 0 0 0 17 17 17 221 221 221 0 0 0 17 17 17 85 85 85 51 51 51 136 136 136 187 187 187 221 221 221 187 187 187 34 34 34 68 68 68 187 187 187 255 255 255 221 221 221 153 153 153 170 170 170 68 68 68 187 187 187 153 153 153 153 153 153 51 51 51 221 221 221 85 85 85 238 238 238 187 187 187 221 221 221 187 187 187 102 102 102 68 68 68 187 187 187 255 255 255 221 221 221 153 153 153 238 238 238 
68 68 68 187 187 187 153 153 153 153 153 153 51 51 51 238 238 238 85 85 85 238 238 238 136 136 136 0 0 0 0 0 0 204 204 204 187 187 187 221 221 221 153 153 153 170 170 170 68 68 68 187 187 187 153 153 153 153 153 153 51 51 51 221 221 221 85 85 85 238 238 238 187 187 187 221 221 221 153 153 153 238 238 238 68 68 68 187 187 187 153 153 153 153 153 153 51 51 51 238 238 238 85 85 85 238 238 238 187 187 187 153 153 153 51 51 51 68 68 68 85 85 85 238 238 238 221 221 221 153 153 153 51 51 51 238 238 238 85 85 85 238 238 238 153 153 153 0 0 0 68 68 68 51 51 51 221 221 221 0 0 0 0 0 0 136 136 136 187 187 187 153 153 153 51 51 51 51 51 51 85 85 85 238 238 238 221 221 221 153 153 153 51 51 51 221 221 221 85 85 85 238 238 238 153 153 153 0 0 0 51 51 51 153 153 153 170 170 170 153 153 153 136 136 136 0 0 0 153 153 153 221 221 221 119 119 119 102 102 102 68 68 68 187 187 187 51 51 51 136 136 136 187 187 187 153 153 153 51 51 51 221 221 221 85 85 85 238 238 238 238 238 238 153 153 153 0 0 0 17 17 17 153 153 153 153 153 153 51 51 51 51 51 51 85 85 85 238 238 238 187 187 187 153 153 153 51 51 51 238 238 238 85 85 85 238 238 238 238 238 238 153 153 153 0 0 0 0 0 0 153 153 153 153 153 153 51 51 51 68 68 68 85 85 85 238 238 238 187 187 187 153 153 153 34 34 34 170 170 170 85 85 85 238 238 238 221 221 221 153 153 153 51 51 51 68 68 68 85 85 85 238 238 238 153 153 153 0 0 0 17 17 17 187 187 187 221 221 221 0 0 0 0 0 0 136 136 136 187 187 187 153 153 153 34 34 34 153 153 153 85 85 85 238 238 238 221 221 221 153 153 153 51 51 51 51 51 51 85 85 85 238 238 238 153 153 153 0 0 0 17 17 17 17 17 17 51 51 51 136 136 136 187 187 187 153 153 153 51 51 51 51 51 51 85 85 85 238 238 238 
238 238 238 153 153 153 0 0 0 17 17 17 153 153 153 153 153 153 34 34 34 153 153 153 85 85 85 238 238 238 187 187 187 153 153 153 51 51 51 68 68 68 85 85 85 238 238 238 238 238 238 153 153 153 0 0 0 0 0 0 153 153 153 153 153 153 34 34 34 170 170 170 85 85 85 238 238 238 170 170 170 153 153 153 136 136 136 0 0 0 153 153 153 221 221 221 204 204 204 0 0 0 68 68 68 187 187 187 255 255 255 238 238 238 170 170 170 34 34 34 68 68 68 187 187 187 221 221 221 0 0 0 0 0 0 51 51 51 255 255 255 238 238 238 170 170 170 102 102 102 68 68 68 187 187 187 102 102 102 0 0 0 136 136 136 221 221 221 187 187 187 170 170 170 68 68 68 187 187 187 170 170 170 0 0 0 0 0 0 17 17 17 187 187 187 17 17 17 34 34 34 102 102 102 136 136 136 221 221 221 187 187 187 187 187 187 68 68 68 187 187 187 204 204 204 136 136 136 170 170 170 221 221 221 187 187 187 187 187 187 68 68 68 187 187 187 34 34 34 153 153 153 0 0 0 136 136 136 255 255 255 0 0 0 68 68 68 68 68 68 0 0 0 238 238 238 204 204 204 170 170 170 68 68 68 187 187 187 187 187 187 0 0 0 51 51 51 238 238 238 187 187 187 221 221 221 238 238 238 51 51 51 68 68 68 187 187 187 255 255 255 0 0 0 17 17 17 17 17 17 170 170 170 85 85 85 34 34 34 102 102 102 153 153 153 221 221 221 255 255 255 51 51 51 68 68 68 187 187 187 170 170 170 85 85 85 34 34 34 119 119 119 153 153 153 221 221 221 255 255 255 119 119 119 68 68 68 187 187 187 170 170 170 153 153 153 136 136 136 0 0 0 153 153 153 221 221 221 238 238 238 255 255 255 68 68 68 187 187 187 136 136 136 0 0 0 0 0 0 255 255 255 170 170 170 85 85 85 34 34 34 102 102 102 153 153 153 221 221 221 238 238 238 119 119 119 68 68 68 187 187 187 170 170 170 85 85 85 34 34 34 119 119 119 153 153 153 221 221 221 
238 238 238 187 187 187 68 68 68 187 187 187 170 170 170 153 153 153 136 136 136 0 0 0 153 153 153 221 221 221 238 238 238 51 51 51 68 68 68 187 187 187 187 187 187 17 17 17 34 34 34 102 102 102 0 0 0 170 170 170 170 170 170 136 136 136 187 187 187 17 17 17 34 34 34 204 204 204 17 17 17 136 136 136 102 102 102 221 221 221 255 255 255 187 187 187 68 68 68 187 187 187 153 153 153 221 221 221 170 170 170 34 34 34 68 68 68 187 187 187 204 204 204 136 136 136 187 187 187 17 17 17 34 34 34 204 204 204 102 102 102 221 221 221 255 255 255 204 204 204 68 68 68 187 187 187 153 153 153 221 221 221 170 170 170 102 102 102 68 68 68 187 187 187 68 68 68 204 204 204 0 0 0 204 204 204 85 85 85 187 187 187 204 204 204 136 136 136 170 170 170 221 221 221 204 204 204 153 153 153 68 68 68 187 187 187 0 0 0 221 221 221 204 204 204 136 136 136 68 68 68 187 187 187 221 221 221 0 0 0 34 34 34 51 51 51 170 170 170 221 221 221 187 187 187 187 187 187 68 68 68 187 187 187 34 34 34 153 153 153 17 17 17 0 0 0 255 255 255 0 0 0 17 17 17 204 204 204 187 187 187 221 221 221 221 221 221 119 119 119 68 68 68 187 187 187 255 255 255 0 0 0 0 0 0 85 85 85 221 221 221 238 238 238 221 221 221 119 119 119 68 68 68 187 187 187 255 255 255 0 0 0 17 17 17 34 34 34 187 187 187 221 221 221 221 221 221 187 187 187 68 68 68 187 187 187 153 153 153 221 221 221 170 170 170 34 34 34 68 68 68 187 187 187 187 187 187 221 221 221 221 221 221 255 255 255 68 68 68 187 187 187 153 153 153 221 221 221 170 170 170 102 102 102 68 68 68 187 187 187 238 238 238 238 238 238 204 204 204 153 153 153 68 68 68 187 187 187 68 68 68 204 204 204 0 0 0 204 204 204 85 85 85 187 187 187 170 170 170 221 221 221 204 204 204 153 153 153 68 68 68 187 187 187 0 0 0 221 221 221 
204 204 204 136 136 136 68 68 68 187 187 187 221 221 221 0 0 0 34 34 34 51 51 51 170 170 170 221 221 221 187 187 187 187 187 187 68 68 68 187 187 187 34 34 34 153 153 153 68 68 68 0 0 0 255 255 255 0 0 0 17 17 17 204 204 204 187 187 187 221 221 221 204 204 204 187 187 187 68 68 68 187 187 187 255 255 255 0 0 0 0 0 0 85 85 85 221 221 221 238 238 238 204 204 204 187 187 187 68 68 68 187 187 187 255 255 255 0 0 0 17 17 17 34 34 34 187 187 187 221 221 221 204 204 204 255 255 255 68 68 68 187 187 187 153 153 153 221 221 221 170 170 170 34 34 34 68 68 68 187 187 187 187 187 187 221 221 221 221 221 221 51 51 51 68 68 68 187 187 187 153 153 153 221 221 221 170 170 170 102 102 102 68 68 68 187 187 187 238 238 238 238 238 238 204 204 204 136 136 136 68 68 68 187 187 187 68 68 68 204 204 204 0 0 0 204 204 204 85 85 85 187 187 187 170 170 170 221 221 221 187 187 187 187 187 187 68 68 68 187 187 187 34 34 34 153 153 153 136 136 136 0 0 0 255 255 255 0 0 0 17 17 17 136 136 136 170 170 170 221 221 221 204 204 204 153 153 153 68 68 68 187 187 187 0 0 0 221 221 221 204 204 204 136 136 136 68 68 68 187 187 187 221 221 221 0 0 0 0 0 0 255 255 255 170 170 170 85 85 85 34 34 34 102 102 102 153 153 153 221 221 221 204 204 204 255 255 255 68 68 68 187 187 187 170 170 170 85 85 85 34 34 34 119 119 119 153 153 153 221 221 221 221 221 221 51 51 51 68 68 68 187 187 187 187 187 187 17 17 17 34 34 34 102 102 102 153 153 153 221 221 221 204 204 204 187 187 187 68 68 68 187 187 187 204 204 204 136 136 136 170 170 170 221 221 221 187 187 187 187 187 187 68 68 68 187 187 187 34 34 34 153 153 153 34 34 34 0 0 0 255 255 255 0 0 0 17 17 17 85 85 85 170 170 170 221 221 221 204 204 204 153 153 153 68 68 68 187 187 187 
